;FLAVOR:Marlin
;TIME:5906
;Filament used: 3.30104m
;Layer height: 0.2
;MINX:87.7
;MINY:102.195
;MINZ:0.2
;MAXX:147.299
;MAXY:132.803
;MAXZ:48
;TARGET_MACHINE.NAME:Creality Ender-3
;Generated with Cura_SteamEngine 5.7.1
M140 S50
M105
M190 S50
M104 S200
M105
M109 S200
M82 ;absolute extrusion mode
; Ender 3 Custom Start G-code
G92 E0 ; Reset Extruder
G28 ; Home all axes
G1 Z2.0 F3000 ; Move Z Axis up little to prevent scratching of Heat Bed
G1 X0.1 Y20 Z0.3 F5000.0 ; Move to start position
G1 X0.1 Y200.0 Z0.3 F1500.0 E15 ; Draw the first line
G1 X0.4 Y200.0 Z0.3 F5000.0 ; Move to side a little
G1 X0.4 Y20 Z0.3 F1500.0 E30 ; Draw the second line
G92 E0 ; Reset Extruder
G1 Z2.0 F3000 ; Move Z Axis up little to prevent scratching of Heat Bed
G1 X5 Y20 Z0.3 F5000.0 ; Move over to prevent blob squish
G92 E0
G92 E0
G1 F2700 E-5
;LAYER_COUNT:240
;LAYER:0
M107
;MESH:3DBenchy.stl
G0 F6000 X110.226 Y118.778 Z0.2
;TYPE:WALL-INNER
G1 F2700 E0
G1 F1200 X110.646 Y118.769 E0.01397
G1 X111.002 Y118.721 E0.02592
G1 X111.27 Y118.515 E0.03716
G1 X111.421 Y118.233 E0.0478
G1 X111.502 Y117.83 E0.06147
G1 X111.519 Y117.452 E0.07406
G1 X111.499 Y116.992 E0.08937
G1 X111.398 Y116.594 E0.10303
G1 X111.268 Y116.364 E0.11182
G1 X111.075 Y116.203 E0.12018
G1 X110.62 Y116.159 E0.13538
G1 X110.223 Y116.148 E0.14859
G1 X110.226 Y118.778 E0.23606
G0 F6000 X109.971 Y119.196
;TYPE:WALL-OUTER
G1 F1200 X110.276 Y119.176 E0.24623
G1 X110.676 Y119.168 E0.25954
G1 X111.134 Y119.107 E0.27491
G1 X111.407 Y118.948 E0.28541
G1 X111.596 Y118.753 E0.29445
G1 X111.751 Y118.465 E0.30532
G1 X111.834 Y118.209 E0.31427
G1 X111.9 Y117.879 E0.32547
G1 X111.919 Y117.452 E0.33968
G1 X111.897 Y116.934 E0.35693
G1 X111.772 Y116.444 E0.37375
G1 X111.59 Y116.122 E0.38605
G1 X111.428 Y115.956 E0.39376
G1 X111.04 Y115.798 E0.4077
G1 X110.659 Y115.76 E0.42043
G1 X110.134 Y115.745 E0.4379
G1 X109.85 Y115.758 E0.44736
G1 X109.82 Y115.857 E0.4508
G1 X109.828 Y118.72 E0.54602
G1 X109.811 Y119.023 E0.55612
G1 X109.852 Y119.129 E0.5599
G1 X109.971 Y119.196 E0.56444
G0 F6000 X110.058 Y118.905
G0 X110.664 Y118.666
G0 X110.625 Y118.369
;TYPE:SKIN
G1 F1004.2 X110.622 Y116.561 E0.6363
G1 F1000 X110.918 Y116.589 E0.64817
G1 X111.022 Y116.75 E0.65582
G1 X111.101 Y117.048 E0.66812
G1 F995.9 X111.113 Y117.43 E0.68344
G1 F997.9 X111.102 Y117.782 E0.69752
G1 F1006.3 X111.037 Y118.098 E0.71032
G1 X110.95 Y118.262 E0.71768
G1 X110.852 Y118.337 E0.72258
G1 X110.625 Y118.369 E0.73167
G1 F2700 E-4.26833
G0 F6000 X110.664 Y118.666
G0 X110.028 Y117.635
G0 X108.224 Y117.637
G0 X107.81 Y117.64
G0 X107.893 Y118.274
;TYPE:WALL-INNER
G1 F2700 E0.73167
G1 F741.9 X107.906 Y118.419 E0.7395
G1 F768 X107.916 Y118.819 E0.76029
G1 F748.8 X107.891 Y119.217 E0.78155
G1 F2700 E-4.21845
G0 F6000 X107.702 Y119.735
G0 X108.368 Y120.524
G0 X108.64 Y120.777
G0 X110.991 Y121.108
G0 X112.601 Y120.514
G0 X114.317 Y121.632
G0 X115.628 Y120.976
G0 X117.364 Y121.01
G0 X117.604 Y120.708
G0 X119.002 Y121.317
G0 X119.459 Y121.404
G0 X119.192 Y123.182
G0 X120.85 Y123.812
G0 X122.567 Y122.208
G0 X123.415 Y120.014
G0 X123.801 Y119.361
G0 X125.047 Y121.373
G0 X126.785 Y121.366
G0 X125.433 Y122.434
G0 X123.69 Y123.435
G0 X122.519 Y123.935
G0 X120.935 Y124.427
G0 X119.383 Y124.697
G0 X117.497 Y124.899
G0 X117.487 Y124.999
G1 F2700 E0.78155
G1 F1200 X118.115 Y124.986 E0.80244
G1 X119.038 Y124.92 E0.83322
G1 X119.295 Y124.891 E0.84182
G1 X119.993 Y124.786 E0.8653
G1 X120.603 Y124.667 E0.88597
G1 X120.978 Y124.583 E0.89875
G1 X121.553 Y124.429 E0.91855
G1 X122.556 Y124.093 E0.95373
G1 X122.947 Y123.938 E0.96772
G1 X123.74 Y123.589 E0.99654
G1 X124.155 Y123.38 E1.01199
G1 X124.986 Y122.909 E1.04376
G1 X125.527 Y122.564 E1.0651
G1 X126.215 Y122.069 E1.09329
G1 X126.685 Y121.697 E1.11323
G1 X127.271 Y121.179 E1.13924
G1 X125.637 Y121.176 E1.19359
G1 X125.073 Y121.212 E1.21239
G1 X124.593 Y121.049 E1.22925
G1 X124.266 Y120.685 E1.24552
G1 X124.184 Y120.506 E1.25207
G1 F973.6 X124.016 Y119.803 E1.2817
G1 F821.9 X124.152 Y119.334 E1.30541
G1 F975.6 X124.458 Y119.016 E1.32347
G1 F1197 X125.5 Y117.575 E1.38276
G1 F1200 X125.01 Y117.53 E1.39913
G1 X124.58 Y117.353 E1.41459
G1 X124.31 Y117.072 E1.42755
G1 X124.094 Y117.521 E1.44413
G1 X123.842 Y118.291 E1.47107
G1 F1197 X123.71 Y118.66 E1.48414
G1 F979.6 X123.661 Y119.06 E1.50056
G1 F837.7 X123.59 Y119.244 E1.50996
G1 F831.9 X123.453 Y119.656 E1.53079
G1 F958.1 X123.252 Y119.966 E1.54618
G1 F1176.5 X123.148 Y120.231 E1.55584
G1 F1200 X122.919 Y120.872 E1.57848
G1 X122.431 Y122.116 E1.62292
G1 X122.259 Y122.495 E1.63676
G1 X121.981 Y122.988 E1.65559
G1 X121.422 Y123.444 E1.67958
G1 X120.807 Y123.656 E1.70122
G1 X120.359 Y123.722 E1.71628
G1 X120.075 Y123.694 E1.72577
G1 X119.715 Y123.562 E1.73852
G1 X119.469 Y123.319 E1.75003
G1 X119.34 Y123.118 E1.75797
G1 X119.199 Y122.754 E1.77095
G1 X119.2 Y122.338 E1.78479
G1 X119.237 Y122.197 E1.78964
G1 X119.423 Y121.896 E1.80141
G1 F1008.4 X119.521 Y121.717 E1.80948
G1 F843.6 X119.665 Y121.611 E1.81794
G1 F975.6 X120.096 Y121.562 E1.83569
G1 F1200 X120.35 Y121.467 E1.84471
G1 X120.527 Y121.225 E1.85468
G1 X120.681 Y120.813 E1.86931
G1 X120.932 Y120.276 E1.88902
G1 X120.923 Y120.121 E1.89419
G1 X120.649 Y119.509 E1.91649
G1 X119.994 Y117.741 E1.9792
G1 X119.842 Y117.39 E1.99192
G1 X119.652 Y116.86 E2.01065
G1 X119.206 Y117.641 E2.04056
G1 X118.902 Y118.132 E2.05977
G1 X118.889 Y118.252 E2.06378
G1 X119.086 Y118.57 E2.07623
G1 X119.356 Y119.044 E2.09437
G1 X119.649 Y119.499 E2.11237
G1 X119.797 Y120.007 E2.12997
G1 X119.749 Y120.516 E2.14697
G1 F1076.2 X119.361 Y121.127 E2.17381
G1 X118.939 Y121.167 E2.18953
G1 F1200 X118.735 Y121.207 E2.19645
G1 X118.403 Y121.153 E2.20764
G1 X118.208 Y121.067 E2.21472
G1 X117.821 Y120.716 E2.2321
G1 X117.617 Y120.363 E2.24566
G1 X117.255 Y120.889 E2.2669
G1 X116.843 Y121.145 E2.28303
G1 X116.603 Y121.167 E2.29105
G1 X116.236 Y121.129 E2.30332
G1 X116.036 Y121.042 E2.31057
G1 X115.747 Y120.822 E2.32265
G1 X115.645 Y120.669 E2.32877
G1 X115.542 Y120.819 E2.33482
G1 X115.239 Y121.138 E2.34946
G1 X114.848 Y121.362 E2.36444
G1 X114.314 Y121.469 E2.38256
G1 X113.875 Y121.424 E2.39723
G1 X113.479 Y121.262 E2.41147
G1 X113.155 Y121.012 E2.42508
G1 X112.81 Y120.587 E2.44328
G1 X112.708 Y120.194 E2.45679
G1 X112.358 Y120.489 E2.47201
G1 X111.874 Y120.751 E2.49032
G1 X111.399 Y120.88 E2.50669
G1 X111.008 Y120.945 E2.51987
G1 X110.545 Y120.976 E2.53531
G1 X110.14 Y120.984 E2.54878
G1 X109.546 Y120.977 E2.56854
G1 X109.06 Y121.025 E2.58478
G1 X108.72 Y120.959 E2.5963
G1 X108.501 Y120.869 E2.60417
G1 X108.225 Y120.613 E2.61669
G1 X108.027 Y120.137 E2.63384
G1 X108.012 Y119.642 E2.65031
G1 F1030 X107.897 Y119.208 E2.66771
G1 X107.64 Y119.575 E2.68507
G1 F1200 X107.558 Y119.779 E2.69238
G1 X107.312 Y120.199 E2.70857
G1 X106.963 Y120.569 E2.72549
G1 X106.616 Y120.818 E2.73969
G1 X106.169 Y121.022 E2.75604
G1 X105.576 Y121.149 E2.77621
G1 X104.895 Y121.151 E2.79886
G1 X104.128 Y121.009 E2.8248
G1 X103.628 Y120.726 E2.84391
G1 X103.297 Y120.378 E2.85988
G1 X103.127 Y119.929 E2.87585
G1 X103.107 Y119.444 E2.892
G1 X103.243 Y119.112 E2.90393
G1 X103.411 Y118.891 E2.91316
G1 X103.638 Y118.722 E2.92258
G1 X103.987 Y118.598 E2.9349
G1 F1194 X104.406 Y118.588 E2.9489
G1 F1159.4 X104.876 Y118.7 E2.96554
G1 F1100.9 X105.313 Y119.034 E2.98548
G1 F1076.2 X105.386 Y119.006 E2.98838
G1 X105.483 Y118.881 E2.99424
G1 X105.471 Y118.689 E3.00138
G1 X105.346 Y118.503 E3.00969
G1 F1100.9 X105.133 Y118.325 E3.01975
G1 F1156.6 X104.392 Y118.17 E3.04588
G1 F1194 X104.189 Y118.067 E3.05349
G1 F1200 X103.897 Y117.726 E3.06842
G1 X103.82 Y117.519 E3.07576
G1 X103.78 Y117.097 E3.08986
G1 X103.944 Y116.602 E3.10721
G1 X104.181 Y116.322 E3.11941
G1 X103.998 Y116.304 E3.12552
G1 X103.69 Y116.197 E3.13637
G1 X103.352 Y115.885 E3.15167
G1 X103.148 Y115.495 E3.16631
G1 X102.98 Y115.736 E3.17608
G1 X102.704 Y115.967 E3.18805
G1 X102.293 Y116.09 E3.20232
G1 X101.661 Y116.108 E3.22335
G1 X101.329 Y116.091 E3.2344
G1 X101.328 Y119.18 E3.33714
G1 X101.352 Y119.863 E3.35987
G1 X101.211 Y120.437 E3.37953
G1 X100.956 Y120.745 E3.39283
G1 X100.738 Y120.879 E3.40134
G1 X100.332 Y121.02 E3.41564
G1 X99.944 Y120.972 E3.42864
G1 X99.703 Y120.884 E3.43717
G1 X99.345 Y120.636 E3.45166
G1 X99.176 Y120.253 E3.46558
G1 X99.152 Y120.104 E3.4706
G1 X99.195 Y119.539 E3.48945
G1 X99.184 Y118.724 E3.51656
G1 X99.185 Y116.482 E3.59113
G1 X99.211 Y116.079 E3.60456
G1 X98.968 Y116.077 E3.61264
G1 X98.418 Y116.153 E3.63111
G1 X97.943 Y116.06 E3.64721
G1 X97.79 Y115.994 E3.65275
G1 X97.529 Y115.744 E3.66477
G1 X97.417 Y115.534 E3.67269
G1 X97.369 Y115.768 E3.68063
G1 X97.193 Y116.079 E3.69252
G1 X96.957 Y116.33 E3.70397
G1 X96.533 Y116.501 E3.71918
G1 X96.165 Y116.478 E3.73144
G1 X95.716 Y116.323 E3.74724
G1 X95.198 Y116.002 E3.76751
G1 X94.914 Y115.979 E3.77699
G1 X94.7 Y116.044 E3.78443
G1 X94.498 Y116.182 E3.79256
G1 X94.344 Y116.405 E3.80158
G1 X94.243 Y116.673 E3.8111
G1 X94.189 Y116.93 E3.81984
G1 X94.155 Y117.556 E3.84069
G1 X94.198 Y118.075 E3.85801
G1 X94.286 Y118.421 E3.86989
G1 X94.419 Y118.655 E3.87884
G1 X94.638 Y118.847 E3.88852
G1 X95.032 Y118.958 E3.90214
G1 X95.391 Y118.912 E3.91418
G1 X95.689 Y118.599 E3.92855
G1 X96.165 Y118.446 E3.94518
G1 X96.36 Y118.44 E3.95167
G1 X96.875 Y118.571 E3.96934
G1 X97.212 Y118.817 E3.98322
G1 X97.398 Y119.137 E3.99553
G1 X97.469 Y119.515 E4.00832
G1 X97.45 Y119.673 E4.01362
G1 X97.22 Y120.211 E4.03308
G1 X96.863 Y120.581 E4.05018
G1 X96.452 Y120.865 E4.06679
G1 X95.937 Y121.054 E4.08504
G1 X95.572 Y121.133 E4.09746
G1 X95.1 Y121.152 E4.11317
G1 X94.518 Y121.125 E4.13255
G1 X93.872 Y120.941 E4.15489
G1 X93.304 Y120.618 E4.17662
G1 X92.965 Y120.338 E4.19125
G1 X92.527 Y119.825 E4.21368
G1 X92.224 Y119.19 E4.23708
G1 X92.225 Y122.478 E4.34644
G1 X92.296 Y122.783 E4.35686
G1 X92.409 Y123.034 E4.36602
G1 X92.577 Y123.259 E4.37535
G1 X92.8 Y123.41 E4.38431
G1 X93.191 Y123.544 E4.39806
G1 X116.873 Y124.981 E5.18717
G1 X117.487 Y124.999 E5.2076
G1 F2700 E0.2076
G0 F6000 X117.497 Y124.899
G0 X119.961 Y124.629
G0 X121.503 Y124.277
G0 X122.881 Y123.791
G0 X124.104 Y123.225
G0 X125.433 Y122.434
G0 X126.785 Y121.366
G0 X124.284 Y120.976
G0 X123.801 Y119.361
G0 X123.415 Y120.014
G0 X121.586 Y123.517
G0 X119.563 Y123.636
G0 X119.1 Y122.086
G0 X119.309 Y121.781
G0 X119.459 Y121.404
G0 X119.002 Y121.317
G0 X117.604 Y120.708
G0 X116.567 Y121.327
G0 X115.872 Y120.734
G0 X115.677 Y120.4
G0 X115.928 Y118.872
G0 X115.774 Y119.338
G1 F2700 E5.2076
G1 F1200 X116.234 Y118.545 E5.2381
G1 X116.444 Y118.261 E5.24984
G1 X116.275 Y118.003 E5.2601
G1 X115.719 Y117.031 E5.29735
G1 X115.55 Y116.507 E5.31566
G1 X115.62 Y115.994 E5.33288
G1 X115.912 Y115.635 E5.34827
G1 X116.224 Y115.447 E5.36039
G1 X116.643 Y115.381 E5.37449
G1 X116.83 Y115.398 E5.38074
G1 X117.186 Y115.533 E5.3934
G1 X117.488 Y115.816 E5.40717
G1 X117.671 Y116.067 E5.4175
G1 X117.8 Y115.875 E5.42519
G1 X118.197 Y115.523 E5.44284
G1 X118.639 Y115.389 E5.4582
G1 X118.898 Y115.398 E5.46682
G1 X119.182 Y115.502 E5.47688
G1 X119.32 Y115.599 E5.48249
G1 F1197 X119.609 Y115.933 E5.49722
G1 F1194 X119.662 Y116.049 E5.50148
G1 F1197 X119.757 Y115.834 E5.50932
G1 F1200 X119.971 Y115.595 E5.51999
G1 X120.183 Y115.463 E5.5283
G1 X120.524 Y115.375 E5.54001
G1 X120.894 Y115.414 E5.55238
G1 X121.266 Y115.555 E5.56561
G1 X121.606 Y115.872 E5.58108
G1 X121.783 Y116.271 E5.59559
G1 X121.922 Y116.779 E5.61311
G1 X122.033 Y117.074 E5.62359
G1 X122.267 Y116.356 E5.64871
G1 X122.493 Y115.928 E5.66481
G1 X122.789 Y115.602 E5.67945
G1 X123.051 Y115.445 E5.68961
G1 X123.226 Y115.393 E5.69569
G1 X123.483 Y115.392 E5.70423
G1 X123.703 Y115.446 E5.71177
G1 X124.023 Y115.63 E5.72405
G1 X124.264 Y115.957 E5.73756
G1 X124.436 Y115.692 E5.74806
G1 X124.881 Y115.443 E5.76502
G1 X125.414 Y115.38 E5.78288
G1 X127.612 Y115.39 E5.85598
G1 F1124.1 X128.033 Y115.491 E5.87135
G1 F1010.5 X128.184 Y115.566 E5.87801
G1 F989.7 X128.324 Y115.707 E5.88603
G1 F987.7 X128.507 Y115.994 E5.89978
G1 F1071.4 X128.552 Y116.42 E5.91574
G1 F1200 X128.527 Y116.837 E5.92963
G1 X128.368 Y117.26 E5.94466
G1 X128.087 Y117.686 E5.96164
G1 X127.166 Y118.991 E6.01476
G1 X127.56 Y119.002 E6.02787
G1 X128.116 Y119.142 E6.04694
G1 X128.47 Y119.495 E6.06357
G1 X128.596 Y119.77 E6.07363
G1 X128.822 Y119.493 E6.08552
G1 X129.066 Y119.165 E6.09912
G1 X129.579 Y118.423 E6.12912
G1 X129.924 Y117.842 E6.15159
G1 X130.016 Y117.599 E6.16024
G1 X130 Y117.369 E6.1679
G1 X129.898 Y117.108 E6.17722
G1 X129.636 Y116.668 E6.19426
G1 X129.204 Y116.031 E6.21986
G1 F1071.4 X128.932 Y115.739 E6.23472
G1 F987.7 X128.693 Y115.409 E6.25119
G1 F989.7 X128.513 Y115.204 E6.26219
G1 F1010.5 X128.412 Y115.053 E6.26936
G1 F1124.1 X128.132 Y114.69 E6.28564
G1 F1200 X127.562 Y114.096 E6.31302
G1 X127.01 Y113.581 E6.33813
G1 X126.528 Y113.173 E6.35914
G1 X125.908 Y112.702 E6.38503
G1 X125.505 Y112.415 E6.40149
G1 X125.034 Y112.116 E6.42004
G1 X124.502 Y111.802 E6.44059
G1 X123.847 Y111.468 E6.46504
G1 X123.409 Y111.256 E6.48123
G1 X122.719 Y110.967 E6.50611
G1 X122.289 Y110.807 E6.52137
G1 X121.775 Y110.638 E6.53937
G1 X121.255 Y110.488 E6.55737
G1 X120.737 Y110.357 E6.57514
G1 X120 Y110.205 E6.60017
G1 X118.998 Y110.074 E6.63378
G1 X118.282 Y110.02 E6.65766
G1 X117.506 Y110.001 E6.68348
G1 X116.79 Y110.022 E6.7073
G1 X93.328 Y111.446 E7.48909
G1 X93.052 Y111.481 E7.49834
G1 X92.7 Y111.638 E7.51116
G1 X92.544 Y111.787 E7.51833
G1 X92.313 Y112.124 E7.53192
G1 X92.224 Y112.518 E7.54536
G1 X92.224 Y115.759 E7.65315
G1 X92.312 Y115.518 E7.66169
G1 X92.642 Y114.932 E7.68406
G1 X93.225 Y114.349 E7.71148
G1 X93.838 Y114.012 E7.73474
G1 X94.256 Y113.872 E7.74941
G1 X94.799 Y113.772 E7.76777
G1 X95.397 Y113.781 E7.78766
G1 X95.805 Y113.836 E7.80135
G1 X96.301 Y113.995 E7.81868
G1 X96.738 Y114.246 E7.83544
G1 X97.086 Y114.542 E7.85064
G1 X97.311 Y114.888 E7.86436
G1 X97.422 Y114.491 E7.87807
G1 X97.608 Y114.215 E7.88914
G1 X97.947 Y113.975 E7.90296
G1 X98.363 Y113.909 E7.91697
G1 X98.988 Y113.955 E7.93781
G1 X99.578 Y113.944 E7.95744
G1 X101.653 Y113.948 E8.02645
G1 X102.325 Y113.936 E8.04881
G1 X102.601 Y113.997 E8.05821
G1 X102.944 Y114.183 E8.07119
G1 F1194 X103.226 Y114.617 E8.08849
G1 X103.534 Y114.315 E8.10291
G1 F1200 X103.839 Y114.098 E8.11536
G1 X104.236 Y113.927 E8.12973
G1 X104.512 Y113.848 E8.13928
G1 X104.874 Y113.789 E8.15148
G1 X105.226 Y113.768 E8.16321
G1 X105.548 Y113.78 E8.17393
G1 X105.971 Y113.831 E8.1881
G1 X106.441 Y113.975 E8.20445
G1 X106.912 Y114.233 E8.22231
G1 F1165 X107.293 Y114.657 E8.24184
G1 F1113.7 X107.566 Y115.21 E8.26394
G1 F1108.5 X107.58 Y115.79 E8.28483
G1 F1023.5 X107.537 Y116.434 E8.31
G1 F895.5 X107.407 Y116.828 E8.32849
G1 F852.6 X107.298 Y116.97 E8.33687
G1 F854.1 X107.45 Y117.145 E8.3477
G1 F939.3 X107.541 Y117.407 E8.35948
G1 F1142.9 X107.663 Y117.933 E8.37834
G1 F1066.7 X107.901 Y118.252 E8.39323
G1 X108.033 Y117.877 E8.40811
G1 F1142.9 X107.992 Y117.339 E8.42695
G1 F937.5 X107.94 Y116.955 E8.44345
G1 F943 X107.994 Y116.394 E8.4673
G1 F1081.1 X108.01 Y115.444 E8.50238
G1 F1088.4 X107.97 Y115.058 E8.51661
G1 F1100.9 X108.049 Y114.579 E8.53421
G1 F1165 X108.281 Y114.242 E8.54823
G1 F1200 X108.713 Y114.002 E8.56466
G1 X109.135 Y113.935 E8.57888
G1 X109.827 Y113.948 E8.6019
G1 X110.284 Y113.944 E8.6171
G1 X110.69 Y113.958 E8.63061
G1 X111.03 Y113.985 E8.64195
G1 X111.559 Y114.069 E8.65977
G1 X112.038 Y114.214 E8.67641
G1 X112.568 Y114.535 E8.69702
G1 X113.086 Y115.088 E8.72222
G1 X113.453 Y115.795 E8.74872
G1 X113.589 Y116.261 E8.76486
G1 X113.653 Y116.584 E8.77582
G1 X113.698 Y116.932 E8.78749
G1 X113.72 Y117.502 E8.80646
G1 X113.708 Y117.838 E8.81764
G1 X113.645 Y118.398 E8.83638
G1 X114.016 Y118.271 E8.84943
G1 X114.569 Y118.292 E8.86783
G1 X114.998 Y118.431 E8.88283
G1 X115.24 Y118.587 E8.89241
G1 X115.596 Y118.963 E8.90963
G1 X115.738 Y119.212 E8.91916
G1 X115.774 Y119.338 E8.92352
G0 F6000 X115.928 Y118.872
G0 X114.543 Y118.447
G0 X113.508 Y118.198
G0 X113.54 Y116.959
G0 X113.311 Y115.861
G0 X112.95 Y115.175
G0 X112.469 Y114.665
G0 X111.971 Y114.368
G0 X111.023 Y114.148
G0 X109.153 Y114.095
G0 X108.774 Y114.156
G0 X108.391 Y114.366
