;FLAVOR:Marlin
;TIME:53
;Filament used: 0.0183636m
;Layer height: 0.2
;MINX:107.729
;MINY:107.729
;MINZ:0.2
;MAXX:127.267
;MAXY:127.267
;MAXZ:1
;TARGET_MACHINE.NAME:Creality Ender-3
;Generated with Cura_SteamEngine 5.7.1
M140 S50
M105
M190 S50
M104 S200
M105
M109 S200
M82 ;absolute extrusion mode
; Ender 3 Custom Start G-code
G92 E0 ; Reset Extruder
G28 ; Home all axes
G1 Z2.0 F3000 ; Move Z Axis up little to prevent scratching of Heat Bed
G1 X0.1 Y20 Z0.3 F5000.0 ; Move to start position
G1 X0.1 Y200.0 Z0.3 F1500.0 E15 ; Draw the first line
G1 X0.4 Y200.0 Z0.3 F5000.0 ; Move to side a little
G1 X0.4 Y20 Z0.3 F1500.0 E30 ; Draw the second line
G92 E0 ; Reset Extruder
G1 Z2.0 F3000 ; Move Z Axis up little to prevent scratching of Heat Bed
G1 X5 Y20 Z0.3 F5000.0 ; Move over to prevent blob squish
G92 E0
G92 E0
G1 F2700 E-5
;LAYER_COUNT:5
;LAYER:0
M106 S255
;MESH:Circle.stl
G0 F6000 X117.5 Y127.038 Z0.2
;TYPE:WALL-OUTER
G1 F2700 E0
G1 F438.8 X116.252 Y126.959 E0.05688
G1 F436.4 X115.024 Y126.713 E0.11415
G1 X113.849 Y126.315 E0.17089
G1 F437.2 X112.729 Y125.762 E0.22791
G1 X111.692 Y125.069 E0.28484
G1 F436.4 X110.751 Y124.245 E0.34204
G1 F437.2 X109.929 Y123.305 E0.39905
G1 F438 X109.234 Y122.266 E0.45601
G1 F436.4 X108.683 Y121.146 E0.51309
G1 F435.6 X108.283 Y119.973 E0.56987
G1 X108.041 Y118.748 E0.62708
G1 F437.2 X107.958 Y117.5 E0.68418
G1 F438 X108.041 Y116.252 E0.74117
G1 F436.4 X108.283 Y115.023 E0.79845
G1 F434.8 X108.679 Y113.859 E0.85489
G1 F435.6 X109.234 Y112.73 E0.91253
G1 F438 X109.929 Y111.691 E0.96948
G1 F436.4 X110.752 Y110.752 E1.02659
G1 X111.691 Y109.929 E1.08369
G1 F438 X112.73 Y109.234 E1.14065
G1 F436.4 X113.85 Y108.682 E1.19775
G1 X115.007 Y108.288 E1.25365
G1 F437.2 X116.252 Y108.041 E1.31159
G1 F438.8 X117.5 Y107.958 E1.36848
G1 X118.748 Y108.041 E1.42537
G1 F438 X119.973 Y108.282 E1.48226
G1 F437.2 X121.146 Y108.682 E1.53883
G1 X122.266 Y109.234 E1.59583
G1 F438.8 X123.305 Y109.929 E1.65269
G1 F438 X124.245 Y110.751 E1.70958
G1 F435.6 X125.069 Y111.692 E1.76689
G1 F436.4 X125.762 Y112.729 E1.82393
G1 F438 X126.314 Y113.85 E1.88087
G1 F437.2 X126.714 Y115.024 E1.93749
G1 F435.6 X126.959 Y116.252 E1.99486
G1 F437.2 X127.038 Y117.5 E2.05194
G1 F438 X126.959 Y118.748 E2.10892
G1 F437.2 X126.708 Y119.993 E2.1669
G1 F438 X126.314 Y121.146 E2.22242
G1 X125.762 Y122.267 E2.27936
G1 F437.2 X125.059 Y123.317 E2.33704
G1 F438 X124.246 Y124.246 E2.39329
G1 F438.8 X123.317 Y125.059 E2.44944
G1 F438 X122.267 Y125.762 E2.50702
G1 X121.147 Y126.315 E2.56394
G1 F435.6 X119.972 Y126.713 E2.62077
G1 F434.8 X118.748 Y126.959 E2.67808
G1 F438 X117.5 Y127.038 E2.73506
;MESH:NONMESH
G0 F300 X117.5 Y127.038 Z0.4
G0 F6000 X117.5 Y127.247
;TIME_ELAPSED:12.756863
;LAYER:1
;TYPE:WALL-OUTER
;MESH:Circle.stl
G1 F688.2 X116.223 Y127.164 E2.77954
G1 F686.6 X114.971 Y126.917 E2.824
G1 X113.773 Y126.51 E2.86808
G1 F688.2 X112.625 Y125.943 E2.91258
G1 F689.9 X111.564 Y125.234 E2.95683
G1 F688.2 X110.604 Y124.392 E3.00121
G1 X109.762 Y123.432 E3.04559
G1 F689.9 X109.038 Y122.341 E3.09099
G1 F688.2 X108.495 Y121.24 E3.13366
G1 X108.073 Y119.987 E3.17961
G1 F689.9 X107.83 Y118.758 E3.22305
G1 X107.749 Y117.5 E3.26676
G1 X107.832 Y116.224 E3.3111
G1 X108.082 Y114.971 E3.3554
G1 X108.49 Y113.772 E3.39932
G1 X109.054 Y112.625 E3.44364
G1 X109.762 Y111.564 E3.48786
G1 F688.2 X110.604 Y110.604 E3.53225
G1 X111.564 Y109.762 E3.57663
G1 F689.9 X112.625 Y109.054 E3.62085
G1 X113.76 Y108.495 E3.66472
G1 X114.971 Y108.082 E3.70909
G1 X116.238 Y107.83 E3.75388
G1 X117.488 Y107.749 E3.79731
G1 X118.772 Y107.832 E3.84193
G1 X120.029 Y108.083 E3.88637
G1 F688.2 X121.228 Y108.49 E3.93038
G1 X122.371 Y109.054 E3.97468
G1 X123.432 Y109.762 E4.01902
G1 F689.9 X124.392 Y110.604 E4.06329
G1 X125.234 Y111.564 E4.10757
G1 F688.2 X125.943 Y112.625 E4.15192
G1 F686.6 X126.51 Y113.773 E4.19653
G1 F685 X126.917 Y114.971 E4.24072
G1 F686.6 X127.164 Y116.223 E4.28518
G1 F689.9 X127.247 Y117.488 E4.32913
G1 X127.164 Y118.773 E4.37378
G1 F688.2 X126.919 Y120.016 E4.41781
G1 F685 X126.509 Y121.227 E4.46246
G1 F686.6 X125.943 Y122.371 E4.50693
G1 F689.9 X125.234 Y123.432 E4.55118
G1 X124.392 Y124.392 E4.59546
G1 X123.432 Y125.234 E4.63973
G1 F688.2 X122.371 Y125.943 E4.68408
G1 F686.6 X121.227 Y126.509 E4.72855
G1 F685 X120.029 Y126.916 E4.77274
G1 F686.6 X118.785 Y127.162 E4.81692
G1 F688.2 X117.5 Y127.247 E4.86168
G0 F7500 X117.5 Y126.829
G1 F688.2 X118.715 Y126.751 E4.904
G1 F686.6 X119.92 Y126.511 E4.9468
G1 F685 X121.065 Y126.122 E4.98903
G1 F686.6 X122.157 Y125.584 E5.03145
G1 F688.2 X123.179 Y124.902 E5.07415
G1 F689.9 X124.096 Y124.096 E5.11648
G1 X124.902 Y123.179 E5.15882
G1 X125.579 Y122.165 E5.20109
G1 F686.6 X126.122 Y121.065 E5.24383
G1 F685 X126.511 Y119.92 E5.28606
G1 F688.2 X126.751 Y118.715 E5.32877
G1 F689.9 X126.829 Y117.5 E5.37098
G1 X126.751 Y116.281 E5.41333
G1 F686.6 X126.511 Y115.078 E5.45607
G1 X126.127 Y113.944 E5.49779
G1 F688.2 X125.584 Y112.839 E5.54058
G1 F689.9 X124.902 Y111.817 E5.58318
G1 X124.096 Y110.9 E5.62551
G1 X123.179 Y110.094 E5.66784
G1 F688.2 X122.166 Y109.417 E5.71019
G1 X121.066 Y108.875 E5.75281
G1 X119.92 Y108.486 E5.79488
G1 F689.9 X118.715 Y108.245 E5.83749
G1 X117.5 Y108.167 E5.8797
G1 X116.281 Y108.245 E5.92206
G1 X115.078 Y108.486 E5.9646
G1 X113.932 Y108.875 E6.00656
G1 X112.839 Y109.412 E6.04879
G1 X111.817 Y110.094 E6.09139
G1 F688.2 X110.9 Y110.9 E6.13382
G1 X110.094 Y111.817 E6.17625
G1 F689.9 X109.417 Y112.83 E6.2185
G1 X108.875 Y113.932 E6.26108
G1 X108.486 Y115.078 E6.30305
G1 X108.245 Y116.281 E6.34559
G1 X108.167 Y117.5 E6.38794
G1 X108.245 Y118.715 E6.43016
G1 X108.486 Y119.92 E6.47277
G1 F688.2 X108.875 Y121.066 E6.51483
G1 X109.412 Y122.157 E6.55709
G1 F689.9 X110.094 Y123.179 E6.5997
G1 F688.2 X110.9 Y124.096 E6.64213
G1 X111.817 Y124.902 E6.68456
G1 F689.9 X112.831 Y125.579 E6.72684
G1 F688.2 X113.932 Y126.122 E6.76951
G1 F686.6 X115.078 Y126.511 E6.81167
G1 X116.281 Y126.751 E6.85441
G1 F688.2 X117.5 Y126.829 E6.89686
;MESH:NONMESH
G0 F300 X117.5 Y126.829 Z0.6
G0 F7500 X117.5 Y127.267
;TIME_ELAPSED:23.374470
;LAYER:2
M106 S170
;TYPE:WALL-OUTER
;MESH:Circle.stl
G1 F629.6 X116.222 Y127.184 E6.94553
G1 F628.2 X114.964 Y126.934 E6.99437
G1 X113.764 Y126.528 E7.04262
G1 X112.615 Y125.961 E7.09141
G1 X111.552 Y125.25 E7.14012
G1 X110.591 Y124.409 E7.18875
G1 X109.747 Y123.448 E7.23746
G1 F629.6 X109.038 Y122.386 E7.28598
G1 X108.472 Y121.236 E7.33469
G1 X108.061 Y120.032 E7.38303
G1 X107.812 Y118.774 E7.43176
G1 X107.729 Y117.496 E7.48043
G1 X107.812 Y116.222 E7.52894
G1 F628.2 X108.062 Y114.964 E7.57779
G1 F626.8 X108.469 Y113.764 E7.62615
G1 X109.035 Y112.615 E7.67503
G1 F628.2 X109.747 Y111.552 E7.72376
G1 X110.59 Y110.59 E7.77247
G1 X111.552 Y109.747 E7.82118
G1 F629.6 X112.615 Y109.038 E7.86973
G1 X113.76 Y108.472 E7.91827
G1 X114.964 Y108.062 E7.9666
G1 X116.218 Y107.812 E8.01519
G1 F628.2 X117.496 Y107.729 E8.06396
G1 X118.774 Y107.812 E8.11274
G1 X120.032 Y108.062 E8.16158
G1 F626.8 X121.232 Y108.469 E8.20994
G1 X122.381 Y109.035 E8.25883
G1 F628.2 X123.444 Y109.747 E8.30755
G1 X124.406 Y110.59 E8.35626
G1 X125.249 Y111.552 E8.40497
G1 X125.958 Y112.615 E8.45363
G1 X126.527 Y113.761 E8.50236
G1 X126.931 Y114.955 E8.55036
G1 X127.184 Y116.218 E8.59942
G1 X127.267 Y117.482 E8.64766
G1 F629.6 X127.184 Y118.774 E8.69686
G1 X126.934 Y120.032 E8.74559
G1 F628.2 X126.528 Y121.232 E8.79384
G1 X125.961 Y122.381 E8.84263
G1 X125.25 Y123.444 E8.89134
G1 X124.409 Y124.405 E8.93997
G1 F626.8 X123.448 Y125.249 E8.98878
G1 F628.2 X122.385 Y125.958 E9.03744
G1 X121.236 Y126.527 E9.08627
G1 X120.033 Y126.935 E9.13465
G1 X118.774 Y127.184 E9.18352
G1 X117.5 Y127.267 E9.23214
G0 F9000 X117.5 Y126.809
G1 F628.2 X118.712 Y126.731 E9.2784
G1 X119.915 Y126.493 E9.3251
G1 X121.058 Y126.104 E9.37108
G1 X122.158 Y125.562 E9.41778
G1 X123.167 Y124.888 E9.46399
G1 F626.8 X124.083 Y124.082 E9.51056
G1 F628.2 X124.888 Y123.165 E9.55703
G1 X125.561 Y122.155 E9.60325
G1 X126.104 Y121.059 E9.64983
G1 X126.49 Y119.915 E9.69581
G1 F629.6 X126.731 Y118.714 E9.74235
G1 X126.809 Y117.496 E9.78873
G1 F628.2 X126.731 Y116.282 E9.83506
G1 X126.491 Y115.079 E9.88178
G1 X126.104 Y113.938 E9.92766
G1 X125.562 Y112.842 E9.97422
G1 X124.888 Y111.833 E10.02043
G1 X124.082 Y110.914 E10.06699
G1 X123.164 Y110.11 E10.11346
G1 X122.172 Y109.445 E10.15894
G1 F626.8 X121.058 Y108.895 E10.20636
G1 X119.915 Y108.506 E10.25244
G1 F628.2 X118.714 Y108.265 E10.29909
G1 X117.498 Y108.187 E10.34549
G1 X116.282 Y108.265 E10.39189
G1 F629.6 X115.083 Y108.503 E10.43835
G1 X113.938 Y108.893 E10.48431
G1 X112.842 Y109.434 E10.53075
G1 X111.833 Y110.108 E10.57686
G1 F628.2 X110.914 Y110.914 E10.62342
G1 X110.11 Y111.832 E10.66989
G1 X109.445 Y112.824 E10.71537
G1 X108.895 Y113.938 E10.76268
G1 F626.8 X108.506 Y115.081 E10.80876
G1 F628.2 X108.265 Y116.284 E10.85549
G1 F629.6 X108.187 Y117.496 E10.90164
G1 X108.265 Y118.712 E10.94794
G1 X108.503 Y119.915 E10.99454
G1 X108.893 Y121.058 E11.04043
G1 X109.434 Y122.158 E11.08701
G1 X110.108 Y123.167 E11.13312
G1 F628.2 X110.914 Y124.083 E11.17959
G1 X111.831 Y124.888 E11.22606
G1 X112.841 Y125.561 E11.27228
G1 X113.937 Y126.104 E11.31886
G1 X115.081 Y126.49 E11.36484
G1 X116.284 Y126.731 E11.41156
G1 F629.6 X117.5 Y126.809 E11.45787
;MESH:NONMESH
G0 F300 X117.5 Y126.809 Z0.8
G0 F9000 X117.5 Y127.25
;TIME_ELAPSED:34.992553
;LAYER:3
M106 S255
;TYPE:WALL-OUTER
;MESH:Circle.stl
G1 F688.3 X116.224 Y127.164 E11.50232
G1 X114.97 Y126.917 E11.54674
G1 F685 X113.769 Y126.509 E11.59104
G1 F686.7 X112.625 Y125.943 E11.6355
G1 F690 X111.563 Y125.234 E11.67978
G1 F688.3 X110.605 Y124.395 E11.72404
G1 F686.7 X109.763 Y123.432 E11.76861
G1 F688.3 X109.061 Y122.382 E11.81251
G1 X108.495 Y121.24 E11.85681
G1 X108.073 Y119.987 E11.90276
G1 F690 X107.83 Y118.759 E11.94617
G1 X107.749 Y117.5 E11.98991
G1 X107.832 Y116.224 E12.03425
G1 X108.082 Y114.97 E12.07858
G1 F688.3 X108.49 Y113.768 E12.1227
G1 X109.054 Y112.625 E12.167
G1 X109.763 Y111.564 E12.21136
G1 X110.604 Y110.604 E12.25572
G1 X111.564 Y109.763 E12.30007
G1 X112.625 Y109.053 E12.34445
G1 F686.7 X113.769 Y108.487 E12.38892
G1 X114.97 Y108.082 E12.43307
G1 F690 X116.238 Y107.83 E12.4779
G1 X117.488 Y107.749 E12.52133
G1 X118.773 Y107.832 E12.56598
G1 X120.03 Y108.083 E12.61043
G1 F686.7 X121.227 Y108.487 E12.65444
G1 X122.371 Y109.053 E12.69891
G1 F688.3 X123.432 Y109.763 E12.74328
G1 F686.7 X124.395 Y110.605 E12.78785
G1 F688.3 X125.234 Y111.563 E12.83211
G1 F690 X125.943 Y112.625 E12.87639
G1 F686.7 X126.509 Y113.769 E12.92085
G1 F685 X126.917 Y114.97 E12.96515
G1 F686.7 X127.164 Y116.224 E13.00968
G1 F688.3 X127.25 Y117.487 E13.05368
G1 X127.164 Y118.773 E13.09848
G1 X126.919 Y120.016 E13.14251
G1 F685 X126.509 Y121.227 E13.18716
G1 F686.7 X125.943 Y122.371 E13.23163
G1 F690 X125.234 Y123.433 E13.2759
G1 F686.7 X124.395 Y124.395 E13.32038
G1 X123.433 Y125.234 E13.36485
G1 F690 X122.371 Y125.943 E13.40912
G1 F686.7 X121.227 Y126.509 E13.45359
G1 F685 X120.029 Y126.916 E13.49778
G1 F686.7 X118.773 Y127.164 E13.54238
G1 X117.5 Y127.25 E13.58683
G0 F9000 X117.5 Y126.83
G1 F686.7 X118.717 Y126.751 E13.62932
G1 X119.92 Y126.511 E13.67206
G1 F685 X121.065 Y126.122 E13.71429
G1 F686.7 X122.157 Y125.584 E13.75671
G1 F690 X123.164 Y124.914 E13.79864
G1 F686.7 X124.097 Y124.097 E13.84185
G1 X124.897 Y123.186 E13.88409
G1 F690 X125.579 Y122.165 E13.92666
G1 F686.7 X126.122 Y121.065 E13.9694
G1 F685 X126.511 Y119.92 E14.01164
G1 F688.3 X126.751 Y118.717 E14.05427
G1 X126.83 Y117.5 E14.09666
G1 X126.751 Y116.281 E14.13912
G1 F686.7 X126.511 Y115.078 E14.18186
G1 F685 X126.122 Y113.931 E14.22415
G1 F686.7 X125.584 Y112.839 E14.26657
G1 F691.6 X124.914 Y111.832 E14.3084
G1 F690 X124.098 Y110.9 E14.35136
G1 F686.7 X123.177 Y110.094 E14.394
G1 F688.3 X122.165 Y109.417 E14.43631
G1 F686.7 X121.066 Y108.874 E14.47902
G1 X119.92 Y108.486 E14.52118
G1 F690 X118.717 Y108.245 E14.56372
G1 X117.5 Y108.167 E14.606
G1 X116.281 Y108.245 E14.64835
G1 X115.078 Y108.486 E14.6909
G1 F686.7 X113.93 Y108.874 E14.73311
G1 X112.839 Y109.412 E14.7755
G1 F688.3 X111.82 Y110.094 E14.81811
G1 X110.9 Y110.9 E14.86063
G1 X110.094 Y111.82 E14.90314
G1 X109.417 Y112.83 E14.9454
G1 X108.875 Y113.93 E14.98802
G1 X108.486 Y115.078 E15.03015
G1 F690 X108.245 Y116.281 E15.07269
G1 X108.167 Y117.5 E15.11504
G1 X108.245 Y118.717 E15.15733
G1 X108.486 Y119.92 E15.19987
G1 F688.3 X108.875 Y121.066 E15.24193
G1 X109.412 Y122.157 E15.2842
G1 X110.094 Y123.177 E15.32684
G1 F686.7 X110.9 Y124.098 E15.36948
G1 F688.3 X111.81 Y124.897 E15.41157
G1 F690 X112.831 Y125.579 E15.45415
G1 F686.7 X113.931 Y126.122 E15.49689
G1 F685 X115.078 Y126.511 E15.53918
G1 F688.3 X116.281 Y126.751 E15.58182
G1 X117.5 Y126.83 E15.62428
;MESH:NONMESH
G0 F300 X117.5 Y126.83 Z1
G0 F9000 X117.5 Y127.04
;TIME_ELAPSED:45.603746
;LAYER:4
;TYPE:WALL-OUTER
;MESH:Circle.stl
G1 F435.6 X116.248 Y126.959 E15.68176
G1 X115.024 Y126.713 E15.73896
G1 F436.4 X113.849 Y126.314 E15.79571
G1 F437.2 X112.729 Y125.762 E15.85271
G1 F436.4 X111.692 Y125.069 E15.90975
G1 F435.6 X110.751 Y124.245 E15.96705
G1 X109.927 Y123.304 E16.02436
G1 F436.4 X109.234 Y122.267 E16.0814
G1 X108.683 Y121.146 E16.13852
G1 F435.6 X108.283 Y119.973 E16.19531
G1 X108.041 Y118.748 E16.25251
G1 F437.2 X107.958 Y117.5 E16.30961
G1 X108.041 Y116.248 E16.36689
G1 F435.6 X108.283 Y115.023 E16.4241
G1 F434 X108.683 Y113.85 E16.48109
G1 F434.8 X109.234 Y112.729 E16.53842
G1 F436.4 X109.927 Y111.692 E16.59546
G1 F434.8 X110.752 Y110.752 E16.65286
G1 X111.692 Y109.927 E16.71027
G1 F436.4 X112.729 Y109.234 E16.76731
G1 X113.85 Y108.682 E16.82445
G1 X115.007 Y108.288 E16.88035
G1 X116.248 Y108.041 E16.93822
G1 F438 X117.5 Y107.958 E16.99539
G1 F438.8 X118.748 Y108.041 E17.05228
G1 F438 X119.973 Y108.282 E17.10917
G1 F437.2 X121.146 Y108.682 E17.16574
G1 X122.267 Y109.234 E17.22278
G1 F436.4 X123.304 Y109.927 E17.27982
G1 F435.6 X124.245 Y110.751 E17.33713
G1 X125.069 Y111.692 E17.39444
G1 F436.4 X125.762 Y112.729 E17.45148
G1 F438 X126.314 Y113.85 E17.50841
G1 F437.2 X126.714 Y115.024 E17.56503
G1 F435.6 X126.959 Y116.248 E17.62222
G1 X127.04 Y117.5 E17.6797
G1 F436.4 X126.959 Y118.748 E17.7369
G1 F437.2 X126.708 Y119.993 E17.79487
G1 F438 X126.314 Y121.146 E17.85039
G1 X125.762 Y122.267 E17.90733
G1 F437.2 X125.069 Y123.304 E17.96427
G1 F438 X124.246 Y124.246 E18.02127
G1 X123.304 Y125.069 E18.07826
G1 F437.2 X122.267 Y125.762 E18.1352
G1 F438 X121.147 Y126.315 E18.19212
G1 F435.6 X119.972 Y126.713 E18.24895
G1 F434.8 X118.748 Y126.959 E18.30626
G1 F435.6 X117.5 Y127.04 E18.36356
;TIME_ELAPSED:53.847530
G1 F2700 E13.36356
M140 S0
M107
G91 ;Relative positioning
G1 E-2 F2700 ;Retract a bit
G1 E-2 Z0.2 F2400 ;Retract and raise Z
G1 X5 Y5 F3000 ;Wipe out
G1 Z10 ;Raise Z more
G90 ;Absolute positioning

G1 X0 Y235 ;Present print
M106 S0 ;Turn-off fan
M104 S0 ;Turn-off hotend
M140 S0 ;Turn-off bed

M84 X Y E ;Disable all steppers but Z

M82 ;absolute extrusion mode
M104 S0
;End of Gcode
;SETTING_3 {"global_quality": "[general]\\nversion = 4\\nname = Standard Quality
;SETTING_3  #2\\ndefinition = creality_ender3\\n\\n[metadata]\\ntype = quality_c
;SETTING_3 hanges\\nquality_type = standard\\nsetting_version = 23\\n\\n[values]
;SETTING_3 \\nadhesion_type = none\\n\\n", "extruder_quality": ["[general]\\nver
;SETTING_3 sion = 4\\nname = Standard Quality #2\\ndefinition = creality_ender3\
;SETTING_3 \n\\n[metadata]\\ntype = quality_changes\\nquality_type = standard\\n
;SETTING_3 setting_version = 23\\nposition = 0\\n\\n[values]\\ninfill_pattern = 
;SETTING_3 tetrahedral\\ninfill_sparse_density = 20\\nwall_line_count = 4\\n\\n"
;SETTING_3 ]}
