;FLAVOR:Marlin
;TIME:407
;Filament used: 0.128492m
;Layer height: 0.2
;MINX:112.725
;MINY:112.725
;MINZ:0.2
;MAXX:122.271
;MAXY:122.271
;MAXZ:19.2
;TARGET_MACHINE.NAME:Creality Ender-3
;Generated with Cura_SteamEngine 5.7.1
M140 S50
M105
M190 S50
M104 S200
M105
M109 S200
M82 ;absolute extrusion mode
; Ender 3 Custom Start G-code
G92 E0 ; Reset Extruder
G28 ; Home all axes
G1 Z2.0 F3000 ; Move Z Axis up little to prevent scratching of Heat Bed
G1 X0.1 Y20 Z0.3 F5000.0 ; Move to start position
G1 X0.1 Y200.0 Z0.3 F1500.0 E15 ; Draw the first line
G1 X0.4 Y200.0 Z0.3 F5000.0 ; Move to side a little
G1 X0.4 Y20 Z0.3 F1500.0 E30 ; Draw the second line
G92 E0 ; Reset Extruder
G1 Z2.0 F3000 ; Move Z Axis up little to prevent scratching of Heat Bed
G1 X5 Y20 Z0.3 F5000.0 ; Move over to prevent blob squish
G92 E0
G92 E0
;LAYER_COUNT:96
;LAYER:0
M107
;MESH:Cone.stl
G0 F6000 X117.5 Y121.87 Z0.2
;TYPE:WALL-INNER
G1 F1200 X118.074 Y121.831 E0.01914
G1 X118.637 Y121.722 E0.03821
G1 X119.169 Y121.54 E0.05691
G1 X119.681 Y121.288 E0.07589
G1 X120.161 Y120.963 E0.09517
G1 X120.59 Y120.59 E0.11408
G1 X120.963 Y120.161 E0.13299
G1 X121.287 Y119.681 E0.15225
G1 X121.54 Y119.169 E0.17124
G1 X121.722 Y118.637 E0.18994
G1 X121.831 Y118.074 E0.20902
G1 X121.87 Y117.5 E0.22815
G1 X121.831 Y116.926 E0.24729
G1 X121.722 Y116.36 E0.26646
G1 X121.54 Y115.831 E0.28506
G1 X121.287 Y115.314 E0.30421
G1 X120.963 Y114.835 E0.32344
G1 X120.59 Y114.406 E0.34235
G1 X120.162 Y114.034 E0.36121
G1 X119.683 Y113.713 E0.38039
G1 X119.169 Y113.46 E0.39944
G1 X118.635 Y113.277 E0.41822
G1 X118.072 Y113.165 E0.43731
G1 X117.5 Y113.126 E0.45638
G1 X116.927 Y113.164 E0.47548
G1 X116.361 Y113.277 E0.49468
G1 X115.831 Y113.46 E0.51333
G1 X115.313 Y113.714 E0.53251
G1 X114.833 Y114.034 E0.5517
G1 X114.406 Y114.406 E0.57054
G1 X114.034 Y114.833 E0.58937
G1 X113.714 Y115.313 E0.60856
G1 X113.46 Y115.831 E0.62775
G1 X113.277 Y116.361 E0.6464
G1 X113.164 Y116.928 E0.66563
G1 X113.126 Y117.5 E0.68469
G1 X113.164 Y118.072 E0.70376
G1 X113.277 Y118.635 E0.72286
G1 X113.46 Y119.169 E0.74163
G1 X113.713 Y119.683 E0.76069
G1 X114.034 Y120.162 E0.77987
G1 X114.406 Y120.59 E0.79873
G1 X114.835 Y120.963 E0.81764
G1 X115.314 Y121.287 E0.83687
G1 X115.831 Y121.54 E0.85601
G1 X116.36 Y121.722 E0.87462
G1 X116.926 Y121.831 E0.89379
G1 X117.5 Y121.87 E0.91293
G0 F6000 X117.5 Y122.271
;TYPE:WALL-OUTER
G1 F1200 X118.126 Y122.229 E0.93379
G1 X118.74 Y122.11 E0.9546
G1 X119.323 Y121.91 E0.9751
G1 X119.883 Y121.634 E0.99586
G1 X120.405 Y121.281 E1.01682
G1 X120.874 Y120.874 E1.03747
G1 X121.281 Y120.405 E1.05813
G1 X121.634 Y119.883 E1.07909
G1 X121.91 Y119.323 E1.09985
G1 X122.11 Y118.74 E1.12035
G1 X122.229 Y118.126 E1.14115
G1 X122.271 Y117.5 E1.16202
G1 X122.229 Y116.874 E1.18289
G1 X122.11 Y116.256 E1.20382
G1 X121.91 Y115.677 E1.2242
G1 X121.634 Y115.113 E1.24508
G1 X121.281 Y114.591 E1.26604
G1 X120.874 Y114.122 E1.28669
G1 X120.406 Y113.716 E1.3073
G1 X119.883 Y113.366 E1.32823
G1 X119.323 Y113.09 E1.349
G1 X118.739 Y112.89 E1.36953
G1 X118.125 Y112.767 E1.39035
G1 X117.5 Y112.725 E1.41119
G1 X116.875 Y112.767 E1.43202
G1 X116.257 Y112.89 E1.45298
G1 X115.677 Y113.09 E1.47339
G1 X115.113 Y113.366 E1.49427
G1 X114.59 Y113.716 E1.5152
G1 X114.122 Y114.122 E1.53581
G1 X113.716 Y114.59 E1.55642
G1 X113.366 Y115.113 E1.57735
G1 X113.09 Y115.677 E1.59823
G1 X112.89 Y116.257 E1.61864
G1 X112.767 Y116.875 E1.63959
G1 X112.725 Y117.5 E1.66043
G1 X112.767 Y118.125 E1.68126
G1 X112.89 Y118.739 E1.70209
G1 X113.09 Y119.323 E1.72262
G1 X113.366 Y119.883 E1.74339
G1 X113.716 Y120.406 E1.76432
G1 X114.122 Y120.874 E1.78492
G1 X114.591 Y121.281 E1.80558
G1 X115.113 Y121.634 E1.82654
G1 X115.677 Y121.91 E1.84742
G1 X116.256 Y122.11 E1.8678
G1 X116.874 Y122.229 E1.88873
G1 X117.5 Y122.271 E1.9096
G0 F6000 X117.5 Y121.507
;TYPE:SKIN
G1 F1200 X116.966 Y121.469 E1.9274
G1 X116.452 Y121.374 E1.94479
G1 X115.962 Y121.203 E1.96205
G1 X115.501 Y120.978 E1.97911
G1 X115.043 Y120.665 E1.99756
G1 X114.662 Y120.337 E2.01428
G1 X114.32 Y119.942 E2.03166
G1 X114.026 Y119.503 E2.04923
G1 X113.794 Y119.031 E2.06673
G1 X113.626 Y118.539 E2.08402
G1 X113.519 Y118.025 E2.10148
G1 X113.485 Y117.499 E2.11901
G1 X113.519 Y116.971 E2.13661
G1 X113.626 Y116.454 E2.15417
G1 X113.798 Y115.957 E2.17166
G1 X114.022 Y115.497 E2.18868
G1 X114.32 Y115.054 E2.20644
G1 X114.658 Y114.658 E2.22375
G1 X115.054 Y114.32 E2.24107
G1 X115.497 Y114.022 E2.25883
G1 X115.961 Y113.794 E2.27602
G1 X116.453 Y113.626 E2.29331
G1 X116.971 Y113.519 E2.31091
G1 X117.499 Y113.485 E2.3285
G1 X118.021 Y113.519 E2.3459
G1 X118.547 Y113.626 E2.36375
G1 X119.026 Y113.79 E2.38059
G1 X119.503 Y114.026 E2.39829
G1 X119.942 Y114.32 E2.41587
G1 X120.337 Y114.662 E2.43325
G1 X120.665 Y115.043 E2.44997
G1 X120.978 Y115.501 E2.46842
G1 X121.203 Y115.962 E2.48548
G1 X121.374 Y116.452 E2.50274
G1 X121.469 Y116.958 E2.51986
G1 X121.507 Y117.5 E2.53794
G1 X121.469 Y118.034 E2.55574
G1 X121.374 Y118.54 E2.57286
G1 X121.203 Y119.03 E2.59013
G1 X120.974 Y119.499 E2.60749
G1 X120.673 Y119.941 E2.62527
G1 X120.334 Y120.33 E2.64243
G1 X119.945 Y120.669 E2.6596
G1 X119.495 Y120.974 E2.67768
G1 X119.03 Y121.203 E2.69492
G1 X118.54 Y121.374 E2.71218
G1 X118.034 Y121.469 E2.7293
G1 X117.5 Y121.507 E2.74711
G0 F6000 X117.483 Y121.768
G0 X116.401 Y121.567
G0 X115.395 Y121.148
G0 X114.52 Y120.476
G0 X113.679 Y119.386
G0 X114.091 Y119.182
G1 F1200 X115.821 Y120.912 E2.82848
G0 F6000 X116.688 Y121.214
G1 F1200 X113.782 Y118.307 E2.96519
G0 F6000 X113.695 Y117.655
G1 F1200 X117.335 Y121.295 E3.13641
G0 F6000 X117.885 Y121.279
G1 F1200 X113.711 Y117.105 E3.33274
G0 F6000 X113.795 Y116.623
G1 F1200 X118.373 Y121.202 E3.5481
G0 F6000 X118.806 Y121.069
G1 F1200 X113.928 Y116.191 E3.77754
G0 F6000 X114.099 Y115.796
G1 F1200 X119.199 Y120.896 E4.01743
G0 F6000 X119.558 Y120.69
G1 F1200 X114.304 Y115.435 E4.26459
G0 F6000 X114.539 Y115.104
G1 F1200 X119.887 Y120.453 E4.51617
G0 F6000 X120.189 Y120.189
G1 F1200 X114.8 Y114.8 E4.76965
G0 F6000 X115.105 Y114.539
G1 F1200 X120.454 Y119.889 E5.02127
G0 F6000 X120.691 Y119.56
G1 F1200 X115.435 Y114.304 E5.2685
G0 F6000 X115.795 Y114.098
G1 F1200 X120.898 Y119.201 E5.50853
G0 F6000 X121.069 Y118.807
G1 F1200 X116.19 Y113.928 E5.73802
G0 F6000 X116.624 Y113.795
G1 F1200 X121.202 Y118.374 E5.95338
G0 F6000 X121.279 Y117.885
G1 F1200 X117.105 Y113.711 E6.14971
G0 F6000 X117.655 Y113.696
G1 F1200 X121.294 Y117.334 E6.32086
G0 F6000 X121.215 Y116.69
G1 F1200 X118.307 Y113.781 E6.45766
G0 F6000 X119.181 Y114.09
G1 F1200 X120.912 Y115.821 E6.53908
;MESH:NONMESH
G0 F300 X120.912 Y115.821 Z0.4
G0 F6000 X121.325 Y115.62
G0 X121.672 Y116.947
G0 X121.672 Y118.053
G0 X121.391 Y119.107
G0 X120.835 Y120.063
G0 X120.063 Y120.835
G0 X119.107 Y121.391
G0 X118.509 Y121.551
G0 X117.5 Y121.77
G0 X117.499 Y121.818
;TIME_ELAPSED:13.748525
;LAYER:1
M106 S85
;TYPE:WALL-INNER
;MESH:Cone.stl
G1 F1169.8 X118.067 Y121.783 E6.55801
G1 X118.623 Y121.675 E6.57685
G1 X119.148 Y121.493 E6.59533
G1 X119.663 Y121.239 E6.61443
G1 X120.126 Y120.93 E6.63294
G1 X120.554 Y120.554 E6.65189
G1 X120.93 Y120.126 E6.67084
G1 X121.239 Y119.663 E6.68935
G1 X121.493 Y119.148 E6.70845
G1 X121.675 Y118.623 E6.72693
G1 X121.783 Y118.067 E6.74577
G1 X121.818 Y117.5 E6.76467
G1 X121.783 Y116.929 E6.78369
G1 X121.675 Y116.377 E6.8024
G1 X121.493 Y115.848 E6.82101
G1 X121.239 Y115.333 E6.84011
G1 X120.93 Y114.87 E6.85862
G1 X120.554 Y114.442 E6.87757
G1 X120.126 Y114.066 E6.89652
G1 X119.663 Y113.757 E6.91503
G1 X119.149 Y113.504 E6.93409
G1 X118.623 Y113.325 E6.95257
G1 X118.065 Y113.213 E6.9715
G1 X117.499 Y113.178 E6.99036
G1 X116.931 Y113.213 E7.00928
G1 X116.377 Y113.325 E7.02808
G1 X115.846 Y113.505 E7.04673
G1 X115.333 Y113.757 E7.06574
G1 X114.87 Y114.066 E7.08426
G1 X114.442 Y114.442 E7.1032
G1 X114.066 Y114.87 E7.12215
G1 X113.757 Y115.333 E7.14067
G1 X113.504 Y115.847 E7.15972
G1 X113.325 Y116.377 E7.17833
G1 X113.213 Y116.931 E7.19713
G1 X113.178 Y117.5 E7.21609
G1 X113.213 Y118.065 E7.23491
G1 X113.325 Y118.623 E7.25384
G1 X113.504 Y119.149 E7.27232
G1 X113.757 Y119.663 E7.29138
G1 X114.066 Y120.126 E7.30989
G1 X114.442 Y120.554 E7.32884
G1 X114.87 Y120.93 E7.34779
G1 X115.333 Y121.239 E7.3663
G1 X115.848 Y121.492 E7.38539
G1 X116.377 Y121.675 E7.40401
G1 X116.929 Y121.783 E7.42271
G1 X117.499 Y121.818 E7.44171
G0 F7500 X117.499 Y122.219
;TYPE:WALL-OUTER
G1 F1169.8 X118.118 Y122.181 E7.46233
G1 X118.727 Y122.062 E7.48297
G1 X119.302 Y121.863 E7.50321
G1 X119.863 Y121.586 E7.52402
G1 X120.37 Y121.248 E7.54429
G1 X120.838 Y120.838 E7.56498
G1 X121.248 Y120.37 E7.58567
G1 X121.586 Y119.863 E7.60594
G1 X121.863 Y119.302 E7.62675
G1 X122.062 Y118.727 E7.64699
G1 X122.181 Y118.118 E7.66763
G1 X122.219 Y117.5 E7.68822
G1 X122.181 Y116.878 E7.70895
G1 X122.062 Y116.273 E7.72945
G1 X121.863 Y115.694 E7.74982
G1 X121.586 Y115.133 E7.77063
G1 X121.248 Y114.626 E7.79089
G1 X120.838 Y114.158 E7.81159
G1 X120.37 Y113.748 E7.83228
G1 X119.863 Y113.41 E7.85255
G1 X119.303 Y113.134 E7.87331
G1 X118.727 Y112.938 E7.89355
G1 X118.117 Y112.815 E7.91425
G1 X117.499 Y112.777 E7.93484
G1 X116.879 Y112.815 E7.9555
G1 X116.273 Y112.938 E7.97607
G1 X115.693 Y113.134 E7.99643
G1 X115.133 Y113.41 E8.0172
G1 X114.626 Y113.748 E8.03746
G1 X114.158 Y114.158 E8.05816
G1 X113.748 Y114.626 E8.07885
G1 X113.41 Y115.133 E8.09912
G1 X113.134 Y115.693 E8.11988
G1 X112.938 Y116.273 E8.14024
G1 X112.815 Y116.879 E8.16081
G1 X112.777 Y117.5 E8.1815
G1 X112.815 Y118.117 E8.20206
G1 X112.938 Y118.727 E8.22276
G1 X113.134 Y119.303 E8.243
G1 X113.41 Y119.863 E8.26376
G1 X113.748 Y120.37 E8.28403
G1 X114.158 Y120.838 E8.30472
G1 X114.626 Y121.248 E8.32542
G1 X115.133 Y121.586 E8.34569
G1 X115.694 Y121.862 E8.36648
G1 X116.273 Y122.062 E8.38685
G1 X116.878 Y122.181 E8.40736
G1 X117.499 Y122.219 E8.42806
G0 F7500 X117.497 Y121.455
;TYPE:SKIN
G1 F1169.8 X116.974 Y121.425 E8.44548
G1 X116.469 Y121.322 E8.46262
G1 X115.985 Y121.154 E8.47966
G1 X115.513 Y120.926 E8.4971
G1 X115.09 Y120.64 E8.51408
G1 X114.694 Y120.298 E8.53148
G1 X114.352 Y119.902 E8.54888
G1 X114.07 Y119.479 E8.56579
G1 X113.833 Y119.006 E8.58339
G1 X113.674 Y118.536 E8.59989
G1 X113.571 Y118.013 E8.61762
G1 X113.537 Y117.5 E8.63472
G1 X113.571 Y116.979 E8.65209
G1 X113.674 Y116.46 E8.66969
G1 X113.834 Y115.989 E8.68623
G1 X114.066 Y115.513 E8.70384
G1 X114.352 Y115.09 E8.72083
G1 X114.694 Y114.694 E8.73823
G1 X115.09 Y114.352 E8.75563
G1 X115.513 Y114.066 E8.77261
G1 X115.989 Y113.834 E8.79023
G1 X116.46 Y113.674 E8.80677
G1 X116.978 Y113.571 E8.82434
G1 X117.495 Y113.541 E8.84156
G1 X118.014 Y113.571 E8.85885
G1 X118.536 Y113.674 E8.87655
G1 X119.006 Y113.834 E8.89306
G1 X119.479 Y114.07 E8.91064
G1 X119.902 Y114.352 E8.92755
G1 X120.298 Y114.694 E8.94496
G1 X120.64 Y115.09 E8.96236
G1 X120.926 Y115.513 E8.97934
G1 X121.158 Y115.985 E8.99683
G1 X121.322 Y116.469 E9.01383
G1 X121.425 Y116.974 E9.03097
G1 X121.455 Y117.499 E9.04846
G1 X121.425 Y118.022 E9.06589
G1 X121.322 Y118.527 E9.08303
G1 X121.158 Y119.007 E9.0999
G1 X120.926 Y119.479 E9.11739
G1 X120.64 Y119.902 E9.13438
G1 X120.297 Y120.298 E9.1518
G1 X119.901 Y120.641 E9.16923
G1 X119.479 Y120.926 E9.18616
G1 X119.007 Y121.158 E9.20366
G1 X118.527 Y121.322 E9.22053
G1 X118.022 Y121.425 E9.23767
G1 X117.497 Y121.455 E9.25516
G0 F7500 X117.481 Y121.716
G0 X118.581 Y121.519
G0 X119.582 Y121.099
G0 X120.441 Y120.441
G0 X120.814 Y119.954
G0 X121.436 Y119.003
G0 X121 Y118.851
G1 F1169.8 X118.85 Y121.001 E9.35629
G0 F7500 X118.075 Y121.21
G1 F1169.8 X121.209 Y118.076 E9.5037
G0 F7500 X121.253 Y117.466
G1 F1169.8 X117.466 Y121.253 E9.68183
G0 F7500 X116.94 Y121.214
G1 F1169.8 X121.213 Y116.941 E9.88282
G0 F7500 X121.113 Y116.475
G1 F1169.8 X116.475 Y121.113 E10.10098
G0 F7500 X116.057 Y120.965
G1 F1169.8 X120.968 Y116.054 E10.33198
G0 F7500 X120.782 Y115.674
G1 F1169.8 X115.676 Y120.781 E10.57217
G0 F7500 X115.331 Y120.56
G1 F1169.8 X120.56 Y115.331 E10.81813
G0 F7500 X120.309 Y115.016
G1 F1169.8 X115.016 Y120.309 E11.06709
G0 F7500 X114.729 Y120.031
G1 F1169.8 X120.031 Y114.729 E11.31648
G0 F7500 X119.722 Y114.472
G1 F1169.8 X114.472 Y119.722 E11.56343
G0 F7500 X114.246 Y119.382
G1 F1169.8 X119.382 Y114.246 E11.80501
G0 F7500 X119.004 Y114.058
G1 F1169.8 X114.058 Y119.005 E12.03768
G0 F7500 X113.905 Y118.592
G1 F1169.8 X118.592 Y113.905 E12.25814
G0 F7500 X118.133 Y113.798
G1 F1169.8 X113.8 Y118.131 E12.46195
G0 F7500 X113.746 Y117.619
G1 F1169.8 X117.617 Y113.748 E12.64403
G0 F7500 X117.032 Y113.768
G1 F1169.8 X113.769 Y117.031 E12.79751
G0 F7500 X113.942 Y116.291
G1 F1169.8 X116.292 Y113.942 E12.90802
;MESH:NONMESH
G0 F300 X116.292 Y113.942 Z0.6
G0 F7500 X116.146 Y113.509
G0 X114.968 Y114.194
G0 X114.194 Y114.968
G0 X113.654 Y115.908
G0 X113.373 Y116.952
G0 X113.373 Y118.044
G0 X113.653 Y119.088
G0 X114.194 Y120.028
G0 X114.968 Y120.802
G0 X115.91 Y121.343
G0 X116.499 Y121.502
G0 X117.499 Y121.718
G0 X117.499 Y121.77
;TIME_ELAPSED:25.615195
;LAYER:2
M106 S170
;TYPE:WALL-INNER
;MESH:Cone.stl
G1 F1153.5 X118.058 Y121.735 E12.92665
G1 X118.608 Y121.627 E12.94529
G1 X119.129 Y121.448 E12.96362
G1 X119.634 Y121.199 E12.98234
G1 X120.097 Y120.887 E13.00091
G1 X120.517 Y120.518 E13.01951
G1 X120.887 Y120.097 E13.03815
G1 X121.199 Y119.634 E13.05672
G1 X121.448 Y119.129 E13.07545
G1 X121.627 Y118.608 E13.09377
G1 X121.735 Y118.058 E13.11241
G1 X121.77 Y117.499 E13.13104
G1 X121.735 Y116.938 E13.14974
G1 X121.627 Y116.388 E13.16838
G1 X121.449 Y115.868 E13.18666
G1 X121.199 Y115.366 E13.20531
G1 X120.885 Y114.899 E13.22403
G1 X120.517 Y114.479 E13.2426
G1 X120.097 Y114.109 E13.26122
G1 X119.635 Y113.798 E13.27974
G1 X119.13 Y113.552 E13.29843
G1 X118.608 Y113.373 E13.31678
G1 X118.056 Y113.265 E13.33549
G1 X117.499 Y113.226 E13.35406
G1 X116.94 Y113.265 E13.3727
G1 X116.389 Y113.373 E13.39137
G1 X115.866 Y113.552 E13.40976
G1 X115.365 Y113.798 E13.42832
G1 X114.898 Y114.11 E13.447
G1 X114.478 Y114.478 E13.46557
G1 X114.11 Y114.898 E13.48415
G1 X113.798 Y115.365 E13.50283
G1 X113.552 Y115.866 E13.52139
G1 X113.373 Y116.389 E13.53978
G1 X113.264 Y116.939 E13.55842
G1 X113.226 Y117.499 E13.57709
G1 X113.264 Y118.056 E13.59566
G1 X113.373 Y118.608 E13.61438
G1 X113.552 Y119.13 E13.63273
G1 X113.798 Y119.635 E13.65141
G1 X114.109 Y120.097 E13.66994
G1 X114.478 Y120.518 E13.68856
G1 X114.898 Y120.886 E13.70713
G1 X115.366 Y121.199 E13.72586
G1 X115.868 Y121.449 E13.74451
G1 X116.388 Y121.627 E13.76279
G1 X116.938 Y121.735 E13.78143
G1 X117.499 Y121.77 E13.80013
G0 F9000 X117.499 Y122.171
;TYPE:WALL-OUTER
G1 F1153.5 X118.11 Y122.133 E13.82049
G1 X118.712 Y122.014 E13.8409
G1 X119.283 Y121.818 E13.86098
G1 X119.835 Y121.546 E13.88144
G1 X120.341 Y121.205 E13.90174
G1 X120.801 Y120.802 E13.92208
G1 X121.205 Y120.341 E13.94247
G1 X121.546 Y119.835 E13.96276
G1 X121.818 Y119.283 E13.98323
G1 X122.014 Y118.712 E14.00331
G1 X122.133 Y118.11 E14.02372
G1 X122.171 Y117.499 E14.04408
G1 X122.133 Y116.886 E14.06451
G1 X122.014 Y116.284 E14.08492
G1 X121.819 Y115.714 E14.10495
G1 X121.546 Y115.165 E14.12535
G1 X121.204 Y114.655 E14.14577
G1 X120.801 Y114.195 E14.16611
G1 X120.341 Y113.791 E14.18647
G1 X119.835 Y113.45 E14.20677
G1 X119.283 Y113.182 E14.22718
G1 X118.712 Y112.986 E14.24726
G1 X118.109 Y112.867 E14.2677
G1 X117.499 Y112.825 E14.28804
G1 X116.887 Y112.867 E14.30844
G1 X116.285 Y112.986 E14.32885
G1 X115.713 Y113.182 E14.34896
G1 X115.165 Y113.45 E14.36925
G1 X114.654 Y113.792 E14.3897
G1 X114.194 Y114.194 E14.41002
G1 X113.792 Y114.654 E14.43034
G1 X113.45 Y115.165 E14.45079
G1 X113.182 Y115.713 E14.47108
G1 X112.986 Y116.285 E14.49119
G1 X112.867 Y116.887 E14.5116
G1 X112.825 Y117.499 E14.532
G1 X112.867 Y118.109 E14.55234
G1 X112.986 Y118.712 E14.57278
G1 X113.182 Y119.283 E14.59286
G1 X113.45 Y119.835 E14.61327
G1 X113.791 Y120.341 E14.63357
G1 X114.194 Y120.802 E14.65393
G1 X114.654 Y121.204 E14.67425
G1 X115.165 Y121.546 E14.6947
G1 X115.714 Y121.819 E14.71509
G1 X116.284 Y122.014 E14.73513
G1 X116.886 Y122.133 E14.75554
G1 X117.499 Y122.171 E14.77597
G0 F9000 X117.497 Y121.407
;TYPE:SKIN
