;FLAVOR:Marlin
;TIME:1993
;Filament used: 1.23051m
;Layer height: 0.2
;MINX:100
;MINY:100.2
;MINZ:0.2
;MAXX:120.665
;MAXY:120
;MAXZ:20
;Generated with Cura_SteamEngine 4.12.1
M140 S50
M105
M190 S50
M104 S205
M105
M109 S205
M82 ;absolute extrusion mode
; Ender 3 Custom Start G-code
G92 E0 ; Reset Extruder
G28 ; Home all axes
G1 Z2.0 F3000 ; Move Z Axis up little to prevent scratching of Heat Bed
G1 X0.1 Y20 Z0.3 F5000.0 ; Move to start position
G1 X0.1 Y200.0 Z0.3 F1500.0 E15 ; Draw the first line
G1 X0.4 Y200.0 Z0.3 F5000.0 ; Move to side a little
G1 X0.4 Y20 Z0.3 F1500.0 E30 ; Draw the second line
G92 E0 ; Reset Extruder
G1 Z2.0 F3000 ; Move Z Axis up little to prevent scratching of Heat Bed
G1 X5 Y20 Z0.3 F5000.0 ; Move over to prevent blob squish
G92 E0
G92 E0
G1 F2700 E-5
;LAYER_COUNT:100
;LAYER:0
M107
;MESH:CHEPCalibrationCube.stl
G0 F6000 X119.25 Y119.25 Z0.2
;TYPE:WALL-INNER
G1 F2700 E0
G1 F1200 X100.75 Y119.25 E0.61531
G1 X100.75 Y100.75 E1.23062
G1 X119.25 Y100.75 E1.84594
G1 X119.25 Y119.25 E2.46125
G0 F6000 X119.65 Y119.65
;TYPE:WALL-OUTER
G1 F1200 X100.35 Y119.65 E3.10317
G1 X100.35 Y100.35 E3.74509
G1 X119.65 Y100.35 E4.38701
G1 X119.65 Y119.65 E5.02893
G0 F6000 X119.38 Y119.38
G0 X119.14 Y118.86
G0 X118.86 Y118.86
;TYPE:SKIN
G1 F1200 X101.14 Y118.86 E5.6183
G1 X101.14 Y101.14 E6.20767
G1 X118.86 Y101.14 E6.79704
G1 X118.86 Y118.86 E7.38641
G0 F6000 X119.14 Y118.86
G0 X119.14 Y101.729
G0 X118.699 Y101.729
G1 F1200 X118.27 Y101.3 E7.40659
G0 F6000 X117.704 Y101.3
G1 F1200 X118.699 Y102.295 E7.45339
G0 F6000 X118.699 Y102.86
G1 F1200 X117.139 Y101.3 E7.52677
G0 F6000 X116.573 Y101.3
G1 F1200 X118.699 Y103.426 E7.62677
G0 F6000 X118.699 Y103.992
G1 F1200 X116.007 Y101.3 E7.75339
G0 F6000 X115.442 Y101.3
G1 F1200 X118.699 Y104.557 E7.90659
G0 F6000 X118.699 Y105.123
G1 F1200 X114.876 Y101.3 E8.08641
G0 F6000 X114.31 Y101.3
G1 F1200 X118.699 Y105.689 E8.29286
G0 F6000 X118.699 Y106.254
G1 F1200 X113.745 Y101.3 E8.52588
G0 F6000 X113.179 Y101.3
G1 F1200 X118.699 Y106.82 E8.78552
G0 F6000 X118.699 Y107.386
G1 F1200 X112.613 Y101.3 E9.07179
G0 F6000 X112.048 Y101.3
G1 F1200 X118.699 Y107.951 E9.38463
G0 F6000 X118.699 Y108.517
G1 F1200 X111.482 Y101.3 E9.7241
G0 F6000 X110.916 Y101.3
G1 F1200 X118.699 Y109.083 E10.09019
G0 F6000 X118.699 Y109.648
G1 F1200 X110.351 Y101.3 E10.48285
G0 F6000 X109.785 Y101.3
G1 F1200 X118.699 Y110.214 E10.90214
G0 F6000 X118.699 Y110.78
G1 F1200 X109.219 Y101.3 E11.34805
G0 F6000 X108.654 Y101.3
G1 F1200 X118.699 Y111.345 E11.82054
G0 F6000 X118.699 Y111.911
G1 F1200 X108.088 Y101.3 E12.31964
G0 F6000 X107.522 Y101.3
G1 F1200 X118.699 Y112.477 E12.84538
G0 F6000 X118.699 Y113.043
G1 F1200 X106.956 Y101.3 E13.39773
G0 F6000 X106.391 Y101.3
G1 F1200 X118.699 Y113.608 E13.97666
G0 F6000 X118.699 Y114.174
G1 F1200 X105.825 Y101.3 E14.58222
G0 F6000 X105.259 Y101.3
G1 F1200 X118.699 Y114.74 E15.21439
G0 F6000 X118.699 Y115.305
G1 F1200 X104.694 Y101.3 E15.87314
G0 F6000 X104.128 Y101.3
G1 F1200 X118.699 Y115.871 E16.55852
G0 F6000 X118.699 Y116.437
G1 F1200 X103.562 Y101.3 E17.27052
G0 F6000 X102.997 Y101.3
G1 F1200 X118.699 Y117.002 E18.00909
G0 F6000 X118.699 Y117.568
G1 F1200 X102.431 Y101.3 E18.77429
G0 F6000 X101.865 Y101.3
G1 F1200 X118.699 Y118.134 E19.56611
G0 F6000 X118.699 Y118.699
G1 F1200 X101.299 Y101.299 E20.38455
G0 F6000 X101.299 Y101.865
G1 F1200 X118.133 Y118.699 E21.17637
G0 F6000 X117.567 Y118.699
G1 F1200 X101.299 Y102.43 E21.94159
G0 F6000 X101.299 Y102.996
G1 F1200 X117.002 Y118.699 E22.68021
G0 F6000 X116.436 Y118.699
G1 F1200 X101.299 Y103.562 E23.39221
G0 F6000 X101.299 Y104.127
G1 F1200 X115.87 Y118.699 E24.07761
G0 F6000 X115.305 Y118.699
G1 F1200 X101.299 Y104.693 E24.73641
G0 F6000 X101.299 Y105.259
G1 F1200 X114.739 Y118.699 E25.36858
G0 F6000 X114.173 Y118.699
G1 F1200 X101.299 Y105.824 E25.97416
G0 F6000 X101.299 Y106.39
G1 F1200 X113.608 Y118.699 E26.55314
G0 F6000 X113.042 Y118.699
G1 F1200 X101.299 Y106.956 E27.10549
G0 F6000 X101.299 Y107.521
G1 F1200 X112.476 Y118.699 E27.63125
G0 F6000 X111.91 Y118.699
G1 F1200 X101.299 Y108.087 E28.13038
G0 F6000 X101.299 Y108.653
G1 F1200 X111.345 Y118.699 E28.60291
G0 F6000 X110.779 Y118.699
G1 F1200 X101.299 Y109.219 E29.04882
G0 F6000 X101.299 Y109.784
G1 F1200 X110.213 Y118.699 E29.46813
G0 F6000 X109.648 Y118.699
G1 F1200 X101.299 Y110.35 E29.86085
G0 F6000 X101.299 Y110.916
G1 F1200 X109.082 Y118.699 E30.22693
G0 F6000 X108.516 Y118.699
G1 F1200 X101.299 Y111.481 E30.56642
G0 F6000 X101.299 Y112.047
G1 F1200 X107.951 Y118.699 E30.87931
G0 F6000 X107.385 Y118.699
G1 F1200 X101.299 Y112.613 E31.16558
G0 F6000 X101.299 Y113.178
G1 F1200 X106.819 Y118.699 E31.42525
G0 F6000 X106.254 Y118.699
G1 F1200 X101.299 Y113.744 E31.65832
G0 F6000 X101.299 Y114.31
G1 F1200 X105.688 Y118.699 E31.86476
G0 F6000 X105.122 Y118.699
G1 F1200 X101.299 Y114.875 E32.04461
G0 F6000 X101.299 Y115.441
G1 F1200 X104.557 Y118.699 E32.19785
G0 F6000 X103.991 Y118.699
G1 F1200 X101.299 Y116.007 E32.32448
G0 F6000 X101.299 Y116.572
G1 F1200 X103.425 Y118.699 E32.4245
G0 F6000 X102.859 Y118.699
G1 F1200 X101.299 Y117.138 E32.4979
G0 F6000 X101.299 Y117.704
G1 F1200 X102.294 Y118.699 E32.5447
G0 F6000 X101.728 Y118.699
G1 F1200 X101.299 Y118.269 E32.56491
G0 F6000 X100.95 Y118.269
;MESH:NONMESH
G0 F300 X100.95 Y118.269 Z0.4
G0 F6000 X100.86 Y118.269
G0 X100.932 Y119.068
G0 X119.35 Y119.4
G0 X119.4 Y119.4
;TIME_ELAPSED:58.916753
;LAYER:1
M106 S85
;TYPE:WALL-INNER
;MESH:CHEPCalibrationCube.stl
G1 F1350 X100.6 Y119.4 E33.1902
G1 X100.6 Y100.6 E33.81549
G1 X119.4 Y100.6 E34.44078
G1 X119.4 Y119.4 E35.06607
G0 F7500 X119.8 Y119.8
;TYPE:WALL-OUTER
G1 F1350 X100.2 Y119.8 E35.71797
G1 X100.2 Y100.2 E36.36986
G1 X119.8 Y100.2 E37.02176
G1 X119.8 Y119.8 E37.67366
G0 F7500 X119.53 Y119.53
G0 X119.29 Y119.01
G0 X119.01 Y119.01
;TYPE:SKIN
G1 F1350 X100.99 Y119.01 E38.27301
G1 X100.99 Y100.99 E38.87236
G1 X119.01 Y100.99 E39.4717
G1 X119.01 Y119.01 E40.07105
G0 F7500 X118.738 Y118.849
G1 F1350 X118.849 Y118.738 E40.07627
G0 F7500 X118.849 Y118.173
G1 F1350 X118.172 Y118.849 E40.10809
G0 F7500 X117.606 Y118.849
G1 F1350 X118.849 Y117.607 E40.16654
G0 F7500 X118.849 Y117.041
G1 F1350 X117.041 Y118.849 E40.25158
G0 F7500 X116.475 Y118.849
G1 F1350 X118.849 Y116.476 E40.36322
G0 F7500 X118.849 Y115.91
G1 F1350 X115.909 Y118.849 E40.50149
G0 F7500 X115.343 Y118.849
G1 F1350 X118.849 Y115.344 E40.66638
G0 F7500 X118.849 Y114.778
G1 F1350 X114.778 Y118.849 E40.85786
G0 F7500 X114.212 Y118.849
G1 F1350 X118.849 Y114.213 E41.07595
G0 F7500 X118.849 Y113.647
G1 F1350 X113.646 Y118.849 E41.32066
G0 F7500 X113.081 Y118.849
G1 F1350 X118.849 Y113.081 E41.59197
G0 F7500 X118.849 Y112.516
G1 F1350 X112.515 Y118.849 E41.88988
G0 F7500 X111.949 Y118.849
G1 F1350 X118.849 Y111.95 E42.21441
G0 F7500 X118.849 Y111.384
G1 F1350 X111.384 Y118.849 E42.56554
G0 F7500 X110.818 Y118.849
G1 F1350 X118.849 Y110.819 E42.94327
G0 F7500 X118.849 Y110.253
G1 F1350 X110.252 Y118.849 E43.34762
G0 F7500 X109.687 Y118.849
G1 F1350 X118.849 Y109.687 E43.77857
G0 F7500 X118.849 Y109.122
G1 F1350 X109.121 Y118.849 E44.23613
G0 F7500 X108.555 Y118.849
G1 F1350 X118.849 Y108.556 E44.7203
G0 F7500 X118.849 Y107.99
G1 F1350 X107.99 Y118.849 E45.23107
G0 F7500 X107.424 Y118.849
G1 F1350 X118.849 Y107.425 E45.76845
G0 F7500 X118.849 Y106.859
G1 F1350 X106.858 Y118.849 E46.33244
G0 F7500 X106.292 Y118.849
G1 F1350 X118.849 Y106.293 E46.92306
G0 F7500 X118.849 Y105.728
G1 F1350 X105.727 Y118.849 E47.54026
G0 F7500 X105.161 Y118.849
G1 F1350 X118.849 Y105.162 E48.18408
G0 F7500 X118.849 Y104.596
G1 F1350 X104.595 Y118.849 E48.85452
G0 F7500 X104.03 Y118.849
G1 F1350 X118.849 Y104.03 E49.55156
G0 F7500 X118.849 Y103.465
G1 F1350 X103.464 Y118.849 E50.2752
G0 F7500 X102.898 Y118.849
G1 F1350 X118.849 Y102.899 E51.02546
G0 F7500 X118.849 Y102.333
G1 F1350 X102.333 Y118.849 E51.80232
G0 F7500 X101.767 Y118.849
G1 F1350 X118.849 Y101.768 E52.60578
G0 F7500 X118.849 Y101.202
G1 F1350 X101.201 Y118.849 E53.43587
G0 F7500 X101.15 Y118.335
G1 F1350 X118.336 Y101.149 E54.24425
G0 F7500 X117.77 Y101.149
G1 F1350 X101.15 Y117.77 E55.02602
G0 F7500 X101.15 Y117.204
G1 F1350 X117.205 Y101.149 E55.7812
G0 F7500 X116.639 Y101.149
G1 F1350 X101.15 Y116.638 E56.50976
G0 F7500 X101.15 Y116.072
G1 F1350 X116.073 Y101.149 E57.21169
G0 F7500 X115.508 Y101.149
G1 F1350 X101.15 Y115.507 E57.88704
G0 F7500 X101.15 Y114.941
G1 F1350 X114.942 Y101.149 E58.53578
G0 F7500 X114.376 Y101.149
G1 F1350 X101.15 Y114.375 E59.15789
G0 F7500 X101.15 Y113.81
G1 F1350 X113.81 Y101.149 E59.7534
G0 F7500 X113.245 Y101.149
G1 F1350 X101.15 Y113.244 E60.32231
G0 F7500 X101.15 Y112.678
G1 F1350 X112.679 Y101.149 E60.8646
G0 F7500 X112.113 Y101.149
G1 F1350 X101.15 Y112.113 E61.38029
G0 F7500 X101.15 Y111.547
G1 F1350 X111.548 Y101.149 E61.86938
G0 F7500 X110.982 Y101.149
G1 F1350 X101.15 Y110.981 E62.33185
G0 F7500 X101.15 Y110.416
G1 F1350 X110.416 Y101.149 E62.76771
G0 F7500 X109.851 Y101.149
G1 F1350 X101.15 Y109.85 E63.17698
G0 F7500 X101.15 Y109.284
G1 F1350 X109.285 Y101.149 E63.55963
G0 F7500 X108.719 Y101.149
G1 F1350 X101.15 Y108.719 E63.91567
G0 F7500 X101.15 Y108.153
G1 F1350 X108.154 Y101.149 E64.24512
G0 F7500 X107.588 Y101.149
G1 F1350 X101.15 Y107.587 E64.54794
G0 F7500 X101.15 Y107.022
G1 F1350 X107.022 Y101.149 E64.82417
G0 F7500 X106.457 Y101.149
G1 F1350 X101.15 Y106.456 E65.07379
G0 F7500 X101.15 Y105.89
G1 F1350 X105.891 Y101.149 E65.2968
G0 F7500 X105.325 Y101.149
G1 F1350 X101.15 Y105.324 E65.49317
G0 F7500 X101.15 Y104.759
G1 F1350 X104.759 Y101.149 E65.66295
G0 F7500 X104.194 Y101.149
G1 F1350 X101.15 Y104.193 E65.80614
G0 F7500 X101.15 Y103.627
G1 F1350 X103.628 Y101.149 E65.92269
G0 F7500 X103.062 Y101.149
G1 F1350 X101.15 Y103.062 E66.01265
G0 F7500 X101.15 Y102.496
G1 F1350 X102.497 Y101.149 E66.07601
G0 F7500 X101.931 Y101.149
G1 F1350 X101.15 Y101.93 E66.11275
G0 F7500 X101.15 Y101.365
G1 F1350 X101.365 Y101.149 E66.12288
G0 F7500 X101.365 Y100.8
G1 F2700 E61.12288
;MESH:NONMESH
G0 F300 X101.365 Y100.8 Z0.6
G0 F7500 X101.365 Y100.71
G0 X119.218 Y100.782
G0 X119.4 Y119.4
;TIME_ELAPSED:109.906151
;LAYER:2
M106 S170
;TYPE:WALL-INNER
;MESH:CHEPCalibrationCube.stl
G1 F2700 E66.12288
G1 F1500 X100.6 Y119.4 E66.74817
G1 X100.6 Y100.6 E67.37346
G1 X119.4 Y100.6 E67.99875
G1 X119.4 Y119.4 E68.62404
G0 F9000 X119.8 Y119.8
;TYPE:WALL-OUTER
G1 F1500 X100.2 Y119.8 E69.27594
G1 X100.2 Y100.2 E69.92784
G1 X119.8 Y100.2 E70.57974
G1 X119.8 Y119.8 E71.23164
G0 F9000 X119.53 Y119.53
G0 X119.29 Y119.01
G0 X119.01 Y119.01
;TYPE:SKIN
G1 F1500 X100.99 Y119.01 E71.83099
G1 X100.99 Y100.99 E72.43033
G1 X119.01 Y100.99 E73.02968
G1 X119.01 Y119.01 E73.62903
G0 F9000 X119.29 Y119.01
G0 X119.29 Y101.313
G0 X118.849 Y101.313
G1 F1500 X118.686 Y101.15 E73.6367
G0 F9000 X118.12 Y101.15
G1 F1500 X118.849 Y101.879 E73.67099
G0 F9000 X118.849 Y102.444
G1 F1500 X117.555 Y101.15 E73.73185
G0 F9000 X116.989 Y101.15
G1 F1500 X118.849 Y103.01 E73.81934
G0 F9000 X118.849 Y103.576
G1 F1500 X116.423 Y101.15 E73.93345
G0 F9000 X115.858 Y101.15
G1 F1500 X118.849 Y104.141 E74.07414
G0 F9000 X118.849 Y104.707
G1 F1500 X115.292 Y101.15 E74.24145
G0 F9000 X114.726 Y101.15
G1 F1500 X118.849 Y105.273 E74.43538
G0 F9000 X118.849 Y105.839
G1 F1500 X114.16 Y101.15 E74.65594
G0 F9000 X113.595 Y101.15
G1 F1500 X118.849 Y106.404 E74.90307
G0 F9000 X118.849 Y106.97
G1 F1500 X113.029 Y101.15 E75.17683
G0 F9000 X112.463 Y101.15
G1 F1500 X118.849 Y107.536 E75.4772
G0 F9000 X118.849 Y108.101
G1 F1500 X111.898 Y101.15 E75.80416
G0 F9000 X111.332 Y101.15
G1 F1500 X118.849 Y108.667 E76.15773
G0 F9000 X118.849 Y109.233
G1 F1500 X110.766 Y101.15 E76.53793
G0 F9000 X110.201 Y101.15
G1 F1500 X118.849 Y109.798 E76.94471
G0 F9000 X118.849 Y110.364
G1 F1500 X109.635 Y101.15 E77.37811
G0 F9000 X109.069 Y101.15
G1 F1500 X118.849 Y110.93 E77.83813
G0 F9000 X118.849 Y111.495
G1 F1500 X108.504 Y101.15 E78.32473
G0 F9000 X107.938 Y101.15
G1 F1500 X118.849 Y112.061 E78.83795
G0 F9000 X118.849 Y112.627
G1 F1500 X107.372 Y101.15 E79.37779
G0 F9000 X106.807 Y101.15
G1 F1500 X118.849 Y113.192 E79.94421
G0 F9000 X118.849 Y113.758
G1 F1500 X106.241 Y101.15 E80.53725
G0 F9000 X105.675 Y101.15
G1 F1500 X118.849 Y114.324 E81.15691
G0 F9000 X118.849 Y114.89
G1 F1500 X105.11 Y101.15 E81.80318
G0 F9000 X104.544 Y101.15
G1 F1500 X118.849 Y115.455 E82.47604
G0 F9000 X118.849 Y116.021
G1 F1500 X103.978 Y101.15 E83.17553
G0 F9000 X103.412 Y101.15
G1 F1500 X118.849 Y116.587 E83.90164
G0 F9000 X118.849 Y117.152
G1 F1500 X102.847 Y101.15 E84.65432
G0 F9000 X102.281 Y101.15
G1 F1500 X118.849 Y117.718 E85.43363
G0 F9000 X118.849 Y118.284
G1 F1500 X101.715 Y101.15 E86.23956
G0 F9000 X101.149 Y101.149
G1 F1500 X118.849 Y118.849 E87.07211
G0 F9000 X118.283 Y118.849
G1 F1500 X101.149 Y101.715 E87.87805
G0 F9000 X101.149 Y102.28
G1 F1500 X117.717 Y118.849 E88.65738
G0 F9000 X117.152 Y118.849
G1 F1500 X101.149 Y102.846 E89.41011
G0 F9000 X101.149 Y103.412
G1 F1500 X116.586 Y118.849 E90.13622
G0 F9000 X116.02 Y118.849
G1 F1500 X101.149 Y103.977 E90.83573
G0 F9000 X101.149 Y104.543
G1 F1500 X115.454 Y118.849 E91.50861
G0 F9000 X114.889 Y118.849
G1 F1500 X101.149 Y105.109 E92.1549
G0 F9000 X101.149 Y105.674
G1 F1500 X114.323 Y118.849 E92.77459
G0 F9000 X113.757 Y118.849
G1 F1500 X101.149 Y106.24 E93.36766
G0 F9000 X101.149 Y106.806
G1 F1500 X113.192 Y118.849 E93.93412
G0 F9000 X112.626 Y118.849
G1 F1500 X101.149 Y107.372 E94.47396
G0 F9000 X101.149 Y107.937
G1 F1500 X112.06 Y118.849 E94.98721
G0 F9000 X111.495 Y118.849
G1 F1500 X101.149 Y108.503 E95.47385
G0 F9000 X101.149 Y109.069
G1 F1500 X110.929 Y118.849 E95.93387
G0 F9000 X110.363 Y118.849
G1 F1500 X101.149 Y109.634 E96.36729
G0 F9000 X101.149 Y110.2
G1 F1500 X109.798 Y118.849 E96.77412
G0 F9000 X109.232 Y118.849
G1 F1500 X101.149 Y110.766 E97.15432
G0 F9000 X101.149 Y111.331
G1 F1500 X108.666 Y118.849 E97.50792
G0 F9000 X108.101 Y118.849
G1 F1500 X101.149 Y111.897 E97.83492
G0 F9000 X101.149 Y112.463
G1 F1500 X107.535 Y118.849 E98.1353
G0 F9000 X106.969 Y118.849
G1 F1500 X101.149 Y113.028 E98.40907
G0 F9000 X101.149 Y113.594
G1 F1500 X106.404 Y118.849 E98.65625
G0 F9000 X105.838 Y118.849
G1 F1500 X101.149 Y114.16 E98.87681
G0 F9000 X101.149 Y114.725
G1 F1500 X105.272 Y118.849 E99.07077
G0 F9000 X104.706 Y118.849
G1 F1500 X101.149 Y115.291 E99.2381
G0 F9000 X101.149 Y115.857
G1 F1500 X104.141 Y118.849 E99.37883
G0 F9000 X103.575 Y118.849
G1 F1500 X101.149 Y116.423 E99.49295
G0 F9000 X101.149 Y116.988
G1 F1500 X103.009 Y118.849 E99.58046
G0 F9000 X102.444 Y118.849
G1 F1500 X101.149 Y117.554 E99.64137
G0 F9000 X101.149 Y118.12
G1 F1500 X101.878 Y118.849 E99.67566
G0 F9000 X101.312 Y118.849
G1 F1500 X101.149 Y118.685 E99.68335
G0 F9000 X100.8 Y118.685
;MESH:NONMESH
G0 F300 X100.8 Y118.685 Z0.8
G0 F9000 X100.71 Y118.685
G0 X100.782 Y119.218
G0 X119.4 Y119.4
;TIME_ELAPSED:156.863652
;LAYER:3
M106 S255
;TYPE:WALL-INNER
;MESH:CHEPCalibrationCube.stl
G1 F1500 X100.6 Y119.4 E100.30864
G1 X100.6 Y100.6 E100.93393
G1 X119.4 Y100.6 E101.55922
G1 X119.4 Y119.4 E102.18451
G0 F9000 X119.8 Y119.8
;TYPE:WALL-OUTER
G1 F1500 X100.2 Y119.8 E102.83641
G1 X100.2 Y100.2 E103.48831
G1 X119.8 Y100.2 E104.14021
G1 X119.8 Y119.8 E104.79211
G0 F9000 X119.53 Y119.53
G0 X119.29 Y119.01
G0 X119.01 Y119.01
;TYPE:SKIN
G1 F1500 X100.99 Y119.01 E105.39146
G1 X100.99 Y100.99 E105.9908
G1 X119.01 Y100.99 E106.59015
G1 X119.01 Y119.01 E107.1895
G0 F9000 X118.738 Y118.849
G1 F1500 X118.849 Y118.738 E107.19472
G0 F9000 X118.849 Y118.173
