;FLAVOR:Marlin
;TIME:2027
;Filament used: 1.61299m
;Layer height: 0.2
;MINX:107.7
;MINY:107.7
;MINZ:0.2
;MAXX:127.3
;MAXY:127.3
;MAXZ:20
;TARGET_MACHINE.NAME:Creality Ender-3
;Generated with Cura_SteamEngine 5.7.1
M140 S50
M105
M190 S50
M104 S200
M105
M109 S200
M82 ;absolute extrusion mode
; Ender 3 Custom Start G-code
G92 E0 ; Reset Extruder
G28 ; Home all axes
G1 Z2.0 F3000 ; Move Z Axis up little to prevent scratching of Heat Bed
G1 X0.1 Y20 Z0.3 F5000.0 ; Move to start position
G1 X0.1 Y200.0 Z0.3 F1500.0 E15 ; Draw the first line
G1 X0.4 Y200.0 Z0.3 F5000.0 ; Move to side a little
G1 X0.4 Y20 Z0.3 F1500.0 E30 ; Draw the second line
G92 E0 ; Reset Extruder
G1 Z2.0 F3000 ; Move Z Axis up little to prevent scratching of Heat Bed
G1 X5 Y20 Z0.3 F5000.0 ; Move over to prevent blob squish
G92 E0
G92 E0
G1 F2700 E-5
;LAYER_COUNT:100
;LAYER:0
M107
;MESH:cube.stl
G0 F6000 X126.1 Y126.1 Z0.2
;TYPE:WALL-INNER
G1 F2700 E0
G1 F1200 X126.1 Y108.9 E0.57207
G1 X108.9 Y108.9 E1.14415
G1 X108.9 Y126.1 E1.71622
G1 X126.1 Y126.1 E2.2883
G0 F6000 X126.5 Y126.5
G1 F1200 X126.5 Y108.5 E2.88698
G1 X108.5 Y108.5 E3.48566
G1 X108.5 Y126.5 E4.08434
G1 X126.5 Y126.5 E4.68303
G0 F6000 X126.9 Y126.9
G1 F1200 X126.9 Y108.1 E5.30832
G1 X108.1 Y108.1 E5.93361
G1 X108.1 Y126.9 E6.5589
G1 X126.9 Y126.9 E7.18419
G0 F6000 X127.3 Y127.3
;TYPE:WALL-OUTER
G1 F1200 X127.3 Y107.7 E7.83609
G1 X107.7 Y107.7 E8.48799
G1 X107.7 Y127.3 E9.13989
G1 X127.3 Y127.3 E9.79178
G0 F6000 X127.03 Y127.03
G0 X126 Y125.74
G0 X125.74 Y125.74
;TYPE:SKIN
G1 F1200 X109.26 Y125.74 E10.33991
G1 X109.26 Y109.26 E10.88804
G1 X125.74 Y109.26 E11.43616
G1 X125.74 Y125.74 E11.98429
G0 F6000 X126 Y125.74
G0 X125.928 Y109.072
G0 X125.299 Y109
G0 X125.299 Y109.46
G1 F1200 X125.54 Y109.701 E11.99563
G0 F6000 X125.54 Y110.266
G1 F1200 X124.734 Y109.46 E12.03354
G0 F6000 X124.168 Y109.46
G1 F1200 X125.54 Y110.832 E12.09807
G0 F6000 X125.54 Y111.398
G1 F1200 X123.602 Y109.46 E12.18923
G0 F6000 X123.037 Y109.46
G1 F1200 X125.54 Y111.963 E12.30697
G0 F6000 X125.54 Y112.529
G1 F1200 X122.471 Y109.46 E12.45132
G0 F6000 X121.905 Y109.46
G1 F1200 X125.54 Y113.095 E12.6223
G0 F6000 X125.54 Y113.66
G1 F1200 X121.34 Y109.46 E12.81986
G0 F6000 X120.774 Y109.46
G1 F1200 X125.54 Y114.226 E13.04403
G0 F6000 X125.54 Y114.792
G1 F1200 X120.208 Y109.46 E13.29483
G0 F6000 X119.642 Y109.46
G1 F1200 X125.54 Y115.357 E13.57224
G0 F6000 X125.54 Y115.923
G1 F1200 X119.077 Y109.46 E13.87623
G0 F6000 X118.511 Y109.46
G1 F1200 X125.54 Y116.489 E14.20686
G0 F6000 X125.54 Y117.054
G1 F1200 X117.945 Y109.46 E14.56408
G0 F6000 X117.38 Y109.46
G1 F1200 X125.54 Y117.62 E14.9479
G0 F6000 X125.54 Y118.186
G1 F1200 X116.814 Y109.46 E15.35835
G0 F6000 X116.248 Y109.46
G1 F1200 X125.54 Y118.752 E15.79541
G0 F6000 X125.54 Y119.317
G1 F1200 X115.683 Y109.46 E16.25906
G0 F6000 X115.117 Y109.46
G1 F1200 X125.54 Y119.883 E16.74932
G0 F6000 X125.54 Y120.449
G1 F1200 X114.551 Y109.46 E17.26621
G0 F6000 X113.986 Y109.46
G1 F1200 X125.54 Y121.014 E17.80968
G0 F6000 X125.54 Y121.58
G1 F1200 X113.42 Y109.46 E18.37976
G0 F6000 X112.854 Y109.46
G1 F1200 X125.54 Y122.146 E18.97647
G0 F6000 X125.54 Y122.711
G1 F1200 X112.289 Y109.46 E19.59976
G0 F6000 X111.723 Y109.46
G1 F1200 X125.54 Y123.277 E20.24967
G0 F6000 X125.54 Y123.843
G1 F1200 X111.157 Y109.46 E20.9262
G0 F6000 X110.592 Y109.46
G1 F1200 X125.54 Y124.408 E21.62931
G0 F6000 X125.54 Y124.974
G1 F1200 X110.026 Y109.46 E22.35904
G0 F6000 X109.46 Y109.46
G1 F1200 X125.54 Y125.54 E23.11539
G0 F6000 X124.974 Y125.54
G1 F1200 X109.46 Y110.026 E23.84513
G0 F6000 X109.46 Y110.592
G1 F1200 X124.408 Y125.54 E24.54823
G0 F6000 X123.843 Y125.54
G1 F1200 X109.46 Y111.157 E25.22477
G0 F6000 X109.46 Y111.723
G1 F1200 X123.277 Y125.54 E25.87467
G0 F6000 X122.711 Y125.54
G1 F1200 X109.46 Y112.289 E26.49796
G0 F6000 X109.46 Y112.854
G1 F1200 X122.146 Y125.54 E27.09467
G0 F6000 X121.58 Y125.54
G1 F1200 X109.46 Y113.42 E27.66476
G0 F6000 X109.46 Y113.986
G1 F1200 X121.014 Y125.54 E28.20822
G0 F6000 X120.449 Y125.54
G1 F1200 X109.46 Y114.551 E28.72511
G0 F6000 X109.46 Y115.117
G1 F1200 X119.883 Y125.54 E29.21538
G0 F6000 X119.317 Y125.54
G1 F1200 X109.46 Y115.683 E29.67902
G0 F6000 X109.46 Y116.248
G1 F1200 X118.752 Y125.54 E30.11609
G0 F6000 X118.186 Y125.54
G1 F1200 X109.46 Y116.814 E30.52653
G0 F6000 X109.46 Y117.38
G1 F1200 X117.62 Y125.54 E30.91035
G0 F6000 X117.054 Y125.54
G1 F1200 X109.46 Y117.945 E31.26758
G0 F6000 X109.46 Y118.511
G1 F1200 X116.489 Y125.54 E31.5982
G0 F6000 X115.923 Y125.54
G1 F1200 X109.46 Y119.077 E31.9022
G0 F6000 X109.46 Y119.642
G1 F1200 X115.357 Y125.54 E32.1796
G0 F6000 X114.792 Y125.54
G1 F1200 X109.46 Y120.208 E32.4304
G0 F6000 X109.46 Y120.774
G1 F1200 X114.226 Y125.54 E32.65458
G0 F6000 X113.66 Y125.54
G1 F1200 X109.46 Y121.34 E32.85213
G0 F6000 X109.46 Y121.905
G1 F1200 X113.095 Y125.54 E33.02311
G0 F6000 X112.529 Y125.54
G1 F1200 X109.46 Y122.471 E33.16747
G0 F6000 X109.46 Y123.037
G1 F1200 X111.963 Y125.54 E33.2852
G0 F6000 X111.398 Y125.54
G1 F1200 X109.46 Y123.602 E33.37636
G0 F6000 X109.46 Y124.168
G1 F1200 X110.832 Y125.54 E33.44089
G0 F6000 X110.266 Y125.54
G1 F1200 X109.46 Y124.734 E33.47881
G0 F6000 X109.46 Y125.299
G1 F1200 X109.701 Y125.54 E33.49014
G0 F6000 X109.701 Y126.3
;MESH:NONMESH
G0 F300 X109.701 Y126.3 Z0.4
G0 F6000 X126.1 Y126.1
;TIME_ELAPSED:60.279603
;LAYER:1
M106 S85
;TYPE:WALL-INNER
;MESH:cube.stl
G1 F1350 X126.1 Y108.9 E34.06222
G1 X108.9 Y108.9 E34.63429
G1 X108.9 Y126.1 E35.20637
G1 X126.1 Y126.1 E35.77844
G0 F7500 X126.5 Y126.5
G1 F1350 X126.5 Y108.5 E36.37712
G1 X108.5 Y108.5 E36.9758
G1 X108.5 Y126.5 E37.57449
G1 X126.5 Y126.5 E38.17317
G0 F7500 X126.9 Y126.9
G1 F1350 X126.9 Y108.1 E38.79846
G1 X108.1 Y108.1 E39.42375
G1 X108.1 Y126.9 E40.04904
G1 X126.9 Y126.9 E40.67433
G0 F7500 X127.3 Y127.3
;TYPE:WALL-OUTER
G1 F1350 X127.3 Y107.7 E41.32623
G1 X107.7 Y107.7 E41.97813
G1 X107.7 Y127.3 E42.63003
G1 X127.3 Y127.3 E43.28193
G0 F7500 X127.03 Y127.03
G0 X126 Y125.74
G0 X125.74 Y125.74
;TYPE:SKIN
G1 F1350 X109.26 Y125.74 E43.83005
G1 X109.26 Y109.26 E44.37818
G1 X125.74 Y109.26 E44.92631
G1 X125.74 Y125.74 E45.47443
G0 F7500 X125.059 Y125.54
G1 F1350 X125.54 Y125.059 E45.49706
G0 F7500 X125.54 Y124.493
G1 F1350 X124.493 Y125.54 E45.54631
G0 F7500 X123.928 Y125.54
G1 F1350 X125.54 Y123.928 E45.62213
G0 F7500 X125.54 Y123.362
G1 F1350 X123.362 Y125.54 E45.72458
G0 F7500 X122.796 Y125.54
G1 F1350 X125.54 Y122.796 E45.85365
G0 F7500 X125.54 Y122.23
G1 F1350 X122.23 Y125.54 E46.00934
G0 F7500 X121.665 Y125.54
G1 F1350 X125.54 Y121.665 E46.19161
G0 F7500 X125.54 Y121.099
G1 F1350 X121.099 Y125.54 E46.4005
G0 F7500 X120.533 Y125.54
G1 F1350 X125.54 Y120.533 E46.63601
G0 F7500 X125.54 Y119.968
G1 F1350 X119.968 Y125.54 E46.8981
G0 F7500 X119.402 Y125.54
G1 F1350 X125.54 Y119.402 E47.18681
G0 F7500 X125.54 Y118.836
G1 F1350 X118.836 Y125.54 E47.50215
G0 F7500 X118.271 Y125.54
G1 F1350 X125.54 Y118.271 E47.84406
G0 F7500 X125.54 Y117.705
G1 F1350 X117.705 Y125.54 E48.2126
G0 F7500 X117.139 Y125.54
G1 F1350 X125.54 Y117.139 E48.60775
G0 F7500 X125.54 Y116.574
G1 F1350 X116.574 Y125.54 E49.02949
G0 F7500 X116.008 Y125.54
G1 F1350 X125.54 Y116.008 E49.47784
G0 F7500 X125.54 Y115.442
G1 F1350 X115.442 Y125.54 E49.95282
G0 F7500 X114.877 Y125.54
G1 F1350 X125.54 Y114.877 E50.45438
G0 F7500 X125.54 Y114.311
G1 F1350 X114.311 Y125.54 E50.98255
G0 F7500 X113.745 Y125.54
G1 F1350 X125.54 Y113.745 E51.53735
G0 F7500 X125.54 Y113.18
G1 F1350 X113.18 Y125.54 E52.11873
G0 F7500 X112.614 Y125.54
G1 F1350 X125.54 Y112.614 E52.72673
G0 F7500 X125.54 Y112.048
G1 F1350 X112.048 Y125.54 E53.36135
G0 F7500 X111.482 Y125.54
G1 F1350 X125.54 Y111.482 E54.0226
G0 F7500 X125.54 Y110.917
G1 F1350 X110.917 Y125.54 E54.71042
G0 F7500 X110.351 Y125.54
G1 F1350 X125.54 Y110.351 E55.42486
G0 F7500 X125.54 Y109.785
G1 F1350 X109.785 Y125.54 E56.16593
G0 F7500 X109.46 Y125.299
G1 F1350 X125.299 Y109.46 E56.91095
G0 F7500 X124.734 Y109.46
G1 F1350 X109.46 Y124.734 E57.62939
G0 F7500 X109.46 Y124.168
G1 F1350 X124.168 Y109.46 E58.32121
G0 F7500 X123.602 Y109.46
G1 F1350 X109.46 Y123.602 E58.98641
G0 F7500 X109.46 Y123.037
G1 F1350 X123.037 Y109.46 E59.62503
G0 F7500 X122.471 Y109.46
G1 F1350 X109.46 Y122.471 E60.23702
G0 F7500 X109.46 Y121.905
G1 F1350 X121.905 Y109.46 E60.8224
G0 F7500 X121.34 Y109.46
G1 F1350 X109.46 Y121.34 E61.3812
G0 F7500 X109.46 Y120.774
G1 F1350 X120.774 Y109.46 E61.91337
G0 F7500 X120.208 Y109.46
G1 F1350 X109.46 Y120.208 E62.41893
G0 F7500 X109.46 Y119.642
G1 F1350 X119.642 Y109.46 E62.89786
G0 F7500 X119.077 Y109.46
G1 F1350 X109.46 Y119.077 E63.35021
G0 F7500 X109.46 Y118.511
G1 F1350 X118.511 Y109.46 E63.77594
G0 F7500 X117.945 Y109.46
G1 F1350 X109.46 Y117.945 E64.17505
G0 F7500 X109.46 Y117.38
G1 F1350 X117.38 Y109.46 E64.54758
G0 F7500 X116.814 Y109.46
G1 F1350 X109.46 Y116.814 E64.89349
G0 F7500 X109.46 Y116.248
G1 F1350 X116.248 Y109.46 E65.21278
G0 F7500 X115.683 Y109.46
G1 F1350 X109.46 Y115.683 E65.50549
G0 F7500 X109.46 Y115.117
G1 F1350 X115.117 Y109.46 E65.77158
G0 F7500 X114.551 Y109.46
G1 F1350 X109.46 Y114.551 E66.01104
G0 F7500 X109.46 Y113.986
G1 F1350 X113.986 Y109.46 E66.22393
G0 F7500 X113.42 Y109.46
G1 F1350 X109.46 Y113.42 E66.4102
G0 F7500 X109.46 Y112.854
G1 F1350 X112.854 Y109.46 E66.56984
G0 F7500 X112.289 Y109.46
G1 F1350 X109.46 Y112.289 E66.70291
G0 F7500 X109.46 Y111.723
G1 F1350 X111.723 Y109.46 E66.80935
G0 F7500 X111.157 Y109.46
G1 F1350 X109.46 Y111.157 E66.88917
G0 F7500 X109.46 Y110.592
G1 F1350 X110.592 Y109.46 E66.94242
G0 F7500 X110.026 Y109.46
G1 F1350 X109.46 Y110.026 E66.96904
G0 F7500 X108.7 Y110.026
G1 F2700 E61.96904
;MESH:NONMESH
G0 F300 X108.7 Y110.026 Z0.6
G0 F7500 X109.072 Y125.928
G0 X126.1 Y126.1
;TIME_ELAPSED:110.948054
;LAYER:2
M106 S170
;TYPE:WALL-INNER
;MESH:cube.stl
G1 F2700 E66.96904
G1 F1500 X126.1 Y108.9 E67.54112
G1 X108.9 Y108.9 E68.11319
G1 X108.9 Y126.1 E68.68527
G1 X126.1 Y126.1 E69.25734
G0 F9000 X126.5 Y126.5
G1 F1500 X126.5 Y108.5 E69.85602
G1 X108.5 Y108.5 E70.45471
G1 X108.5 Y126.5 E71.05339
G1 X126.5 Y126.5 E71.65207
G0 F9000 X126.9 Y126.9
G1 F1500 X126.9 Y108.1 E72.27736
G1 X108.1 Y108.1 E72.90265
G1 X108.1 Y126.9 E73.52794
G1 X126.9 Y126.9 E74.15323
G0 F9000 X127.3 Y127.3
;TYPE:WALL-OUTER
G1 F1500 X127.3 Y107.7 E74.80513
G1 X107.7 Y107.7 E75.45703
G1 X107.7 Y127.3 E76.10893
G1 X127.3 Y127.3 E76.76083
G0 F9000 X127.03 Y127.03
G0 X126 Y125.74
G0 X125.74 Y125.74
;TYPE:SKIN
G1 F1500 X109.26 Y125.74 E77.30895
G1 X109.26 Y109.26 E77.85708
G1 X125.74 Y109.26 E78.40521
G1 X125.74 Y125.74 E78.95334
G0 F9000 X126 Y125.74
G0 X125.928 Y109.072
G0 X125.299 Y109
G0 X125.299 Y109.46
G1 F1500 X125.54 Y109.701 E78.96467
G0 F9000 X125.54 Y110.266
G1 F1500 X124.734 Y109.46 E79.00258
G0 F9000 X124.168 Y109.46
G1 F1500 X125.54 Y110.832 E79.06712
G0 F9000 X125.54 Y111.398
G1 F1500 X123.602 Y109.46 E79.15828
G0 F9000 X123.037 Y109.46
G1 F1500 X125.54 Y111.963 E79.27601
G0 F9000 X125.54 Y112.529
G1 F1500 X122.471 Y109.46 E79.42036
G0 F9000 X121.905 Y109.46
G1 F1500 X125.54 Y113.095 E79.59134
G0 F9000 X125.54 Y113.66
G1 F1500 X121.34 Y109.46 E79.7889
G0 F9000 X120.774 Y109.46
G1 F1500 X125.54 Y114.226 E80.01308
G0 F9000 X125.54 Y114.792
G1 F1500 X120.208 Y109.46 E80.26388
G0 F9000 X119.642 Y109.46
G1 F1500 X125.54 Y115.357 E80.54128
G0 F9000 X125.54 Y115.923
G1 F1500 X119.077 Y109.46 E80.84528
G0 F9000 X118.511 Y109.46
G1 F1500 X125.54 Y116.489 E81.1759
G0 F9000 X125.54 Y117.054
G1 F1500 X117.945 Y109.46 E81.53312
G0 F9000 X117.38 Y109.46
G1 F1500 X125.54 Y117.62 E81.91694
G0 F9000 X125.54 Y118.186
G1 F1500 X116.814 Y109.46 E82.32739
G0 F9000 X116.248 Y109.46
G1 F1500 X125.54 Y118.752 E82.76446
G0 F9000 X125.54 Y119.317
G1 F1500 X115.683 Y109.46 E83.2281
G0 F9000 X115.117 Y109.46
G1 F1500 X125.54 Y119.883 E83.71836
G0 F9000 X125.54 Y120.449
G1 F1500 X114.551 Y109.46 E84.23525
G0 F9000 X113.986 Y109.46
G1 F1500 X125.54 Y121.014 E84.77872
G0 F9000 X125.54 Y121.58
G1 F1500 X113.42 Y109.46 E85.34881
G0 F9000 X112.854 Y109.46
G1 F1500 X125.54 Y122.146 E85.94552
G0 F9000 X125.54 Y122.711
G1 F1500 X112.289 Y109.46 E86.5688
G0 F9000 X111.723 Y109.46
G1 F1500 X125.54 Y123.277 E87.21871
G0 F9000 X125.54 Y123.843
G1 F1500 X111.157 Y109.46 E87.89524
G0 F9000 X110.592 Y109.46
G1 F1500 X125.54 Y124.408 E88.59835
G0 F9000 X125.54 Y124.974
G1 F1500 X110.026 Y109.46 E89.32808
G0 F9000 X109.46 Y109.46
G1 F1500 X125.54 Y125.54 E90.08444
G0 F9000 X124.974 Y125.54
G1 F1500 X109.46 Y110.026 E90.81417
G0 F9000 X109.46 Y110.592
G1 F1500 X124.408 Y125.54 E91.51728
G0 F9000 X123.843 Y125.54
G1 F1500 X109.46 Y111.157 E92.19381
G0 F9000 X109.46 Y111.723
G1 F1500 X123.277 Y125.54 E92.84372
G0 F9000 X122.711 Y125.54
G1 F1500 X109.46 Y112.289 E93.467
G0 F9000 X109.46 Y112.854
G1 F1500 X122.146 Y125.54 E94.06372
G0 F9000 X121.58 Y125.54
G1 F1500 X109.46 Y113.42 E94.6338
G0 F9000 X109.46 Y113.986
G1 F1500 X121.014 Y125.54 E95.17727
G0 F9000 X120.449 Y125.54
G1 F1500 X109.46 Y114.551 E95.69416
G0 F9000 X109.46 Y115.117
G1 F1500 X119.883 Y125.54 E96.18442
G0 F9000 X119.317 Y125.54
G1 F1500 X109.46 Y115.683 E96.64807
G0 F9000 X109.46 Y116.248
G1 F1500 X118.752 Y125.54 E97.08513
G0 F9000 X118.186 Y125.54
G1 F1500 X109.46 Y116.814 E97.49558
G0 F9000 X109.46 Y117.38
G1 F1500 X117.62 Y125.54 E97.8794
G0 F9000 X117.054 Y125.54
G1 F1500 X109.46 Y117.945 E98.23662
G0 F9000 X109.46 Y118.511
G1 F1500 X116.489 Y125.54 E98.56724
G0 F9000 X115.923 Y125.54
G1 F1500 X109.46 Y119.077 E98.87124
G0 F9000 X109.46 Y119.642
G1 F1500 X115.357 Y125.54 E99.14864
G0 F9000 X114.792 Y125.54
G1 F1500 X109.46 Y120.208 E99.39944
G0 F9000 X109.46 Y120.774
G1 F1500 X114.226 Y125.54 E99.62362
G0 F9000 X113.66 Y125.54
G1 F1500 X109.46 Y121.34 E99.82118
G0 F9000 X109.46 Y121.905
G1 F1500 X113.095 Y125.54 E99.99216
G0 F9000 X112.529 Y125.54
G1 F1500 X109.46 Y122.471 E100.13651
G0 F9000 X109.46 Y123.037
G1 F1500 X111.963 Y125.54 E100.25425
G0 F9000 X111.398 Y125.54
G1 F1500 X109.46 Y123.602 E100.3454
G0 F9000 X109.46 Y124.168
G1 F1500 X110.832 Y125.54 E100.40994
G0 F9000 X110.266 Y125.54
G1 F1500 X109.46 Y124.734 E100.44785
G0 F9000 X109.46 Y125.299
G1 F1500 X109.701 Y125.54 E100.45919
G0 F9000 X109.701 Y126.3
;MESH:NONMESH
G0 F300 X109.701 Y126.3 Z0.8
G0 F9000 X126.1 Y126.1
;TIME_ELAPSED:157.673630
;LAYER:3
M106 S255
;TYPE:WALL-INNER
;MESH:cube.stl
G1 F1500 X126.1 Y108.9 E101.03126
G1 X108.9 Y108.9 E101.60333
G1 X108.9 Y126.1 E102.17541
G1 X126.1 Y126.1 E102.74748
G0 F9000 X126.5 Y126.5
G1 F1500 X126.5 Y108.5 E103.34617
G1 X108.5 Y108.5 E103.94485
G1 X108.5 Y126.5 E104.54353
G1 X126.5 Y126.5 E105.14221
G0 F9000 X126.9 Y126.9
G1 F1500 X126.9 Y108.1 E105.7675
G1 X108.1 Y108.1 E106.39279
G1 X108.1 Y126.9 E107.01808
G1 X126.9 Y126.9 E107.64338
G0 F9000 X127.3 Y127.3
;TYPE:WALL-OUTER
G1 F1500 X127.3 Y107.7 E108.29527
G1 X107.7 Y107.7 E108.94717
G1 X107.7 Y127.3 E109.59907
G1 X127.3 Y127.3 E110.25097
G0 F9000 X127.03 Y127.03
G0 X126 Y125.74
G0 X125.74 Y125.74
;TYPE:SKIN
G1 F1500 X109.26 Y125.74 E110.7991
G1 X109.26 Y109.26 E111.34722
G1 X125.74 Y109.26 E111.89535
G1 X125.74 Y125.74 E112.44348
G0 F9000 X125.059 Y125.54
G1 F1500 X125.54 Y125.059 E112.4661
G0 F9000 X125.54 Y124.493
G1 F1500 X124.493 Y125.54 E112.51535
G0 F9000 X123.928 Y125.54
G1 F1500 X125.54 Y123.928 E112.59117
G0 F9000 X125.54 Y123.362
G1 F1500 X123.362 Y125.54 E112.69362
G0 F9000 X122.796 Y125.54
G1 F1500 X125.54 Y122.796 E112.82269
G0 F9000 X125.54 Y122.23
G1 F1500 X122.23 Y125.54 E112.97838
G0 F9000 X121.665 Y125.54
G1 F1500 X125.54 Y121.665 E113.16065
G0 F9000 X125.54 Y121.099
G1 F1500 X121.099 Y125.54 E113.36954
G0 F9000 X120.533 Y125.54
G1 F1500 X125.54 Y120.533 E113.60505
G0 F9000 X125.54 Y119.968
G1 F1500 X119.968 Y125.54 E113.86714
G0 F9000 X119.402 Y125.54
G1 F1500 X125.54 Y119.402 E114.15586
G0 F9000 X125.54 Y118.836
G1 F1500 X118.836 Y125.54 E114.47119
G0 F9000 X118.271 Y125.54
G1 F1500 X125.54 Y118.271 E114.8131
G0 F9000 X125.54 Y117.705
G1 F1500 X117.705 Y125.54 E115.18164
G0 F9000 X117.139 Y125.54
G1 F1500 X125.54 Y117.139 E115.5768
G0 F9000 X125.54 Y116.574
