;FLAVOR:Marlin
;TIME:2293
;Filament used: 1.66527m
;Layer height: 0.2
;MINX:107.7
;MINY:86.198
;MINZ:0.2
;MAXX:127.32
;MAXY:105.8
;MAXZ:20
;TARGET_MACHINE.NAME:Creality Ender-3
;Generated with Cura_SteamEngine 5.7.1
M140 S50
M105
M190 S50
M104 S200
M105
M109 S200
M82 ;absolute extrusion mode
; Ender 3 Custom Start G-code
G92 E0 ; Reset Extruder
G28 ; Home all axes
G1 Z2.0 F3000 ; Move Z Axis up little to prevent scratching of Heat Bed
G1 X0.1 Y20 Z0.3 F5000.0 ; Move to start position
G1 X0.1 Y200.0 Z0.3 F1500.0 E15 ; Draw the first line
G1 X0.4 Y200.0 Z0.3 F5000.0 ; Move to side a little
G1 X0.4 Y20 Z0.3 F1500.0 E30 ; Draw the second line
G92 E0 ; Reset Extruder
G1 Z2.0 F3000 ; Move Z Axis up little to prevent scratching of Heat Bed
G1 X5 Y20 Z0.3 F5000.0 ; Move over to prevent blob squish
G92 E0
G92 E0
G1 F2700 E-5
;LAYER_COUNT:100
;LAYER:0
M107
;MESH:CHEPCalibrationCube.stl
G0 F6000 X126.1 Y104.6 Z0.2
;TYPE:WALL-INNER
G1 F2700 E0
G1 F1200 X126.1 Y87.4 E0.57207
G1 X108.9 Y87.4 E1.14415
G1 X108.9 Y104.6 E1.71622
G1 X126.1 Y104.6 E2.2883
G0 F6000 X126.5 Y105
G1 F1200 X126.5 Y87 E2.88698
G1 X108.5 Y87 E3.48566
G1 X108.5 Y105 E4.08434
G1 X126.5 Y105 E4.68303
G0 F6000 X126.9 Y105.4
G1 F1200 X126.9 Y86.6 E5.30832
G1 X108.1 Y86.6 E5.93361
G1 X108.1 Y105.4 E6.5589
G1 X126.9 Y105.4 E7.18419
G0 F6000 X127.3 Y105.8
;TYPE:WALL-OUTER
G1 F1200 X127.3 Y86.2 E7.83609
G1 X107.7 Y86.2 E8.48799
G1 X107.7 Y105.8 E9.13989
G1 X127.3 Y105.8 E9.79178
G0 F6000 X127.03 Y105.53
G0 X126 Y104.24
G0 X125.74 Y104.24
;TYPE:SKIN
G1 F1200 X109.26 Y104.24 E10.33991
G1 X109.26 Y87.76 E10.88804
G1 X125.74 Y87.76 E11.43616
G1 X125.74 Y104.24 E11.98429
G0 F6000 X126 Y104.24
G0 X125.928 Y87.572
G0 X125.295 Y87.5
G0 X125.295 Y87.96
G1 F1200 X125.54 Y88.205 E11.99582
G0 F6000 X125.54 Y88.771
G1 F1200 X124.729 Y87.96 E12.03396
G0 F6000 X124.164 Y87.96
G1 F1200 X125.54 Y89.337 E12.09871
G0 F6000 X125.54 Y89.902
G1 F1200 X123.598 Y87.96 E12.19005
G0 F6000 X123.032 Y87.96
G1 F1200 X125.54 Y90.468 E12.30802
G0 F6000 X125.54 Y91.034
G1 F1200 X122.467 Y87.96 E12.45259
G0 F6000 X121.901 Y87.96
G1 F1200 X125.54 Y91.599 E12.62376
G0 F6000 X125.54 Y92.165
G1 F1200 X121.335 Y87.96 E12.82155
G0 F6000 X120.77 Y87.96
G1 F1200 X125.54 Y92.731 E13.04594
G0 F6000 X125.54 Y93.296
G1 F1200 X120.204 Y87.96 E13.29693
G0 F6000 X119.638 Y87.96
G1 F1200 X125.54 Y93.862 E13.57454
G0 F6000 X125.54 Y94.428
G1 F1200 X119.073 Y87.96 E13.87875
G0 F6000 X118.507 Y87.96
G1 F1200 X125.54 Y94.993 E14.20956
G0 F6000 X125.54 Y95.559
G1 F1200 X117.941 Y87.96 E14.567
G0 F6000 X117.375 Y87.96
G1 F1200 X125.54 Y96.125 E14.95105
G0 F6000 X125.54 Y96.69
G1 F1200 X116.81 Y87.96 E15.36168
G0 F6000 X116.244 Y87.96
G1 F1200 X125.54 Y97.256 E15.79894
G0 F6000 X125.54 Y97.822
G1 F1200 X115.678 Y87.96 E16.26282
G0 F6000 X115.113 Y87.96
G1 F1200 X125.54 Y98.388 E16.7533
G0 F6000 X125.54 Y98.953
G1 F1200 X114.547 Y87.96 E17.27037
G0 F6000 X113.981 Y87.96
G1 F1200 X125.54 Y99.519 E17.81407
G0 F6000 X125.54 Y100.085
G1 F1200 X113.416 Y87.96 E18.38437
G0 F6000 X112.85 Y87.96
G1 F1200 X125.54 Y100.65 E18.98127
G0 F6000 X125.54 Y101.216
G1 F1200 X112.284 Y87.96 E19.60479
G0 F6000 X111.719 Y87.96
G1 F1200 X125.54 Y101.782 E20.25491
G0 F6000 X125.54 Y102.347
G1 F1200 X111.153 Y87.96 E20.93163
G0 F6000 X110.587 Y87.96
G1 F1200 X125.54 Y102.913 E21.63498
G0 F6000 X125.54 Y103.479
G1 F1200 X110.022 Y87.96 E22.36492
G0 F6000 X109.46 Y87.964
G1 F1200 X125.535 Y104.039 E23.12104
G0 F6000 X124.97 Y104.039
G1 F1200 X109.46 Y88.53 E23.85056
G0 F6000 X109.46 Y89.095
G1 F1200 X124.404 Y104.039 E24.55348
G0 F6000 X123.838 Y104.039
G1 F1200 X109.46 Y89.661 E25.22977
G0 F6000 X109.46 Y90.227
G1 F1200 X123.273 Y104.039 E25.87947
G0 F6000 X122.707 Y104.039
G1 F1200 X109.46 Y90.793 E26.50255
G0 F6000 X109.46 Y91.358
G1 F1200 X122.141 Y104.039 E27.09902
G0 F6000 X121.576 Y104.039
G1 F1200 X109.46 Y91.924 E27.6689
G0 F6000 X109.46 Y92.49
G1 F1200 X121.01 Y104.039 E28.21215
G0 F6000 X120.444 Y104.039
G1 F1200 X109.46 Y93.055 E28.72881
G0 F6000 X109.46 Y93.621
G1 F1200 X119.879 Y104.039 E29.21886
G0 F6000 X119.313 Y104.039
G1 F1200 X109.46 Y94.187 E29.68229
G0 F6000 X109.46 Y94.752
G1 F1200 X118.747 Y104.039 E30.11912
G0 F6000 X118.182 Y104.039
G1 F1200 X109.46 Y95.318 E30.52936
G0 F6000 X109.46 Y95.884
G1 F1200 X117.616 Y104.039 E30.91297
G0 F6000 X117.05 Y104.039
G1 F1200 X109.46 Y96.449 E31.26998
G0 F6000 X109.46 Y97.015
G1 F1200 X116.485 Y104.039 E31.60039
G0 F6000 X115.919 Y104.039
G1 F1200 X109.46 Y97.581 E31.90417
G0 F6000 X109.46 Y98.146
G1 F1200 X115.353 Y104.039 E32.18136
G0 F6000 X114.787 Y104.039
G1 F1200 X109.46 Y98.712 E32.43193
G0 F6000 X109.46 Y99.278
G1 F1200 X114.222 Y104.039 E32.6559
G0 F6000 X113.656 Y104.039
G1 F1200 X109.46 Y99.843 E32.85326
G0 F6000 X109.46 Y100.409
G1 F1200 X113.09 Y104.039 E33.02401
G0 F6000 X112.525 Y104.039
G1 F1200 X109.46 Y100.975 E33.16815
G0 F6000 X109.46 Y101.541
G1 F1200 X111.959 Y104.039 E33.28567
G0 F6000 X111.393 Y104.039
G1 F1200 X109.46 Y102.106 E33.3766
G0 F6000 X109.46 Y102.672
G1 F1200 X110.828 Y104.039 E33.44092
G0 F6000 X110.262 Y104.039
G1 F1200 X109.46 Y103.238 E33.47862
G0 F6000 X109.46 Y103.803
G1 F1200 X109.696 Y104.039 E33.48972
G0 F6000 X109.696 Y104.8
;MESH:NONMESH
G0 F300 X109.696 Y104.8 Z0.4
G0 F6000 X126.1 Y104.6
;TIME_ELAPSED:60.266010
;LAYER:1
M106 S85
;TYPE:WALL-INNER
;MESH:CHEPCalibrationCube.stl
G1 F1350 X126.1 Y87.4 E34.06179
G1 X108.9 Y87.4 E34.63387
G1 X108.9 Y104.6 E35.20594
G1 X126.1 Y104.6 E35.77802
G0 F7500 X126.5 Y105
G1 F1350 X126.5 Y87 E36.3767
G1 X108.5 Y87 E36.97538
G1 X108.5 Y105 E37.57406
G1 X126.5 Y105 E38.17275
G0 F7500 X126.9 Y105.4
G1 F1350 X126.9 Y86.6 E38.79804
G1 X108.1 Y86.6 E39.42333
G1 X108.1 Y105.4 E40.04862
G1 X126.9 Y105.4 E40.67391
G0 F7500 X127.3 Y105.8
;TYPE:WALL-OUTER
G1 F1350 X127.3 Y86.2 E41.32581
G1 X107.7 Y86.2 E41.97771
G1 X107.7 Y105.8 E42.6296
G1 X127.3 Y105.8 E43.2815
G0 F7500 X127.03 Y105.53
G0 X126 Y104.24
G0 X125.74 Y104.24
;TYPE:SKIN
G1 F1350 X109.26 Y104.24 E43.82963
G1 X109.26 Y87.76 E44.37776
G1 X125.74 Y87.76 E44.92588
G1 X125.74 Y104.24 E45.47401
G0 F7500 X125.54 Y103.563
G1 F1350 X125.062 Y104.04 E45.49647
G0 F7500 X124.497 Y104.04
G1 F1350 X125.54 Y102.997 E45.54553
G0 F7500 X125.54 Y102.431
G1 F1350 X123.931 Y104.04 E45.62121
G0 F7500 X123.365 Y104.04
G1 F1350 X125.54 Y101.866 E45.7235
G0 F7500 X125.54 Y101.3
G1 F1350 X122.8 Y104.04 E45.85238
G0 F7500 X122.234 Y104.04
G1 F1350 X125.54 Y100.734 E46.00788
G0 F7500 X125.54 Y100.169
G1 F1350 X121.668 Y104.04 E46.18998
G0 F7500 X121.103 Y104.04
G1 F1350 X125.54 Y99.603 E46.39869
G0 F7500 X125.54 Y99.037
G1 F1350 X120.537 Y104.04 E46.63401
G0 F7500 X119.971 Y104.04
G1 F1350 X125.54 Y98.472 E46.89594
G0 F7500 X125.54 Y97.906
G1 F1350 X119.406 Y104.04 E47.18446
G0 F7500 X118.84 Y104.04
G1 F1350 X125.54 Y97.34 E47.49961
G0 F7500 X125.54 Y96.775
G1 F1350 X118.274 Y104.04 E47.84136
G0 F7500 X117.709 Y104.04
G1 F1350 X125.54 Y96.209 E48.2097
G0 F7500 X125.54 Y95.643
G1 F1350 X117.143 Y104.04 E48.60467
G0 F7500 X116.577 Y104.04
G1 F1350 X125.54 Y95.078 E49.02624
G0 F7500 X125.54 Y94.512
G1 F1350 X116.011 Y104.04 E49.47443
G0 F7500 X115.446 Y104.04
G1 F1350 X125.54 Y93.946 E49.94922
G0 F7500 X125.54 Y93.381
G1 F1350 X114.88 Y104.04 E50.45061
G0 F7500 X114.314 Y104.04
G1 F1350 X125.54 Y92.815 E50.97863
G0 F7500 X125.54 Y92.249
G1 F1350 X113.749 Y104.04 E51.53324
G0 F7500 X113.183 Y104.04
G1 F1350 X125.54 Y91.683 E52.11447
G0 F7500 X125.54 Y91.118
G1 F1350 X112.617 Y104.04 E52.72231
G0 F7500 X112.052 Y104.04
G1 F1350 X125.54 Y90.552 E53.35674
G0 F7500 X125.54 Y89.986
G1 F1350 X111.486 Y104.04 E54.0178
G0 F7500 X110.92 Y104.04
G1 F1350 X125.54 Y89.421 E54.70546
G0 F7500 X125.54 Y88.855
G1 F1350 X110.355 Y104.04 E55.41971
G0 F7500 X109.789 Y104.04
G1 F1350 X125.54 Y88.289 E56.16059
G0 F7500 X125.304 Y87.96
G1 F1350 X109.46 Y103.803 E56.90582
G0 F7500 X109.46 Y103.238
G1 F1350 X124.738 Y87.96 E57.62445
G0 F7500 X124.172 Y87.96
G1 F1350 X109.46 Y102.672 E58.31646
G0 F7500 X109.46 Y102.106
G1 F1350 X123.607 Y87.96 E58.98187
G0 F7500 X123.041 Y87.96
G1 F1350 X109.46 Y101.541 E59.62067
G0 F7500 X109.46 Y100.975
G1 F1350 X122.475 Y87.96 E60.23286
G0 F7500 X121.909 Y87.96
G1 F1350 X109.46 Y100.409 E60.81842
G0 F7500 X109.46 Y99.843
G1 F1350 X121.344 Y87.96 E61.37739
G0 F7500 X120.778 Y87.96
G1 F1350 X109.46 Y99.278 E61.90975
G0 F7500 X109.46 Y98.712
G1 F1350 X120.212 Y87.96 E62.41549
G0 F7500 X119.647 Y87.96
G1 F1350 X109.46 Y98.146 E62.89463
G0 F7500 X109.46 Y97.581
G1 F1350 X119.081 Y87.96 E63.34718
G0 F7500 X118.515 Y87.96
G1 F1350 X109.46 Y97.015 E63.7731
G0 F7500 X109.46 Y96.449
G1 F1350 X117.95 Y87.96 E64.17242
G0 F7500 X117.384 Y87.96
G1 F1350 X109.46 Y95.884 E64.54514
G0 F7500 X109.46 Y95.318
G1 F1350 X116.818 Y87.96 E64.89123
G0 F7500 X116.253 Y87.96
G1 F1350 X109.46 Y94.752 E65.21073
G0 F7500 X109.46 Y94.187
G1 F1350 X115.687 Y87.96 E65.50363
G0 F7500 X115.121 Y87.96
G1 F1350 X109.46 Y93.621 E65.76991
G0 F7500 X109.46 Y93.055
G1 F1350 X114.556 Y87.96 E66.00958
G0 F7500 X113.99 Y87.96
G1 F1350 X109.46 Y92.49 E66.22266
G0 F7500 X109.46 Y91.924
G1 F1350 X113.424 Y87.96 E66.40912
G0 F7500 X112.858 Y87.96
G1 F1350 X109.46 Y91.358 E66.56895
G0 F7500 X109.46 Y90.793
G1 F1350 X112.293 Y87.96 E66.7022
G0 F7500 X111.727 Y87.96
G1 F1350 X109.46 Y90.227 E66.80884
G0 F7500 X109.46 Y89.661
G1 F1350 X111.161 Y87.96 E66.88885
G0 F7500 X110.596 Y87.96
G1 F1350 X109.46 Y89.095 E66.94226
G0 F7500 X109.46 Y88.53
G1 F1350 X110.03 Y87.96 E66.96907
G0 F7500 X110.03 Y87.2
G1 F2700 E61.96907
;MESH:NONMESH
G0 F300 X110.03 Y87.2 Z0.6
G0 F7500 X125.928 Y87.572
G0 X126.1 Y104.6
;TIME_ELAPSED:110.936788
;LAYER:2
M106 S170
;TYPE:WALL-INNER
;MESH:CHEPCalibrationCube.stl
G1 F2700 E66.96907
G1 F1500 X126.1 Y87.4 E67.54114
G1 X108.9 Y87.4 E68.11322
G1 X108.9 Y104.6 E68.68529
G1 X126.1 Y104.6 E69.25736
G0 F9000 X126.5 Y105
G1 F1500 X126.5 Y87 E69.85605
G1 X108.5 Y87 E70.45473
G1 X108.5 Y105 E71.05341
G1 X126.5 Y105 E71.65209
G0 F9000 X126.9 Y105.4
G1 F1500 X126.9 Y86.6 E72.27738
G1 X108.1 Y86.6 E72.90267
G1 X108.1 Y105.4 E73.52797
G1 X126.9 Y105.4 E74.15326
G0 F9000 X127.3 Y105.8
;TYPE:WALL-OUTER
G1 F1500 X127.3 Y86.2 E74.80515
G1 X107.7 Y86.2 E75.45705
G1 X107.7 Y105.8 E76.10895
G1 X127.3 Y105.8 E76.76085
G0 F9000 X127.03 Y105.53
G0 X126 Y104.24
G0 X125.74 Y104.24
;TYPE:SKIN
G1 F1500 X109.26 Y104.24 E77.30898
G1 X109.26 Y87.76 E77.8571
G1 X125.74 Y87.76 E78.40523
G1 X125.74 Y104.24 E78.95336
G0 F9000 X126 Y104.24
G0 X125.928 Y87.572
G0 X125.295 Y87.5
G0 X125.295 Y87.96
G1 F1500 X125.54 Y88.205 E78.96488
G0 F9000 X125.54 Y88.771
G1 F1500 X124.729 Y87.96 E79.00303
G0 F9000 X124.164 Y87.96
G1 F1500 X125.54 Y89.337 E79.06778
G0 F9000 X125.54 Y89.902
G1 F1500 X123.598 Y87.96 E79.15912
G0 F9000 X123.032 Y87.96
G1 F1500 X125.54 Y90.468 E79.27709
G0 F9000 X125.54 Y91.034
G1 F1500 X122.467 Y87.96 E79.42166
G0 F9000 X121.901 Y87.96
G1 F1500 X125.54 Y91.599 E79.59283
G0 F9000 X125.54 Y92.165
G1 F1500 X121.335 Y87.96 E79.79062
G0 F9000 X120.77 Y87.96
G1 F1500 X125.54 Y92.731 E80.01501
G0 F9000 X125.54 Y93.296
G1 F1500 X120.204 Y87.96 E80.26599
G0 F9000 X119.638 Y87.96
G1 F1500 X125.54 Y93.862 E80.54361
G0 F9000 X125.54 Y94.428
G1 F1500 X119.073 Y87.96 E80.84782
G0 F9000 X118.507 Y87.96
G1 F1500 X125.54 Y94.993 E81.17863
G0 F9000 X125.54 Y95.559
G1 F1500 X117.941 Y87.96 E81.53606
G0 F9000 X117.375 Y87.96
G1 F1500 X125.54 Y96.125 E81.92012
G0 F9000 X125.54 Y96.69
G1 F1500 X116.81 Y87.96 E82.33075
G0 F9000 X116.244 Y87.96
G1 F1500 X125.54 Y97.256 E82.76801
G0 F9000 X125.54 Y97.822
G1 F1500 X115.678 Y87.96 E83.23189
G0 F9000 X115.113 Y87.96
G1 F1500 X125.54 Y98.388 E83.72236
G0 F9000 X125.54 Y98.953
G1 F1500 X114.547 Y87.96 E84.23944
G0 F9000 X113.981 Y87.96
G1 F1500 X125.54 Y99.519 E84.78314
G0 F9000 X125.54 Y100.085
G1 F1500 X113.416 Y87.96 E85.35344
G0 F9000 X112.85 Y87.96
G1 F1500 X125.54 Y100.65 E85.95034
G0 F9000 X125.54 Y101.216
G1 F1500 X112.284 Y87.96 E86.57386
G0 F9000 X111.719 Y87.96
G1 F1500 X125.54 Y101.782 E87.22398
G0 F9000 X125.54 Y102.347
G1 F1500 X111.153 Y87.96 E87.9007
G0 F9000 X110.587 Y87.96
G1 F1500 X125.54 Y102.913 E88.60404
G0 F9000 X125.54 Y103.479
G1 F1500 X110.022 Y87.96 E89.33399
G0 F9000 X109.46 Y87.964
G1 F1500 X125.535 Y104.039 E90.09011
G0 F9000 X124.97 Y104.039
G1 F1500 X109.46 Y88.53 E90.81962
G0 F9000 X109.46 Y89.095
G1 F1500 X124.404 Y104.039 E91.52254
G0 F9000 X123.838 Y104.039
G1 F1500 X109.46 Y89.661 E92.19884
G0 F9000 X109.46 Y90.227
G1 F1500 X123.273 Y104.039 E92.84854
G0 F9000 X122.707 Y104.039
G1 F1500 X109.46 Y90.793 E93.47161
G0 F9000 X109.46 Y91.358
G1 F1500 X122.141 Y104.039 E94.06809
G0 F9000 X121.576 Y104.039
G1 F1500 X109.46 Y91.924 E94.63797
G0 F9000 X109.46 Y92.49
G1 F1500 X121.01 Y104.039 E95.18122
G0 F9000 X120.444 Y104.039
G1 F1500 X109.46 Y93.055 E95.69787
G0 F9000 X109.46 Y93.621
G1 F1500 X119.879 Y104.039 E96.18793
G0 F9000 X119.313 Y104.039
G1 F1500 X109.46 Y94.187 E96.65136
G0 F9000 X109.46 Y94.752
G1 F1500 X118.747 Y104.039 E97.08819
G0 F9000 X118.182 Y104.039
G1 F1500 X109.46 Y95.318 E97.49842
G0 F9000 X109.46 Y95.884
G1 F1500 X117.616 Y104.039 E97.88203
G0 F9000 X117.05 Y104.039
G1 F1500 X109.46 Y96.449 E98.23904
G0 F9000 X109.46 Y97.015
G1 F1500 X116.485 Y104.039 E98.56945
G0 F9000 X115.919 Y104.039
G1 F1500 X109.46 Y97.581 E98.87324
G0 F9000 X109.46 Y98.146
G1 F1500 X115.353 Y104.039 E99.15043
G0 F9000 X114.787 Y104.039
G1 F1500 X109.46 Y98.712 E99.401
G0 F9000 X109.46 Y99.278
G1 F1500 X114.222 Y104.039 E99.62496
G0 F9000 X113.656 Y104.039
G1 F1500 X109.46 Y99.843 E99.82233
G0 F9000 X109.46 Y100.409
G1 F1500 X113.09 Y104.039 E99.99307
G0 F9000 X112.525 Y104.039
G1 F1500 X109.46 Y100.975 E100.13722
G0 F9000 X109.46 Y101.541
G1 F1500 X111.959 Y104.039 E100.25474
G0 F9000 X111.393 Y104.039
G1 F1500 X109.46 Y102.106 E100.34566
G0 F9000 X109.46 Y102.672
G1 F1500 X110.828 Y104.039 E100.40999
G0 F9000 X110.262 Y104.039
G1 F1500 X109.46 Y103.238 E100.44769
G0 F9000 X109.46 Y103.803
G1 F1500 X109.696 Y104.039 E100.45879
G0 F9000 X109.696 Y104.8
;MESH:NONMESH
G0 F300 X109.696 Y104.8 Z0.8
G0 F9000 X126.1 Y104.6
;TIME_ELAPSED:157.661931
;LAYER:3
M106 S255
;TYPE:WALL-INNER
;MESH:CHEPCalibrationCube.stl
G1 F1500 X126.1 Y87.4 E101.03086
G1 X108.9 Y87.4 E101.60293
G1 X108.9 Y104.6 E102.17501
G1 X126.1 Y104.6 E102.74708
G0 F9000 X126.5 Y105
G1 F1500 X126.5 Y87 E103.34577
G1 X108.5 Y87 E103.94445
G1 X108.5 Y105 E104.54313
G1 X126.5 Y105 E105.14181
G0 F9000 X126.9 Y105.4
G1 F1500 X126.9 Y86.6 E105.7671
G1 X108.1 Y86.6 E106.39239
G1 X108.1 Y105.4 E107.01768
G1 X126.9 Y105.4 E107.64298
G0 F9000 X127.3 Y105.8
;TYPE:WALL-OUTER
G1 F1500 X127.3 Y86.2 E108.29487
G1 X107.7 Y86.2 E108.94677
G1 X107.7 Y105.8 E109.59867
G1 X127.3 Y105.8 E110.25057
G0 F9000 X127.03 Y105.53
G0 X126 Y104.24
G0 X125.74 Y104.24
;TYPE:SKIN
G1 F1500 X109.26 Y104.24 E110.7987
G1 X109.26 Y87.76 E111.34682
G1 X125.74 Y87.76 E111.89495
G1 X125.74 Y104.24 E112.44308
G0 F9000 X125.54 Y103.563
G1 F1500 X125.062 Y104.04 E112.46554
G0 F9000 X124.497 Y104.04
G1 F1500 X125.54 Y102.997 E112.5146
G0 F9000 X125.54 Y102.431
G1 F1500 X123.931 Y104.04 E112.59028
G0 F9000 X123.365 Y104.04
G1 F1500 X125.54 Y101.866 E112.69256
G0 F9000 X125.54 Y101.3
G1 F1500 X122.8 Y104.04 E112.82144
G0 F9000 X122.234 Y104.04
G1 F1500 X125.54 Y100.734 E112.97695
G0 F9000 X125.54 Y100.169
G1 F1500 X121.668 Y104.04 E113.15905
G0 F9000 X121.103 Y104.04
G1 F1500 X125.54 Y99.603 E113.36775
G0 F9000 X125.54 Y99.037
G1 F1500 X120.537 Y104.04 E113.60308
G0 F9000 X119.971 Y104.04
G1 F1500 X125.54 Y98.472 E113.865
G0 F9000 X125.54 Y97.906
G1 F1500 X119.406 Y104.04 E114.15353
G0 F9000 X118.84 Y104.04
G1 F1500 X125.54 Y97.34 E114.46868
G0 F9000 X125.54 Y96.775
G1 F1500 X118.274 Y104.04 E114.81042
G0 F9000 X117.709 Y104.04
G1 F1500 X125.54 Y96.209 E115.17877
G0 F9000 X125.54 Y95.643
G1 F1500 X117.143 Y104.04 E115.57374
G0 F9000 X116.577 Y104.04
G1 F1500 X125.54 Y95.078 E115.99531
G0 F9000 X125.54 Y94.512
G1 F1500 X116.011 Y104.04 E116.4435
G0 F9000 X115.446 Y104.04
G1 F1500 X125.54 Y93.946 E116.91829
G0 F9000 X125.54 Y93.381
