;FLAVOR:Marlin
;TIME:173
;Filament used: 0.105619m
;Layer height: 0.2
;MINX:95.6
;MINY:95.6
;MINZ:0.2
;MAXX:139.4
;MAXY:137.6
;MAXZ:1.8
;TARGET_MACHINE.NAME:Creality Ender-3
;Generated with Cura_SteamEngine 5.7.1
M140 S50
M105
M190 S50
M104 S200
M105
M109 S200
M82 ;absolute extrusion mode
; Ender 3 Custom Start G-code
G92 E0 ; Reset Extruder
G28 ; Home all axes
G1 Z2.0 F3000 ; Move Z Axis up little to prevent scratching of Heat Bed
G1 X0.1 Y20 Z0.3 F5000.0 ; Move to start position
G1 X0.1 Y200.0 Z0.3 F1500.0 E15 ; Draw the first line
G1 X0.4 Y200.0 Z0.3 F5000.0 ; Move to side a little
G1 X0.4 Y20 Z0.3 F1500.0 E30 ; Draw the second line
G92 E0 ; Reset Extruder
G1 Z2.0 F3000 ; Move Z Axis up little to prevent scratching of Heat Bed
G1 X5 Y20 Z0.3 F5000.0 ; Move over to prevent blob squish
G92 E0
G92 E0
G1 F2700 E-5
;LAYER_COUNT:9
;LAYER:0
M107
G0 F6000 X99.056 Y98.613 Z0.2
;TYPE:SKIRT
G1 F2700 E0
G1 F1200 X99.792 Y97.976 E0.03237
G1 X100.524 Y97.446 E0.06243
G1 X101.421 Y96.911 E0.09717
G1 X102.299 Y96.49 E0.12956
G1 X103.212 Y96.148 E0.16198
G1 X104.149 Y95.889 E0.19432
G1 X105.116 Y95.711 E0.22702
G1 X106.255 Y95.615 E0.26504
G1 X106.93 Y95.6 E0.28749
G1 X107.854 Y95.601 E0.31823
G1 X108.961 Y95.618 E0.35505
G1 X111.141 Y95.68 E0.42759
G1 X113.654 Y95.68 E0.51117
G1 X116.638 Y95.604 E0.61045
G1 X117.854 Y95.601 E0.65089
G1 X118.961 Y95.618 E0.68772
G1 X121.141 Y95.68 E0.76025
G1 X123.654 Y95.68 E0.84384
G1 X127.016 Y95.6 E0.95569
G1 X128.502 Y95.612 E1.00511
G1 X129.475 Y95.664 E1.03752
G1 X130.44 Y95.802 E1.06995
G1 X131.353 Y96.017 E1.10114
G1 X132.311 Y96.332 E1.13468
G1 X133.141 Y96.688 E1.16472
G1 X134.061 Y97.184 E1.19948
G1 X134.844 Y97.702 E1.23071
G1 X135.634 Y98.332 E1.26432
G1 X136.336 Y99.004 E1.29664
G1 X136.979 Y99.737 E1.32907
G1 X137.553 Y100.524 E1.36147
G1 X138.055 Y101.358 E1.39385
G1 X138.481 Y102.234 E1.42624
G1 X138.828 Y103.142 E1.45857
G1 X139.096 Y104.079 E1.49099
G1 X139.267 Y104.966 E1.52103
G1 X139.387 Y106.306 E1.56578
G1 X139.4 Y106.93 E1.58654
G1 X139.399 Y126 E2.22081
G1 X139.388 Y126.763 E2.24619
G1 X139.331 Y127.736 E2.27861
G1 X139.186 Y128.699 E2.311
G1 X138.957 Y129.645 E2.34337
G1 X138.646 Y130.569 E2.3758
G1 X138.254 Y131.46 E2.40817
G1 X137.786 Y132.312 E2.44051
G1 X137.264 Y133.093 E2.47175
G1 X136.631 Y133.878 E2.50529
G1 X136.006 Y134.529 E2.53531
G1 X135.217 Y135.217 E2.57012
G1 X134.457 Y135.767 E2.60133
G1 X133.59 Y136.284 E2.6349
G1 X132.712 Y136.706 E2.6673
G1 X131.801 Y137.048 E2.69967
G1 X130.862 Y137.309 E2.73208
G1 X129.896 Y137.487 E2.76475
G1 X128.745 Y137.585 E2.80317
G1 X128.07 Y137.6 E2.82563
G1 X127.145 Y137.599 E2.85639
G1 X126.04 Y137.582 E2.89315
G1 X123.859 Y137.52 E2.96572
G1 X121.346 Y137.52 E3.0493
G1 X118.362 Y137.596 E3.14858
G1 X117.145 Y137.599 E3.18906
G1 X116.04 Y137.582 E3.22582
G1 X113.859 Y137.52 E3.29839
G1 X111.346 Y137.52 E3.38197
G1 X107.992 Y137.6 E3.49356
G1 X106.505 Y137.589 E3.54302
G1 X105.533 Y137.537 E3.57539
G1 X104.568 Y137.399 E3.60781
G1 X103.621 Y137.176 E3.64017
G1 X102.696 Y136.87 E3.67258
G1 X101.801 Y136.484 E3.705
G1 X100.946 Y136.02 E3.73735
G1 X100.133 Y135.482 E3.76978
G1 X99.373 Y134.875 E3.80213
G1 X98.667 Y134.202 E3.83457
G1 X98.048 Y133.497 E3.86577
G1 X97.451 Y132.684 E3.89932
G1 X96.948 Y131.85 E3.93171
G1 X96.521 Y130.974 E3.96413
G1 X96.174 Y130.065 E3.99649
G1 X95.906 Y129.129 E4.02887
G1 X95.734 Y128.242 E4.05892
G1 X95.613 Y126.884 E4.10427
G1 X95.6 Y126.258 E4.12509
G1 X95.601 Y107.125 E4.76146
G1 X95.612 Y106.425 E4.78474
G1 X95.67 Y105.452 E4.81716
G1 X95.816 Y104.489 E4.84956
G1 X96.046 Y103.543 E4.88194
G1 X96.359 Y102.62 E4.91436
G1 X96.751 Y101.73 E4.9467
G1 X97.221 Y100.877 E4.97909
G1 X97.764 Y100.069 E5.01147
G1 X98.331 Y99.365 E5.04154
G1 X99.056 Y98.613 E5.07628
G0 F6000 X99.318 Y98.915
G1 F1200 X100.027 Y98.3 E5.1075
G1 X100.759 Y97.77 E5.13756
G1 X101.595 Y97.271 E5.16994
G1 X102.44 Y96.864 E5.20113
G1 X103.319 Y96.533 E5.23237
G1 X104.222 Y96.282 E5.26354
G1 X105.15 Y96.11 E5.29494
G1 X106.289 Y96.014 E5.33295
G1 X106.93 Y96 E5.35428
G1 X107.848 Y96.001 E5.38481
G1 X108.95 Y96.018 E5.42147
G1 X111.13 Y96.08 E5.494
G1 X113.664 Y96.08 E5.57829
G1 X116.639 Y96.004 E5.67727
G1 X117.848 Y96.001 E5.71748
G1 X118.95 Y96.018 E5.75414
G1 X121.13 Y96.08 E5.82667
G1 X123.664 Y96.08 E5.91095
G1 X127.013 Y96 E6.02237
G1 X128.481 Y96.011 E6.0712
G1 X129.419 Y96.06 E6.10244
G1 X130.349 Y96.192 E6.13368
G1 X131.228 Y96.397 E6.1637
G1 X132.153 Y96.7 E6.19608
G1 X132.983 Y97.056 E6.22612
G1 X133.84 Y97.518 E6.2585
G1 X134.623 Y98.036 E6.28972
G1 X135.358 Y98.621 E6.32097
G1 X136.036 Y99.268 E6.35214
G1 X136.656 Y99.973 E6.38336
G1 X137.211 Y100.731 E6.41461
G1 X137.696 Y101.534 E6.44581
G1 X138.108 Y102.377 E6.47702
G1 X138.444 Y103.252 E6.50819
G1 X138.703 Y104.155 E6.53944
G1 X138.874 Y105.042 E6.56948
G1 X138.987 Y106.314 E6.61196
G1 X139 Y106.93 E6.63245
G1 X138.999 Y125.995 E7.26655
G1 X138.989 Y126.74 E7.29134
G1 X138.935 Y127.677 E7.32255
G1 X138.797 Y128.606 E7.35379
G1 X138.578 Y129.518 E7.38499
G1 X138.28 Y130.408 E7.4162
G1 X137.903 Y131.268 E7.44743
G1 X137.453 Y132.09 E7.4786
G1 X136.931 Y132.871 E7.50985
G1 X136.342 Y133.601 E7.54104
G1 X135.717 Y134.252 E7.57106
G1 X134.982 Y134.893 E7.6035
G1 X134.222 Y135.443 E7.6347
G1 X133.416 Y135.924 E7.66592
G1 X132.571 Y136.332 E7.69713
G1 X131.693 Y136.663 E7.72834
G1 X130.789 Y136.916 E7.75956
G1 X129.862 Y137.088 E7.79092
G1 X128.711 Y137.186 E7.82934
G1 X128.07 Y137.2 E7.85066
G1 X127.151 Y137.199 E7.88123
G1 X126.051 Y137.182 E7.91782
G1 X123.87 Y137.12 E7.99039
G1 X121.336 Y137.12 E8.07467
G1 X118.361 Y137.196 E8.17365
G1 X117.151 Y137.199 E8.2139
G1 X116.051 Y137.182 E8.25049
G1 X113.87 Y137.12 E8.32306
G1 X111.336 Y137.12 E8.40734
G1 X107.995 Y137.2 E8.51849
G1 X106.526 Y137.19 E8.56735
G1 X105.589 Y137.141 E8.59856
G1 X104.659 Y137.01 E8.6298
G1 X103.746 Y136.796 E8.66099
G1 X102.854 Y136.503 E8.69221
G1 X101.991 Y136.132 E8.72346
G1 X101.166 Y135.686 E8.75465
G1 X100.382 Y135.169 E8.78588
G1 X99.649 Y134.585 E8.81706
G1 X98.968 Y133.938 E8.8483
G1 X98.349 Y133.233 E8.8795
G1 X97.793 Y132.477 E8.91072
G1 X97.307 Y131.674 E8.94193
G1 X96.894 Y130.831 E8.97316
G1 X96.558 Y129.955 E9.00436
G1 X96.299 Y129.053 E9.03557
G1 X96.127 Y128.166 E9.06563
G1 X96.013 Y126.876 E9.1087
G1 X96 Y126.258 E9.12926
G1 X96.001 Y107.131 E9.76542
G1 X96.011 Y106.448 E9.78814
G1 X96.066 Y105.511 E9.81936
G1 X96.205 Y104.583 E9.85057
G1 X96.425 Y103.671 E9.88178
G1 X96.725 Y102.781 E9.91301
G1 X97.102 Y101.922 E9.94421
G1 X97.553 Y101.1 E9.9754
G1 X98.076 Y100.32 E10.00663
G1 X98.643 Y99.616 E10.0367
G1 X99.318 Y98.915 E10.06907
G0 F6000 X99.581 Y99.217
G1 F1200 X100.262 Y98.624 E10.0991
G1 X100.994 Y98.094 E10.12916
G1 X101.769 Y97.631 E10.15918
G1 X102.582 Y97.238 E10.18922
G1 X103.427 Y96.918 E10.21927
G1 X104.296 Y96.675 E10.24928
G1 X105.184 Y96.509 E10.27933
G1 X106.323 Y96.413 E10.31735
G1 X106.93 Y96.4 E10.33754
G1 X107.842 Y96.401 E10.36787
G1 X108.939 Y96.418 E10.40436
G1 X111.119 Y96.48 E10.4769
G1 X113.674 Y96.48 E10.56188
G1 X116.64 Y96.404 E10.66056
G1 X117.842 Y96.401 E10.70054
G1 X118.939 Y96.418 E10.73703
G1 X121.119 Y96.48 E10.80957
G1 X123.674 Y96.48 E10.89455
G1 X127.01 Y96.4 E11.00554
G1 X128.461 Y96.41 E11.0538
G1 X129.363 Y96.456 E11.08384
G1 X130.258 Y96.582 E11.1139
G1 X131.137 Y96.787 E11.14392
G1 X131.995 Y97.068 E11.17395
G1 X132.825 Y97.424 E11.20399
G1 X133.62 Y97.852 E11.23402
G1 X134.374 Y98.349 E11.26405
G1 X135.082 Y98.911 E11.29412
G1 X135.736 Y99.533 E11.32414
G1 X136.334 Y100.21 E11.35418
G1 X136.869 Y100.938 E11.38423
G1 X137.337 Y101.71 E11.41425
G1 X137.735 Y102.521 E11.4443
G1 X138.06 Y103.363 E11.47432
G1 X138.31 Y104.231 E11.50436
G1 X138.481 Y105.118 E11.53441
G1 X138.587 Y106.323 E11.57464
G1 X138.6 Y106.93 E11.59484
G1 X138.599 Y125.99 E12.22877
G1 X138.59 Y126.717 E12.25296
G1 X138.539 Y127.619 E12.283
G1 X138.408 Y128.513 E12.31306
G1 X138.199 Y129.391 E12.34307
G1 X137.913 Y130.248 E12.37312
G1 X137.552 Y131.076 E12.40317
G1 X137.12 Y131.868 E12.43317
G1 X136.619 Y132.62 E12.46323
G1 X136.053 Y133.324 E12.49327
G1 X135.428 Y133.975 E12.52329
G1 X134.747 Y134.569 E12.55334
G1 X134.016 Y135.1 E12.58339
G1 X133.242 Y135.564 E12.61341
G1 X132.429 Y135.958 E12.64346
G1 X131.585 Y136.278 E12.67348
G1 X130.715 Y136.523 E12.70354
G1 X129.828 Y136.689 E12.73355
G1 X128.677 Y136.787 E12.77197
G1 X128.07 Y136.8 E12.79217
G1 X127.157 Y136.799 E12.82253
G1 X126.062 Y136.782 E12.85896
G1 X123.881 Y136.72 E12.93153
G1 X121.326 Y136.72 E13.01651
G1 X118.36 Y136.796 E13.11519
G1 X117.157 Y136.799 E13.1552
G1 X116.062 Y136.782 E13.19163
G1 X113.881 Y136.72 E13.2642
G1 X111.326 Y136.72 E13.34918
G1 X107.997 Y136.8 E13.45993
G1 X106.546 Y136.791 E13.50819
G1 X105.644 Y136.745 E13.53823
G1 X104.749 Y136.62 E13.56829
G1 X103.87 Y136.416 E13.5983
G1 X103.011 Y136.135 E13.62836
G1 X102.181 Y135.78 E13.65839
G1 X101.386 Y135.352 E13.68842
G1 X100.631 Y134.856 E13.71846
G1 X99.924 Y134.295 E13.74848
G1 X99.268 Y133.673 E13.77855
G1 X98.671 Y132.996 E13.80857
G1 X98.135 Y132.269 E13.83861
G1 X97.666 Y131.497 E13.86866
G1 X97.267 Y130.687 E13.89869
G1 X96.942 Y129.844 E13.92874
G1 X96.692 Y128.977 E13.95875
G1 X96.52 Y128.09 E13.9888
G1 X96.413 Y126.867 E14.02963
G1 X96.4 Y126.258 E14.04989
G1 X96.401 Y107.136 E14.68589
G1 X96.41 Y106.471 E14.70801
G1 X96.462 Y105.569 E14.73806
G1 X96.594 Y104.676 E14.76809
G1 X96.804 Y103.798 E14.79811
G1 X97.091 Y102.941 E14.82817
G1 X97.453 Y102.114 E14.8582
G1 X97.886 Y101.322 E14.88822
G1 X98.388 Y100.571 E14.91827
G1 X98.955 Y99.867 E14.94833
G1 X99.581 Y99.217 E14.97835
G1 F2700 E9.97835
;MESH:Test_piece.STL
G0 F6000 X107.014 Y105.935
G0 X107.014 Y107.014
G0 X107.53 Y125.73
G0 X107.75 Y125.95
;TYPE:WALL-INNER
G1 F2700 E14.97835
G1 F960 X107.75 Y107.25 E15.7558
G1 X107.25 Y107.25 E15.77659
G1 X107.25 Y125.95 E16.55404
G1 X107.75 Y125.95 E16.57483
G0 F6000 X108.2 Y126.4
;TYPE:WALL-OUTER
G1 F1200 X108.2 Y106.8 E17.22673
G1 X106.8 Y106.8 E17.27329
G1 X106.8 Y126.4 E17.92519
G1 X108.2 Y126.4 E17.97176
G1 F2700 E12.97176
G0 F6000 X107.93 Y126.13
G0 X107.98 Y125.73
G0 X109.065 Y125.73
G0 X115.935 Y125.73
G0 X117.02 Y125.73
G0 X117.53 Y125.73
G0 X117.75 Y125.95
;TYPE:WALL-INNER
G1 F2700 E17.97176
G1 F960 X117.75 Y107.25 E18.74921
G1 X117.25 Y107.25 E18.77
G1 X117.25 Y125.95 E19.54746
G1 X117.75 Y125.95 E19.56824
G0 F6000 X118.2 Y126.4
;TYPE:WALL-OUTER
G1 F1200 X118.2 Y106.8 E20.22014
G1 X116.8 Y106.8 E20.26671
G1 X116.8 Y126.4 E20.91861
G1 X118.2 Y126.4 E20.96517
G1 F2700 E15.96517
G0 F6000 X117.93 Y126.13
G0 X117.98 Y125.73
G0 X119.065 Y125.73
G0 X125.935 Y125.73
G0 X127.02 Y125.73
G0 X127.47 Y125.73
G0 X127.25 Y125.95
;TYPE:WALL-INNER
G1 F2700 E20.96517
G1 F960 X127.75 Y125.95 E20.98596
G1 X127.75 Y107.25 E21.76341
G1 X127.25 Y107.25 E21.7842
G1 X127.25 Y125.95 E22.56166
G0 F6000 X126.8 Y126.4
;TYPE:WALL-OUTER
G1 F1200 X128.2 Y126.4 E22.60822
G1 X128.2 Y106.8 E23.26012
G1 X126.8 Y106.8 E23.30668
G1 X126.8 Y126.4 E23.95858
G1 F2700 E18.95858
;MESH:NONMESH
G0 F300 X126.8 Y126.4 Z0.4
G0 F6000 X127.07 Y126.13
G0 X127.014 Y107.014
G0 X125.935 Y107.014
G0 X99.581 Y99.217
;TIME_ELAPSED:44.570152
;LAYER:1
M106 S85
;TYPE:SKIRT
G1 F2700 E23.95858
G1 F1200 X100.262 Y98.624 E23.98862
G1 X100.994 Y98.094 E24.01867
G1 X101.769 Y97.631 E24.0487
G1 X102.582 Y97.238 E24.07873
G1 X103.427 Y96.918 E24.10879
G1 X104.296 Y96.675 E24.1388
G1 X105.184 Y96.509 E24.16885
G1 X106.323 Y96.413 E24.20686
G1 X106.93 Y96.4 E24.22706
G1 X107.842 Y96.401 E24.25739
G1 X108.939 Y96.418 E24.29388
G1 X111.119 Y96.48 E24.36642
G1 X113.674 Y96.48 E24.4514
G1 X116.64 Y96.404 E24.55008
G1 X117.842 Y96.401 E24.59006
G1 X118.939 Y96.418 E24.62655
G1 X121.119 Y96.48 E24.69908
G1 X123.674 Y96.48 E24.78406
G1 X127.01 Y96.4 E24.89505
G1 X128.461 Y96.41 E24.94331
G1 X129.363 Y96.456 E24.97335
G1 X130.258 Y96.582 E25.00341
G1 X131.137 Y96.787 E25.03343
G1 X131.995 Y97.068 E25.06346
G1 X132.825 Y97.424 E25.0935
G1 X133.62 Y97.852 E25.12353
G1 X134.374 Y98.349 E25.15357
G1 X135.082 Y98.911 E25.18363
G1 X135.736 Y99.533 E25.21365
G1 X136.334 Y100.21 E25.2437
G1 X136.869 Y100.938 E25.27374
G1 X137.337 Y101.71 E25.30377
G1 X137.735 Y102.521 E25.33382
G1 X138.06 Y103.363 E25.36384
G1 X138.31 Y104.231 E25.39388
G1 X138.481 Y105.118 E25.42392
G1 X138.587 Y106.323 E25.46416
G1 X138.6 Y106.93 E25.48435
G1 X138.599 Y125.99 E26.11829
G1 X138.59 Y126.717 E26.14247
G1 X138.539 Y127.619 E26.17252
G1 X138.408 Y128.513 E26.20257
G1 X138.199 Y129.391 E26.23259
G1 X137.913 Y130.248 E26.26264
G1 X137.552 Y131.076 E26.29268
G1 X137.12 Y131.868 E26.32269
G1 X136.619 Y132.62 E26.35274
G1 X136.053 Y133.324 E26.38279
G1 X135.428 Y133.975 E26.4128
G1 X134.747 Y134.569 E26.44286
G1 X134.016 Y135.1 E26.47291
G1 X133.242 Y135.564 E26.50292
G1 X132.429 Y135.958 E26.53297
G1 X131.585 Y136.278 E26.56299
G1 X130.715 Y136.523 E26.59306
G1 X129.828 Y136.689 E26.62307
G1 X128.677 Y136.787 E26.66149
G1 X128.07 Y136.8 E26.68168
G1 X127.157 Y136.799 E26.71205
G1 X126.062 Y136.782 E26.74848
G1 X123.881 Y136.72 E26.82104
G1 X121.326 Y136.72 E26.90602
G1 X118.36 Y136.796 E27.00471
G1 X117.157 Y136.799 E27.04472
G1 X116.062 Y136.782 E27.08114
G1 X113.881 Y136.72 E27.15371
G1 X111.326 Y136.72 E27.23869
G1 X107.997 Y136.8 E27.34945
G1 X106.546 Y136.791 E27.39771
G1 X105.644 Y136.745 E27.42775
G1 X104.749 Y136.62 E27.4578
G1 X103.87 Y136.416 E27.48782
G1 X103.011 Y136.135 E27.51788
G1 X102.181 Y135.78 E27.5479
G1 X101.386 Y135.352 E27.57793
G1 X100.631 Y134.856 E27.60798
G1 X99.924 Y134.295 E27.638
G1 X99.268 Y133.673 E27.66806
G1 X98.671 Y132.996 E27.69809
G1 X98.135 Y132.269 E27.72813
G1 X97.666 Y131.497 E27.75817
G1 X97.267 Y130.687 E27.7882
G1 X96.942 Y129.844 E27.81825
G1 X96.692 Y128.977 E27.84826
G1 X96.52 Y128.09 E27.87832
G1 X96.413 Y126.867 E27.91915
G1 X96.4 Y126.258 E27.93941
G1 X96.401 Y107.136 E28.57541
G1 X96.41 Y106.471 E28.59753
G1 X96.462 Y105.569 E28.62758
G1 X96.594 Y104.676 E28.6576
G1 X96.804 Y103.798 E28.68763
G1 X97.091 Y102.941 E28.71769
G1 X97.453 Y102.114 E28.74771
G1 X97.886 Y101.322 E28.77774
G1 X98.388 Y100.571 E28.80778
G1 X98.955 Y99.867 E28.83785
G1 X99.581 Y99.217 E28.86786
G1 F2700 E23.86786
;MESH:Test_piece.STL
G0 F7500 X107.014 Y105.935
G0 X107.014 Y107.014
G0 X107.53 Y125.73
G0 X107.75 Y125.95
;TYPE:WALL-INNER
G1 F2700 E28.86786
G1 F1080 X107.75 Y107.25 E29.64532
G1 X107.25 Y107.25 E29.6661
G1 X107.25 Y125.95 E30.44356
G1 X107.75 Y125.95 E30.46435
G0 F7500 X108.2 Y126.4
;TYPE:WALL-OUTER
G1 F1350 X108.2 Y106.8 E31.11625
G1 X106.8 Y106.8 E31.16281
G1 X106.8 Y126.4 E31.81471
G1 X108.2 Y126.4 E31.86127
G1 F2700 E26.86127
G0 F7500 X107.93 Y126.13
G0 X107.98 Y125.73
G0 X109.065 Y125.73
G0 X115.935 Y125.73
G0 X117.02 Y125.73
G0 X117.53 Y125.73
G0 X117.75 Y125.95
;TYPE:WALL-INNER
G1 F2700 E31.86127
G1 F1080 X117.75 Y107.25 E32.63873
G1 X117.25 Y107.25 E32.65952
G1 X117.25 Y125.95 E33.43697
G1 X117.75 Y125.95 E33.45776
G0 F7500 X118.2 Y126.4
;TYPE:WALL-OUTER
G1 F1350 X118.2 Y106.8 E34.10966
G1 X116.8 Y106.8 E34.15622
G1 X116.8 Y126.4 E34.80812
G1 X118.2 Y126.4 E34.85469
G1 F2700 E29.85469
G0 F7500 X117.93 Y126.13
G0 X117.98 Y125.73
G0 X119.065 Y125.73
G0 X125.935 Y125.73
G0 X127.02 Y125.73
G0 X127.47 Y125.73
G0 X127.25 Y125.95
;TYPE:WALL-INNER
G1 F2700 E34.85469
G1 F1080 X127.75 Y125.95 E34.87547
G1 X127.75 Y107.25 E35.65293
G1 X127.25 Y107.25 E35.67372
G1 X127.25 Y125.95 E36.45117
G0 F7500 X126.8 Y126.4
;TYPE:WALL-OUTER
G1 F1350 X128.2 Y126.4 E36.49774
G1 X128.2 Y106.8 E37.14963
G1 X126.8 Y106.8 E37.1962
