;FLAVOR:Marlin
;TIME:484
;Filament used: 0.352812m
;Layer height: 0.2
;MINX:107.697
;MINY:108.672
;MINZ:0.2
;MAXX:127.299
;MAXY:126.578
;MAXZ:5
;TARGET_MACHINE.NAME:Creality Ender-3
;Generated with Cura_SteamEngine 5.7.1
M140 S50
M105
M190 S50
M104 S200
M105
M109 S200
M82 ;absolute extrusion mode
; Ender 3 Custom Start G-code
G92 E0 ; Reset Extruder
G28 ; Home all axes
G1 Z2.0 F3000 ; Move Z Axis up little to prevent scratching of Heat Bed
G1 X0.1 Y20 Z0.3 F5000.0 ; Move to start position
G1 X0.1 Y200.0 Z0.3 F1500.0 E15 ; Draw the first line
G1 X0.4 Y200.0 Z0.3 F5000.0 ; Move to side a little
G1 X0.4 Y20 Z0.3 F1500.0 E30 ; Draw the second line
G92 E0 ; Reset Extruder
G1 Z2.0 F3000 ; Move Z Axis up little to prevent scratching of Heat Bed
G1 X5 Y20 Z0.3 F5000.0 ; Move over to prevent blob squish
G92 E0
G92 E0
G1 F2700 E-5
;LAYER_COUNT:25
;LAYER:0
M107
;MESH:Heart.stl
G0 F6000 X121.718 Y125.366 Z0.2
;TYPE:WALL-INNER
G1 F2700 E0
G1 F1200 X123.784 Y125.046 E0.06953
G1 X124.966 Y124.332 E0.11546
G1 X125.648 Y123.373 E0.1546
G1 X126.001 Y122.223 E0.19461
G1 X126.096 Y121.109 E0.2318
G1 X126.046 Y120.241 E0.26072
G1 X125.974 Y119.765 E0.27673
G1 X125.785 Y118.674 E0.31356
G1 X125.205 Y117.462 E0.35825
G1 X124.189 Y116.074 E0.41546
G1 X122.779 Y114.581 E0.48376
G1 X121.006 Y112.975 E0.56333
G1 X118.924 Y111.278 E0.65266
G1 X117.498 Y110.184 E0.71244
G1 X116.036 Y111.303 E0.77368
G1 X113.974 Y112.986 E0.8622
G1 X112.217 Y114.581 E0.94113
G1 X110.806 Y116.074 E1.00945
G1 X109.791 Y117.462 E1.06664
G1 X109.213 Y118.671 E1.11122
G1 X108.949 Y120.241 E1.16417
G1 X108.9 Y121.105 E1.19295
G1 X108.995 Y122.224 E1.2303
G1 X109.348 Y123.376 E1.27038
G1 X110.029 Y124.331 E1.30939
G1 X111.212 Y125.046 E1.35536
G1 X113.278 Y125.366 E1.4249
G1 X113.914 Y125.284 E1.44623
G1 X114.546 Y125.049 E1.46865
G1 X115.115 Y124.706 E1.49075
G1 X115.62 Y124.287 E1.51258
G1 X115.966 Y123.903 E1.52977
G1 X116.394 Y123.265 E1.55532
G1 X116.659 Y122.981 E1.56824
G1 X117.09 Y122.785 E1.58399
G1 X117.499 Y122.723 E1.59775
G1 X117.702 Y122.738 E1.60452
G1 X118.075 Y122.846 E1.61743
G1 X118.429 Y123.076 E1.63147
G1 X118.6 Y123.257 E1.63975
G1 X119.032 Y123.905 E1.66566
G1 X119.376 Y124.287 E1.68276
G1 X119.881 Y124.707 E1.7046
G1 X120.45 Y125.049 E1.72668
G1 X121.082 Y125.284 E1.74911
G1 X121.718 Y125.366 E1.77044
G0 F6000 X121.723 Y125.77
G1 F1200 X123.923 Y125.429 E1.84448
G1 X125.244 Y124.631 E1.89581
G1 X126.011 Y123.552 E1.93985
G1 X126.396 Y122.3 E1.98341
G1 X126.497 Y121.114 E2.023
G1 X126.444 Y120.2 E2.05345
G1 X126.385 Y119.8 E2.0669
G1 X126.17 Y118.551 E2.10905
G1 X125.55 Y117.256 E2.15681
G1 X124.497 Y115.818 E2.21609
G1 X123.059 Y114.295 E2.28575
G1 X121.267 Y112.671 E2.36619
G1 X119.168 Y110.961 E2.45624
G1 X117.499 Y109.68 E2.52621
G1 X115.788 Y110.989 E2.59787
G1 X113.713 Y112.683 E2.68696
G1 X111.937 Y114.295 E2.76673
G1 X110.498 Y115.817 E2.8364
G1 X109.446 Y117.256 E2.89569
G1 X108.828 Y118.549 E2.94335
G1 X108.551 Y120.196 E2.9989
G1 X108.499 Y121.11 E3.02935
G1 X108.6 Y122.3 E3.06907
G1 X108.985 Y123.555 E3.11273
G1 X109.751 Y124.631 E3.15666
G1 X111.073 Y125.429 E3.20802
G1 X113.273 Y125.77 E3.28207
G1 X114.01 Y125.675 E3.30678
G1 X114.72 Y125.411 E3.33198
G1 X115.347 Y125.034 E3.35631
G1 X115.897 Y124.576 E3.38012
G1 X116.283 Y124.149 E3.39926
G1 X116.71 Y123.51 E3.42482
G1 X116.974 Y123.273 E3.43662
G1 X117.207 Y123.167 E3.44514
G1 X117.569 Y123.112 E3.45731
G1 X117.911 Y123.211 E3.46916
G1 X118.227 Y123.416 E3.48168
G1 X118.714 Y124.151 E3.51101
G1 X119.099 Y124.576 E3.53008
G1 X119.649 Y125.034 E3.55389
G1 X120.276 Y125.411 E3.57822
G1 X120.986 Y125.675 E3.60342
G1 X121.723 Y125.77 E3.62813
G0 F6000 X121.728 Y126.174
G1 F1200 X124.063 Y125.813 E3.70672
G1 X125.522 Y124.93 E3.76344
G1 X126.374 Y123.731 E3.81236
G1 X126.791 Y122.377 E3.85948
G1 X126.898 Y121.119 E3.90147
G1 X126.842 Y120.158 E3.93349
G1 X126.762 Y119.629 E3.95129
G1 X126.554 Y118.429 E3.99179
G1 X125.894 Y117.05 E4.04264
G1 X124.805 Y115.561 E4.104
G1 X123.339 Y114.009 E4.17501
G1 X121.528 Y112.368 E4.25629
G1 X119.447 Y110.671 E4.3456
G1 X117.499 Y109.176 E4.42727
G1 X115.54 Y110.675 E4.50932
G1 X113.452 Y112.379 E4.59895
G1 X111.657 Y114.009 E4.6796
G1 X110.19 Y115.561 E4.75063
G1 X109.102 Y117.05 E4.81196
G1 X108.442 Y118.427 E4.86275
G1 X108.153 Y120.151 E4.92089
G1 X108.098 Y121.115 E4.95301
G1 X108.205 Y122.377 E4.99513
G1 X108.622 Y123.735 E5.04238
G1 X109.473 Y124.93 E5.09118
G1 X110.933 Y125.813 E5.14793
G1 X113.268 Y126.174 E5.22651
G1 X114.107 Y126.065 E5.25465
G1 X114.894 Y125.773 E5.28257
G1 X115.579 Y125.361 E5.30916
G1 X116.175 Y124.865 E5.33495
G1 X116.6 Y124.395 E5.35602
G1 X117.026 Y123.755 E5.38159
G1 X117.184 Y123.613 E5.38866
G1 X117.499 Y123.523 E5.39956
G1 X117.747 Y123.576 E5.40799
G1 X117.946 Y123.713 E5.41603
G1 X118.397 Y124.396 E5.44325
G1 X118.821 Y124.866 E5.4643
G1 X119.417 Y125.361 E5.49007
G1 X120.102 Y125.773 E5.51666
G1 X120.889 Y126.065 E5.54458
G1 X121.728 Y126.174 E5.57272
G0 F6000 X121.733 Y126.578
;TYPE:WALL-OUTER
G1 F1200 X124.202 Y126.196 E5.65581
G1 X125.8 Y125.23 E5.71792
G1 X126.738 Y123.91 E5.77178
G1 X127.186 Y122.453 E5.82248
G1 X127.299 Y121.125 E5.86681
G1 X127.24 Y120.117 E5.90039
G1 X127.166 Y119.62 E5.9171
G1 X126.939 Y118.306 E5.96145
G1 X126.239 Y116.844 E6.01537
G1 X125.113 Y115.305 E6.07879
G1 X123.619 Y113.723 E6.15116
G1 X121.789 Y112.064 E6.23332
G1 X119.695 Y110.357 E6.32317
G1 X117.499 Y108.672 E6.41524
G1 X115.292 Y110.361 E6.50767
G1 X113.191 Y112.076 E6.59787
G1 X111.377 Y113.723 E6.67937
G1 X109.882 Y115.305 E6.75176
G1 X108.757 Y116.844 E6.81517
G1 X108.057 Y118.305 E6.86905
G1 X107.755 Y120.107 E6.92982
G1 X107.697 Y121.121 E6.9636
G1 X107.81 Y122.453 E7.00806
G1 X108.258 Y123.914 E7.05889
G1 X109.195 Y125.23 E7.11262
G1 X110.794 Y126.196 E7.17476
G1 X113.263 Y126.578 E7.25785
G1 X114.203 Y126.456 E7.28938
G1 X115.068 Y126.135 E7.32007
G1 X115.811 Y125.688 E7.34891
G1 X116.453 Y125.155 E7.37666
G1 X116.917 Y124.641 E7.39969
G1 X117.359 Y123.981 E7.42611
G1 X117.499 Y123.923 E7.43115
G1 X117.633 Y123.961 E7.43578
G1 X118.079 Y124.641 E7.46283
G1 X118.543 Y125.155 E7.48586
G1 X119.185 Y125.688 E7.51361
G1 X119.928 Y126.135 E7.54245
G1 X120.793 Y126.456 E7.57314
G1 X121.733 Y126.578 E7.60467
G0 F6000 X121.722 Y125.874
G0 X121.679 Y125.259
G0 X121.713 Y124.998
;TYPE:SKIN
G1 F1200 X121.168 Y124.928 E7.62294
G1 X120.599 Y124.718 E7.64312
G1 X120.097 Y124.416 E7.6626
G1 X119.62 Y124.019 E7.68324
G1 X119.315 Y123.681 E7.69838
G1 X118.882 Y123.033 E7.72431
G1 X118.673 Y122.809 E7.73449
G1 X118.426 Y122.625 E7.74474
G1 X118.015 Y122.44 E7.75973
G1 X117.495 Y122.36 E7.77723
G1 X116.985 Y122.44 E7.7944
G1 X116.571 Y122.625 E7.80948
G1 X116.345 Y122.79 E7.81879
G1 X116.102 Y123.044 E7.83048
G1 X115.677 Y123.68 E7.85592
G1 X115.368 Y124.023 E7.87128
G1 X114.899 Y124.416 E7.89163
G1 X114.393 Y124.718 E7.91123
G1 X113.828 Y124.928 E7.93127
G1 X113.279 Y124.998 E7.94968
G1 X111.334 Y124.7 E8.01513
G1 X110.279 Y124.062 E8.05614
G1 X109.674 Y123.214 E8.09078
G1 X109.346 Y122.149 E8.12785
G1 X109.261 Y121.109 E8.16255
G1 X109.308 Y120.279 E8.1902
G1 X109.557 Y118.778 E8.24081
G1 X110.105 Y117.644 E8.2827
G1 X111.079 Y116.305 E8.33777
G1 X112.461 Y114.844 E8.40466
G1 X114.203 Y113.264 E8.48288
G1 X116.205 Y111.628 E8.56887
G1 X117.497 Y110.636 E8.62305
G1 X118.7 Y111.559 E8.67348
G1 X120.761 Y113.24 E8.76194
G1 X122.532 Y114.844 E8.84141
G1 X123.913 Y116.305 E8.90828
G1 X124.891 Y117.643 E8.9634
G1 X125.435 Y118.781 E9.00535
G1 X125.684 Y120.263 E9.05534
G1 X125.735 Y121.113 E9.08366
G1 X125.646 Y122.145 E9.11811
G1 X125.318 Y123.21 E9.15517
G1 X124.712 Y124.062 E9.18995
G1 X123.658 Y124.7 E9.23093
G1 X121.713 Y124.998 E9.29637
G0 F6000 X121.679 Y125.259
G0 X123.728 Y124.892
G0 X124.854 Y124.211
G0 X125.501 Y123.3
G0 X125.843 Y122.192
G0 X125.935 Y121.106
G0 X125.816 Y119.793
G0 X125.631 Y118.723
G0 X125.066 Y117.545
G0 X124.255 Y116.437
G0 X122.16 Y114.155
G0 X121.85 Y114.496
G1 F1200 X123.271 Y115.917 E9.36321
G0 F6000 X123.605 Y115.602
G0 X125.304 Y117.901
G0 X124.888 Y118.1
G1 F1200 X118.269 Y111.48 E9.67457
G0 F6000 X118.548 Y111.117
G0 X117.498 Y110.396
G0 X117.001 Y110.692
G0 X117.279 Y111.057
G1 F1200 X125.277 Y119.055 E10.05077
G0 F6000 X125.392 Y119.735
G1 F1200 X116.959 Y111.302 E10.44744
G0 F6000 X116.639 Y111.548
G1 F1200 X125.492 Y120.4 E10.86383
G0 F6000 X125.528 Y121.003
G1 F1200 X116.319 Y111.794 E11.29699
G0 F6000 X116.008 Y112.048
G1 F1200 X125.499 Y121.539 E11.74342
G0 F6000 X125.453 Y122.059
G1 F1200 X115.697 Y112.303 E12.20231
G0 F6000 X115.386 Y112.557
G1 F1200 X125.328 Y122.5 E12.66998
G0 F6000 X125.195 Y122.933
G1 F1200 X115.075 Y112.812 E13.14602
G0 F6000 X114.763 Y113.066
G1 F1200 X125.004 Y123.307 E13.62772
G0 F6000 X124.769 Y123.638
G1 F1200 X114.452 Y113.321 E14.113
G0 F6000 X114.15 Y113.584
G1 F1200 X124.513 Y123.947 E14.60044
G0 F6000 X124.161 Y124.161
G1 F1200 X113.853 Y113.853 E15.0853
G0 F6000 X113.556 Y114.122
G1 F1200 X123.808 Y124.374 E15.56752
G0 F6000 X123.404 Y124.536
G1 F1200 X113.259 Y114.391 E16.04471
G0 F6000 X112.962 Y114.659
G1 F1200 X122.914 Y124.611 E16.51283
G0 F6000 X122.424 Y124.686
G1 F1200 X112.666 Y114.929 E16.97179
G0 F6000 X112.385 Y115.214
G1 F1200 X121.933 Y124.761 E17.42087
G0 F6000 X121.355 Y124.749
G1 F1200 X112.11 Y115.504 E17.85573
G0 F6000 X111.835 Y115.795
G1 F1200 X118.466 Y122.426 E18.16763
G0 F6000 X117.654 Y122.18
G1 F1200 X111.56 Y116.086 E18.45427
G0 F6000 X111.285 Y116.376
G1 F1200 X117.124 Y122.215 E18.72892
G0 F6000 X116.693 Y122.35
G1 F1200 X111.04 Y116.697 E18.99482
G0 F6000 X110.802 Y117.024
G1 F1200 X116.33 Y122.552 E19.25484
G0 F6000 X116.036 Y122.824
G1 F1200 X110.564 Y117.352 E19.51223
G0 F6000 X110.326 Y117.68
G1 F1200 X115.793 Y123.147 E19.76938
G0 F6000 X115.567 Y123.486
G1 F1200 X110.13 Y118.05 E20.0251
G0 F6000 X109.946 Y118.431
G1 F1200 X115.307 Y123.792 E20.27726
G0 F6000 X115.01 Y124.061
G1 F1200 X109.762 Y118.813 E20.52411
G0 F6000 X109.674 Y119.291
G1 F1200 X114.69 Y124.307 E20.76005
G0 F6000 X114.336 Y124.519
G1 F1200 X109.594 Y119.776 E20.98312
G0 F6000 X109.513 Y120.261
G1 F1200 X113.929 Y124.677 E21.19084
G0 F6000 X113.46 Y124.773
G1 F1200 X109.479 Y120.792 E21.37809
G0 F6000 X109.482 Y121.361
G1 F1200 X112.851 Y124.73 E21.53656
G0 F6000 X112.182 Y124.628
G1 F1200 X109.533 Y121.978 E21.66118
G0 F6000 X109.742 Y122.752
G1 F1200 X111.514 Y124.524 E21.74453
G0 F6000 X111.443 Y124.98
G0 X113.281 Y125.203
G0 X113.874 Y125.126
G0 X114.476 Y124.904
G0 X116.643 Y123.891
G0 X116.896 Y123.123
G0 X118.106 Y123.125
G0 X118.837 Y123.432
G0 X119.219 Y123.179
G1 F1200 X120.412 Y124.372 E21.80065
G0 F6000 X120.019 Y125.022
;MESH:NONMESH
G0 F300 X120.019 Y125.022 Z0.4
G0 F6000 X121.718 Y125.366
;TIME_ELAPSED:41.432862
;LAYER:1
M106 S85
;TYPE:WALL-INNER
;MESH:Heart.stl
G1 F1350 X123.784 Y125.046 E21.87018
G1 X124.966 Y124.332 E21.91611
G1 X125.648 Y123.373 E21.95525
G1 X126.001 Y122.223 E21.99526
G1 X126.096 Y121.109 E22.03245
G1 X126.046 Y120.239 E22.06143
G1 X125.976 Y119.771 E22.07717
G1 X125.785 Y118.675 E22.11417
G1 X125.205 Y117.462 E22.15889
G1 X124.189 Y116.074 E22.2161
G1 X122.779 Y114.581 E22.28441
G1 X121.006 Y112.975 E22.36397
G1 X118.924 Y111.278 E22.45331
G1 X117.498 Y110.184 E22.51309
G1 X116.036 Y111.303 E22.57432
G1 X113.974 Y112.986 E22.66285
G1 X112.217 Y114.581 E22.74177
G1 X110.806 Y116.074 E22.8101
G1 X109.791 Y117.462 E22.86729
G1 X109.213 Y118.67 E22.91183
G1 X108.95 Y120.249 E22.96507
G1 X108.9 Y121.105 E22.99359
G1 X108.995 Y122.224 E23.03094
G1 X109.348 Y123.376 E23.07102
G1 X110.029 Y124.331 E23.11003
G1 X111.212 Y125.046 E23.156
G1 X113.278 Y125.366 E23.22554
G1 X113.914 Y125.284 E23.24687
G1 X114.546 Y125.049 E23.26929
G1 X115.115 Y124.706 E23.29139
G1 X115.62 Y124.287 E23.31322
G1 X115.966 Y123.903 E23.33041
G1 X116.393 Y123.266 E23.35592
G1 X116.659 Y122.981 E23.36888
G1 X117.09 Y122.785 E23.38463
G1 X117.499 Y122.723 E23.39839
G1 X117.702 Y122.738 E23.40516
G1 X118.075 Y122.846 E23.41807
G1 X118.429 Y123.076 E23.43211
G1 X118.608 Y123.258 E23.44061
G1 X119.032 Y123.905 E23.46633
G1 X119.376 Y124.287 E23.48343
G1 X119.881 Y124.707 E23.50528
G1 X120.45 Y125.049 E23.52736
G1 X121.082 Y125.284 E23.54978
G1 X121.718 Y125.366 E23.57111
G0 F7500 X121.723 Y125.77
G1 F1350 X123.923 Y125.429 E23.64516
G1 X125.244 Y124.631 E23.69649
G1 X126.011 Y123.552 E23.74052
G1 X126.396 Y122.3 E23.78409
G1 X126.497 Y121.114 E23.82368
G1 X126.444 Y120.198 E23.85419
G1 X126.38 Y119.762 E23.86885
G1 X126.17 Y118.552 E23.9097
G1 X125.55 Y117.256 E23.95748
G1 X124.497 Y115.818 E24.01676
G1 X123.059 Y114.295 E24.08643
G1 X121.267 Y112.671 E24.16686
G1 X119.168 Y110.961 E24.25691
G1 X117.499 Y109.68 E24.32689
G1 X115.788 Y110.989 E24.39854
G1 X113.713 Y112.683 E24.48763
G1 X111.937 Y114.295 E24.56741
G1 X110.498 Y115.817 E24.63707
G1 X109.446 Y117.256 E24.69636
G1 X108.828 Y118.549 E24.74403
G1 X108.552 Y120.204 E24.79983
G1 X108.499 Y121.11 E24.83002
G1 X108.6 Y122.3 E24.86974
G1 X108.985 Y123.555 E24.9134
G1 X109.751 Y124.631 E24.95733
G1 X111.073 Y125.429 E25.00869
G1 X113.273 Y125.77 E25.08274
G1 X114.01 Y125.675 E25.10745
G1 X114.72 Y125.411 E25.13265
G1 X115.347 Y125.034 E25.15698
G1 X115.897 Y124.576 E25.18078
G1 X116.283 Y124.149 E25.19993
G1 X116.753 Y123.446 E25.22806
G1 X116.974 Y123.273 E25.23739
G1 X117.207 Y123.167 E25.2459
G1 X117.569 Y123.112 E25.25808
G1 X117.911 Y123.211 E25.26992
G1 X118.237 Y123.422 E25.28284
G1 X118.714 Y124.151 E25.31182
G1 X119.099 Y124.576 E25.33089
G1 X119.649 Y125.034 E25.35469
G1 X120.276 Y125.411 E25.37903
G1 X120.986 Y125.675 E25.40422
G1 X121.723 Y125.77 E25.42894
G0 F7500 X121.728 Y126.174
G1 F1350 X124.063 Y125.813 E25.50752
G1 X125.522 Y124.93 E25.56424
G1 X126.374 Y123.731 E25.61317
G1 X126.791 Y122.377 E25.66029
G1 X126.898 Y121.119 E25.70228
G1 X126.842 Y120.157 E25.73433
G1 X126.775 Y119.699 E25.74973
G1 X126.555 Y118.429 E25.7926
G1 X125.894 Y117.05 E25.84346
G1 X124.805 Y115.561 E25.90481
G1 X123.339 Y114.009 E25.97582
G1 X121.528 Y112.368 E26.05711
G1 X119.447 Y110.671 E26.14642
G1 X117.499 Y109.176 E26.22809
G1 X115.54 Y110.675 E26.31013
G1 X113.452 Y112.379 E26.39977
G1 X111.657 Y114.009 E26.48041
G1 X110.19 Y115.561 E26.55144
G1 X109.102 Y117.05 E26.61278
G1 X108.442 Y118.427 E26.66357
G1 X108.154 Y120.159 E26.72197
G1 X108.098 Y121.115 E26.75382
G1 X108.205 Y122.377 E26.79594
G1 X108.622 Y123.735 E26.84319
G1 X109.473 Y124.93 E26.89199
G1 X110.933 Y125.813 E26.94874
G1 X113.268 Y126.174 E27.02732
G1 X114.107 Y126.065 E27.05546
G1 X114.894 Y125.773 E27.08338
G1 X115.579 Y125.361 E27.10997
G1 X116.175 Y124.865 E27.13576
G1 X116.6 Y124.395 E27.15683
G1 X117.025 Y123.756 E27.18236
G1 X117.184 Y123.613 E27.18947
G1 X117.499 Y123.523 E27.20037
G1 X117.747 Y123.576 E27.2088
G1 X117.943 Y123.703 E27.21657
G1 X118.397 Y124.396 E27.24412
G1 X118.821 Y124.866 E27.26518
G1 X119.417 Y125.361 E27.29094
G1 X120.102 Y125.773 E27.31753
G1 X120.889 Y126.065 E27.34545
G1 X121.728 Y126.174 E27.37359
G0 F7500 X121.733 Y126.578
;TYPE:WALL-OUTER
G1 F1350 X124.202 Y126.196 E27.45669
G1 X125.8 Y125.23 E27.51879
G1 X126.738 Y123.91 E27.57265
G1 X127.186 Y122.453 E27.62335
G1 X127.299 Y121.125 E27.66768
G1 X127.24 Y120.117 E27.70126
G1 X127.17 Y119.636 E27.71743
G1 X126.939 Y118.306 E27.76233
G1 X126.239 Y116.844 E27.81624
G1 X125.113 Y115.305 E27.87967
G1 X123.619 Y113.723 E27.95204
G1 X121.789 Y112.064 E28.03419
G1 X119.695 Y110.357 E28.12405
G1 X117.499 Y108.672 E28.21611
G1 X115.292 Y110.361 E28.30855
G1 X113.191 Y112.076 E28.39875
G1 X111.377 Y113.723 E28.48024
G1 X109.882 Y115.305 E28.55264
G1 X108.757 Y116.844 E28.61604
G1 X108.057 Y118.305 E28.66993
G1 X107.756 Y120.115 E28.73095
G1 X107.697 Y121.121 E28.76447
G1 X107.81 Y122.453 E28.80893
G1 X108.258 Y123.914 E28.85976
G1 X109.195 Y125.23 E28.91349
G1 X110.794 Y126.196 E28.97562
G1 X113.263 Y126.578 E29.05872
G1 X114.203 Y126.456 E29.09025
G1 X115.068 Y126.135 E29.12094
G1 X115.811 Y125.688 E29.14977
G1 X116.453 Y125.155 E29.17753
G1 X116.917 Y124.641 E29.20056
G1 X117.368 Y123.96 E29.22773
G1 X117.396 Y123.952 E29.22869
