;FLAVOR:Marlin
;TIME:796
;Filament used: 0.515895m
;Layer height: 0.2
;MINX:96.517
;MINY:97.438
;MINZ:0.2
;MAXX:138.48
;MAXY:137.767
;MAXZ:10
;TARGET_MACHINE.NAME:Creality Ender-3
;Generated with Cura_SteamEngine 5.7.1
M140 S50
M105
M190 S50
M104 S200
M105
M109 S200
M82 ;absolute extrusion mode
; Ender 3 Custom Start G-code
G92 E0 ; Reset Extruder
G28 ; Home all axes
G1 Z2.0 F3000 ; Move Z Axis up little to prevent scratching of Heat Bed
G1 X0.1 Y20 Z0.3 F5000.0 ; Move to start position
G1 X0.1 Y200.0 Z0.3 F1500.0 E15 ; Draw the first line
G1 X0.4 Y200.0 Z0.3 F5000.0 ; Move to side a little
G1 X0.4 Y20 Z0.3 F1500.0 E30 ; Draw the second line
G92 E0 ; Reset Extruder
G1 Z2.0 F3000 ; Move Z Axis up little to prevent scratching of Heat Bed
G1 X5 Y20 Z0.3 F5000.0 ; Move over to prevent blob squish
G92 E0
G92 E0
G1 F2700 E-5
;LAYER_COUNT:50
;LAYER:0
M107
G0 F6000 X103.718 Y105.566 Z0.2
;TYPE:SKIRT
G1 F2700 E0
G1 F1200 X104.166 Y105.146 E0.02042
G1 X105.302 Y104.116 E0.07143
G1 X106.184 Y103.349 E0.1103
G1 X107.597 Y102.189 E0.17111
G1 X109.104 Y100.995 E0.23506
G1 X110.285 Y100.091 E0.28452
G1 X110.963 Y99.587 E0.31262
G1 X111.771 Y99.044 E0.345
G1 X112.624 Y98.574 E0.37739
G1 X113.483 Y98.194 E0.40863
G1 X114.438 Y97.87 E0.44218
G1 X115.349 Y97.648 E0.47336
G1 X116.348 Y97.497 E0.50697
G1 X117.319 Y97.438 E0.53932
G1 X118.222 Y97.46 E0.56936
G1 X119.26 Y97.579 E0.60411
G1 X120.214 Y97.778 E0.63653
G1 X121.146 Y98.06 E0.66891
G1 X122.05 Y98.423 E0.70131
G1 X122.856 Y98.831 E0.73136
G1 X124.03 Y99.586 E0.77779
G1 X124.834 Y100.181 E0.81105
G1 X125.907 Y101.004 E0.85603
G1 X127.27 Y102.084 E0.91387
G1 X128.363 Y102.972 E0.96071
G1 X129.372 Y103.828 E1.00472
G1 X130.732 Y105.053 E1.0656
G1 X131.28 Y105.562 E1.09047
G1 X131.743 Y106.019 E1.11211
G1 X132.761 Y107.091 E1.16128
G1 X133.357 Y107.743 E1.19066
G1 X133.958 Y108.462 E1.22183
G1 X134.745 Y109.502 E1.26521
G1 X135.361 Y110.361 E1.30036
G1 X135.889 Y111.174 E1.33261
G1 X136.284 Y111.906 E1.36027
G1 X136.804 Y112.978 E1.3999
G1 X137.13 Y113.686 E1.42583
G1 X137.483 Y114.555 E1.45702
G1 X137.776 Y115.511 E1.49028
G1 X137.924 Y116.168 E1.51268
G1 X138.066 Y116.918 E1.53807
G1 X138.229 Y117.905 E1.57134
G1 X138.332 Y118.636 E1.59589
G1 X138.396 Y119.264 E1.61689
G1 X138.46 Y120.178 E1.64736
G1 X138.48 Y120.672 E1.66381
G1 X138.463 Y121.892 E1.70439
G1 X138.387 Y122.906 E1.73821
G1 X138.32 Y123.589 E1.76103
G1 X138.181 Y124.55 E1.79333
G1 X137.98 Y125.416 E1.8229
G1 X137.78 Y126.117 E1.84714
G1 X137.404 Y127.309 E1.88872
G1 X137.081 Y128.191 E1.91996
G1 X136.646 Y129.113 E1.95386
G1 X136.025 Y130.148 E1.99401
G1 X135.475 Y130.955 E2.02649
G1 X134.797 Y131.89 E2.0649
G1 X134.187 Y132.649 E2.09729
G1 X133.562 Y133.301 E2.12733
G1 X132.77 Y133.992 E2.16229
G1 X131.87 Y134.637 E2.19912
G1 X131.263 Y135.019 E2.22297
G1 X129.884 Y135.84 E2.27635
G1 X129.011 Y136.306 E2.30926
G1 X128.181 Y136.662 E2.3393
G1 X127.181 Y136.986 E2.37426
G1 X126.124 Y137.222 E2.41029
G1 X125.338 Y137.355 E2.4368
G1 X123.979 Y137.564 E2.48253
G1 X123.232 Y137.668 E2.50762
G1 X122.265 Y137.758 E2.53992
G1 X121.402 Y137.766 E2.56862
G1 X120.409 Y137.736 E2.60167
G1 X117.735 Y137.69 E2.69062
G1 X115.228 Y137.72 E2.77401
G1 X113.552 Y137.767 E2.82977
G1 X112.583 Y137.749 E2.86201
G1 X111.763 Y137.667 E2.88942
G1 X110.919 Y137.549 E2.91776
G1 X109.783 Y137.374 E2.95599
G1 X108.863 Y137.219 E2.98702
G1 X107.911 Y137.012 E3.01942
G1 X106.98 Y136.721 E3.05187
G1 X106.08 Y136.348 E3.08427
G1 X105.23 Y135.906 E3.11613
G1 X104.444 Y135.445 E3.14644
G1 X103.304 Y134.744 E3.19095
G1 X102.499 Y134.196 E3.22334
G1 X101.745 Y133.578 E3.25577
G1 X101.043 Y132.889 E3.28848
G1 X100.289 Y131.987 E3.32758
G1 X99.401 Y130.781 E3.3774
G1 X99.027 Y130.239 E3.3993
G1 X98.512 Y129.412 E3.4317
G1 X98.069 Y128.534 E3.46441
G1 X97.659 Y127.481 E3.502
G1 X97.35 Y126.535 E3.5351
G1 X97.055 Y125.544 E3.56949
G1 X96.841 Y124.666 E3.59954
G1 X96.688 Y123.678 E3.6328
G1 X96.61 Y122.894 E3.659
G1 X96.537 Y121.878 E3.69288
G1 X96.517 Y120.698 E3.73213
G1 X96.557 Y119.849 E3.7604
G1 X96.59 Y119.4 E3.77538
G1 X96.652 Y118.793 E3.79567
G1 X96.782 Y117.832 E3.82792
G1 X96.893 Y117.16 E3.85058
G1 X97.075 Y116.182 E3.88366
G1 X97.299 Y115.234 E3.91606
G1 X97.593 Y114.347 E3.94714
G1 X97.903 Y113.614 E3.97361
G1 X98.431 Y112.484 E4.0151
G1 X98.768 Y111.806 E4.04028
G1 X99.239 Y110.96 E4.07249
G1 X99.683 Y110.296 E4.09905
G1 X100.399 Y109.303 E4.13977
G1 X100.93 Y108.598 E4.16913
G1 X101.535 Y107.868 E4.20066
G1 X102.228 Y107.104 E4.23497
G1 X103.302 Y105.978 E4.28672
G1 X103.718 Y105.566 E4.3062
G0 F6000 X103.991 Y105.858
G1 F1200 X104.435 Y105.442 E4.32643
G1 X105.564 Y104.418 E4.37713
G1 X106.438 Y103.658 E4.41565
G1 X107.845 Y102.503 E4.4762
G1 X109.347 Y101.313 E4.53993
G1 X110.523 Y100.412 E4.58921
G1 X111.187 Y99.919 E4.61671
G1 X111.965 Y99.394 E4.64793
G1 X112.786 Y98.94 E4.67913
G1 X113.612 Y98.573 E4.7092
G1 X114.533 Y98.259 E4.74156
G1 X115.444 Y98.037 E4.77275
G1 X116.373 Y97.896 E4.804
G1 X117.309 Y97.838 E4.83519
G1 X118.212 Y97.86 E4.86523
G1 X119.179 Y97.971 E4.89761
G1 X120.099 Y98.161 E4.92885
G1 X120.997 Y98.431 E4.96004
G1 X121.869 Y98.78 E4.99128
G1 X122.675 Y99.188 E5.02133
G1 X123.792 Y99.908 E5.06553
G1 X124.596 Y100.503 E5.09879
G1 X125.659 Y101.318 E5.14335
G1 X127.018 Y102.394 E5.201
G1 X128.104 Y103.277 E5.24755
G1 X129.104 Y104.125 E5.29116
G1 X130.46 Y105.346 E5.35185
G1 X130.999 Y105.847 E5.37633
G1 X131.453 Y106.295 E5.39754
G1 X132.466 Y107.361 E5.44645
G1 X133.05 Y107.999 E5.47522
G1 X133.639 Y108.704 E5.50577
G1 X134.42 Y109.735 E5.54879
G1 X135.026 Y110.579 E5.58335
G1 X135.537 Y111.364 E5.6145
G1 X135.924 Y112.081 E5.6416
G1 X136.441 Y113.145 E5.68095
G1 X136.759 Y113.837 E5.70628
G1 X137.112 Y114.706 E5.73748
G1 X137.386 Y115.599 E5.76854
G1 X137.531 Y116.242 E5.79047
G1 X137.671 Y116.983 E5.81555
G1 X137.833 Y117.961 E5.84852
G1 X137.934 Y118.677 E5.87257
G1 X137.997 Y119.292 E5.89313
G1 X138.06 Y120.195 E5.92324
G1 X138.08 Y120.667 E5.93895
G1 X138.064 Y121.862 E5.9787
G1 X137.989 Y122.867 E6.01222
G1 X137.924 Y123.532 E6.03444
G1 X137.791 Y124.46 E6.06563
G1 X137.595 Y125.306 E6.09451
G1 X137.398 Y125.997 E6.11841
G1 X137.028 Y127.171 E6.15935
G1 X136.705 Y128.053 E6.19059
G1 X136.303 Y128.907 E6.22198
G1 X135.682 Y129.942 E6.26213
G1 X135.151 Y130.72 E6.29346
G1 X134.485 Y131.64 E6.33123
G1 X133.898 Y132.372 E6.36244
G1 X133.273 Y133.024 E6.39248
G1 X132.537 Y133.667 E6.42499
G1 X131.657 Y134.298 E6.461
G1 X131.058 Y134.675 E6.48454
G1 X129.695 Y135.487 E6.53731
G1 X128.853 Y135.938 E6.56908
G1 X128.023 Y136.294 E6.59912
G1 X127.094 Y136.596 E6.63161
G1 X126.057 Y136.828 E6.66695
G1 X125.277 Y136.96 E6.69326
G1 X123.924 Y137.168 E6.73879
G1 X123.194 Y137.27 E6.76331
G1 X122.261 Y137.358 E6.79448
G1 X121.414 Y137.366 E6.82265
G1 X120.421 Y137.336 E6.85569
G1 X117.737 Y137.29 E6.94498
G1 X115.217 Y137.32 E7.0288
G1 X113.559 Y137.367 E7.08396
G1 X112.623 Y137.351 E7.1151
G1 X111.818 Y137.271 E7.14201
G1 X110.98 Y137.154 E7.17015
G1 X109.849 Y136.98 E7.20821
G1 X108.947 Y136.828 E7.23863
G1 X108.03 Y136.63 E7.26984
G1 X107.133 Y136.351 E7.30108
G1 X106.265 Y135.993 E7.33231
G1 X105.415 Y135.551 E7.36417
G1 X104.653 Y135.104 E7.39356
G1 X103.529 Y134.413 E7.43744
G1 X102.752 Y133.886 E7.46867
G1 X102.025 Y133.292 E7.49989
G1 X101.35 Y132.632 E7.53129
G1 X100.596 Y131.73 E7.57039
G1 X99.73 Y130.554 E7.61897
G1 X99.366 Y130.027 E7.64027
G1 X98.869 Y129.231 E7.67148
G1 X98.442 Y128.389 E7.70288
G1 X98.032 Y127.336 E7.74047
G1 X97.733 Y126.421 E7.77248
G1 X97.444 Y125.449 E7.80621
G1 X97.23 Y124.571 E7.83627
G1 X97.086 Y123.638 E7.86767
G1 X97.009 Y122.865 E7.8935
G1 X96.937 Y121.871 E7.92665
G1 X96.917 Y120.717 E7.96504
G1 X96.956 Y119.878 E7.99298
G1 X96.988 Y119.44 E8.00758
G1 X97.048 Y118.847 E8.02741
G1 X97.177 Y117.897 E8.05929
G1 X97.286 Y117.233 E8.08167
G1 X97.464 Y116.274 E8.11411
G1 X97.679 Y115.36 E8.14534
G1 X97.973 Y114.473 E8.17642
G1 X98.265 Y113.783 E8.20134
G1 X98.789 Y112.662 E8.2425
G1 X99.118 Y112 E8.26709
G1 X99.572 Y111.182 E8.2982
G1 X100.007 Y110.53 E8.32427
G1 X100.719 Y109.543 E8.36475
G1 X101.238 Y108.853 E8.39347
G1 X101.831 Y108.137 E8.42439
G1 X102.517 Y107.38 E8.45837
G1 X103.583 Y106.262 E8.50975
G1 X103.991 Y105.858 E8.52884
G0 F6000 X104.264 Y106.15
G1 F1200 X104.704 Y105.738 E8.54889
G1 X105.827 Y104.72 E8.59931
G1 X106.692 Y103.967 E8.63745
G1 X108.093 Y102.817 E8.69774
G1 X109.59 Y101.631 E8.76126
G1 X110.762 Y100.733 E8.81037
G1 X111.411 Y100.25 E8.83727
G1 X112.159 Y99.744 E8.86731
G1 X112.948 Y99.306 E8.89732
G1 X113.774 Y98.939 E8.92739
G1 X114.628 Y98.647 E8.95741
G1 X115.505 Y98.432 E8.98744
G1 X116.398 Y98.295 E9.01749
G1 X117.299 Y98.238 E9.04751
G1 X118.202 Y98.26 E9.07756
G1 X119.099 Y98.363 E9.10759
G1 X119.984 Y98.544 E9.13763
G1 X120.849 Y98.803 E9.16766
G1 X121.688 Y99.137 E9.1977
G1 X122.494 Y99.545 E9.22775
G1 X123.554 Y100.23 E9.26972
G1 X124.358 Y100.825 E9.30299
G1 X125.411 Y101.632 E9.34712
G1 X126.766 Y102.704 E9.40458
G1 X127.845 Y103.582 E9.45085
G1 X128.836 Y104.422 E9.49406
G1 X130.188 Y105.639 E9.55456
G1 X130.718 Y106.132 E9.57864
G1 X131.163 Y106.571 E9.59943
G1 X132.171 Y107.631 E9.64808
G1 X132.743 Y108.255 E9.67623
G1 X133.32 Y108.946 E9.70617
G1 X134.095 Y109.968 E9.74883
G1 X134.691 Y110.798 E9.78282
G1 X135.185 Y111.554 E9.81286
G1 X135.564 Y112.256 E9.83939
G1 X136.078 Y113.312 E9.87845
G1 X136.389 Y113.988 E9.9032
G1 X136.73 Y114.824 E9.93323
G1 X136.996 Y115.687 E9.96327
G1 X137.138 Y116.316 E9.98472
G1 X137.276 Y117.049 E10.00952
G1 X137.437 Y118.017 E10.04216
G1 X137.536 Y118.718 E10.06571
G1 X137.598 Y119.32 E10.08584
G1 X137.66 Y120.213 E10.11561
G1 X137.68 Y120.662 E10.13056
G1 X137.665 Y121.832 E10.16948
G1 X137.591 Y122.828 E10.20269
G1 X137.528 Y123.476 E10.22435
G1 X137.401 Y124.37 E10.25438
G1 X137.21 Y125.196 E10.28258
G1 X137.016 Y125.877 E10.30613
G1 X136.652 Y127.034 E10.34647
G1 X136.343 Y127.883 E10.37652
G1 X135.96 Y128.701 E10.40656
G1 X135.351 Y129.717 E10.44596
G1 X134.827 Y130.486 E10.47691
G1 X134.173 Y131.39 E10.51402
G1 X133.609 Y132.095 E10.54405
G1 X132.984 Y132.747 E10.57409
G1 X132.304 Y133.342 E10.60414
G1 X131.444 Y133.959 E10.63935
G1 X130.853 Y134.331 E10.66257
G1 X129.49 Y135.143 E10.71534
G1 X128.695 Y135.57 E10.74536
G1 X127.865 Y135.926 E10.77539
G1 X127.006 Y136.206 E10.80544
G1 X125.99 Y136.434 E10.84008
G1 X125.216 Y136.565 E10.86619
G1 X123.868 Y136.772 E10.91155
G1 X123.156 Y136.872 E10.93546
G1 X122.257 Y136.958 E10.9655
G1 X121.426 Y136.966 E10.99314
G1 X120.433 Y136.936 E11.02618
G1 X117.739 Y136.89 E11.1158
G1 X115.206 Y136.92 E11.20005
G1 X113.565 Y136.967 E11.25465
G1 X112.662 Y136.953 E11.28469
G1 X111.873 Y136.875 E11.31106
G1 X111.041 Y136.759 E11.339
G1 X109.915 Y136.586 E11.37689
G1 X109.031 Y136.437 E11.40671
G1 X108.148 Y136.248 E11.43674
G1 X107.285 Y135.981 E11.46679
G1 X106.45 Y135.638 E11.49681
G1 X105.6 Y135.196 E11.52868
G1 X104.862 Y134.763 E11.55714
G1 X103.753 Y134.082 E11.60042
G1 X103.005 Y133.576 E11.63046
G1 X102.304 Y133.005 E11.66053
G1 X101.657 Y132.375 E11.69056
G1 X100.903 Y131.473 E11.72967
G1 X100.059 Y130.327 E11.777
G1 X99.705 Y129.814 E11.79773
G1 X99.225 Y129.049 E11.82777
G1 X98.815 Y128.244 E11.85782
G1 X98.405 Y127.191 E11.8954
G1 X98.116 Y126.307 E11.92634
G1 X97.833 Y125.354 E11.9594
G1 X97.619 Y124.476 E11.98946
G1 X97.484 Y123.598 E12.019
G1 X97.408 Y122.836 E12.04447
G1 X97.337 Y121.864 E12.07689
G1 X97.317 Y120.735 E12.11445
G1 X97.355 Y119.907 E12.14201
G1 X97.386 Y119.48 E12.15625
G1 X97.444 Y118.901 E12.17561
G1 X97.572 Y117.961 E12.20716
G1 X97.679 Y117.306 E12.22923
G1 X97.853 Y116.365 E12.26106
G1 X98.059 Y115.485 E12.29112
G1 X98.342 Y114.628 E12.32114
G1 X98.627 Y113.952 E12.34554
G1 X99.147 Y112.84 E12.38637
G1 X99.468 Y112.194 E12.41036
G1 X99.905 Y111.404 E12.44039
G1 X100.331 Y110.764 E12.46596
G1 X101.039 Y109.783 E12.5062
G1 X101.546 Y109.108 E12.53428
G1 X102.127 Y108.406 E12.56459
G1 X102.807 Y107.656 E12.59826
G1 X103.864 Y106.546 E12.64924
G1 X104.264 Y106.15 E12.66796
G1 F2700 E7.66796
;MESH:Heart.stl
G0 F6000 X110.801 Y113.078
G0 X121.728 Y126.174
;TYPE:WALL-INNER
G1 F2700 E12.66796
G1 F1200 X124.063 Y125.813 E12.74654
G1 X125.522 Y124.93 E12.80326
G1 X126.374 Y123.731 E12.85219
G1 X126.791 Y122.377 E12.89931
G1 X126.898 Y121.119 E12.9413
G1 X126.842 Y120.158 E12.97332
G1 X126.771 Y119.68 E12.98939
G1 X126.555 Y118.429 E13.03161
G1 X125.894 Y117.05 E13.08248
G1 X124.805 Y115.561 E13.14383
G1 X123.339 Y114.009 E13.21484
G1 X121.528 Y112.368 E13.29612
G1 X119.447 Y110.671 E13.38544
G1 X117.499 Y109.176 E13.46711
G1 X115.54 Y110.675 E13.54915
G1 X113.452 Y112.379 E13.63879
G1 X111.657 Y114.009 E13.71943
G1 X110.19 Y115.561 E13.79046
G1 X109.102 Y117.05 E13.8518
G1 X108.442 Y118.427 E13.90259
G1 X108.154 Y120.156 E13.96089
G1 X108.098 Y121.115 E13.99284
G1 X108.205 Y122.377 E14.03496
G1 X108.622 Y123.735 E14.08221
G1 X109.473 Y124.93 E14.13101
G1 X110.933 Y125.813 E14.18776
G1 X113.268 Y126.174 E14.26634
G1 X114.107 Y126.065 E14.29448
G1 X114.894 Y125.773 E14.3224
G1 X115.579 Y125.361 E14.34899
G1 X116.175 Y124.865 E14.37478
G1 X116.6 Y124.395 E14.39585
G1 X117.025 Y123.756 E14.42138
G1 X117.184 Y123.613 E14.42849
G1 X117.499 Y123.523 E14.43939
G1 X117.747 Y123.576 E14.44782
G1 X117.972 Y123.752 E14.45732
G1 X118.392 Y124.391 E14.48275
G1 X118.817 Y124.858 E14.50376
G1 X119.419 Y125.362 E14.52987
G1 X120.09 Y125.769 E14.55597
G1 X120.893 Y126.065 E14.58444
G1 X121.728 Y126.174 E14.61244
G0 F6000 X121.733 Y126.578
;TYPE:WALL-OUTER
G1 F1200 X124.202 Y126.196 E14.69554
G1 X125.8 Y125.23 E14.75765
G1 X126.738 Y123.91 E14.81151
G1 X127.186 Y122.453 E14.86221
G1 X127.299 Y121.125 E14.90653
G1 X127.24 Y120.117 E14.94012
G1 X127.177 Y119.683 E14.9547
G1 X126.939 Y118.306 E15.00118
G1 X126.239 Y116.844 E15.05509
G1 X125.113 Y115.305 E15.11852
G1 X123.619 Y113.723 E15.19089
G1 X121.789 Y112.064 E15.27305
G1 X119.695 Y110.357 E15.3629
G1 X117.499 Y108.672 E15.45497
G1 X115.292 Y110.361 E15.5474
G1 X113.191 Y112.076 E15.6376
G1 X111.377 Y113.723 E15.7191
G1 X109.882 Y115.305 E15.79149
G1 X108.757 Y116.844 E15.8549
G1 X108.057 Y118.305 E15.90878
G1 X107.756 Y120.111 E15.96968
G1 X107.697 Y121.121 E16.00333
G1 X107.81 Y122.453 E16.04779
G1 X108.258 Y123.914 E16.09861
G1 X109.195 Y125.23 E16.15235
G1 X110.794 Y126.196 E16.21448
G1 X113.263 Y126.578 E16.29758
G1 X114.203 Y126.456 E16.3291
G1 X115.068 Y126.135 E16.35979
G1 X115.811 Y125.688 E16.38863
G1 X116.453 Y125.155 E16.41638
G1 X116.917 Y124.641 E16.43941
G1 X117.368 Y123.96 E16.46658
G1 X117.499 Y123.923 E16.47111
G1 X117.632 Y123.96 E16.4757
G1 X118.075 Y124.637 E16.50261
G1 X118.539 Y125.147 E16.52554
G1 X119.185 Y125.688 E16.55357
G1 X119.916 Y126.131 E16.582
G1 X120.797 Y126.456 E16.61323
G1 X121.733 Y126.578 E16.64462
G0 F6000 X121.725 Y125.806
;TYPE:SKIN
G1 F1200 X120.976 Y125.708 E16.66975
G1 X120.239 Y125.438 E16.69585
G1 X119.625 Y125.068 E16.7197
G1 X119.068 Y124.599 E16.74392
G1 X118.675 Y124.164 E16.76341
G1 X118.23 Y123.498 E16.79005
G1 X118.005 Y123.305 E16.79991
G1 X117.783 Y123.204 E16.80803
G1 X117.528 Y123.162 E16.81662
G1 X117.217 Y123.204 E16.82706
G1 X116.994 Y123.305 E16.8352
G1 X116.734 Y123.537 E16.84679
G1 X116.317 Y124.169 E16.87198
G1 X115.925 Y124.603 E16.89143
G1 X115.364 Y125.068 E16.91566
G1 X114.741 Y125.442 E16.93983
G1 X114.019 Y125.708 E16.96542
G1 X113.271 Y125.806 E16.99051
G1 X111.058 Y125.464 E17.06499
G1 X109.723 Y124.658 E17.11686
G1 X108.946 Y123.574 E17.16122
G1 X108.558 Y122.301 E17.20548
G1 X108.457 Y121.121 E17.24487
G1 X108.512 Y120.195 E17.27573
G1 X108.789 Y118.537 E17.33163
G1 X109.413 Y117.231 E17.37978
G1 X110.463 Y115.793 E17.439
G1 X111.901 Y114.271 E17.50864
G1 X113.679 Y112.656 E17.58853
G1 X115.757 Y110.961 E17.67772
G1 X117.496 Y109.629 E17.75058
G1 X119.188 Y110.925 E17.82147
G1 X121.285 Y112.632 E17.9114
G1 X123.095 Y114.271 E17.99261
G1 X124.529 Y115.793 E18.06216
G1 X125.579 Y117.231 E18.12139
G1 X126.203 Y118.538 E18.16956
G1 X126.383 Y119.533 E18.20319
G1 X126.48 Y120.181 E18.22498
