;FLAVOR:Marlin
;TIME:699
;Filament used: 0.504277m
;Layer height: 0.2
;MINX:115.789
;MINY:79.233
;MINZ:0.2
;MAXX:135.379
;MAXY:98.827
;MAXZ:10
;TARGET_MACHINE.NAME:Creality Ender-3
;Generated with Cura_SteamEngine 5.7.1
M140 S50
M105
M190 S50
M104 S200
M105
M109 S200
M82 ;absolute extrusion mode
; Ender 3 Custom Start G-code
G92 E0 ; Reset Extruder
G28 ; Home all axes
G1 Z2.0 F3000 ; Move Z Axis up little to prevent scratching of Heat Bed
G1 X0.1 Y20 Z0.3 F5000.0 ; Move to start position
G1 X0.1 Y200.0 Z0.3 F1500.0 E15 ; Draw the first line
G1 X0.4 Y200.0 Z0.3 F5000.0 ; Move to side a little
G1 X0.4 Y20 Z0.3 F1500.0 E30 ; Draw the second line
G92 E0 ; Reset Extruder
G1 Z2.0 F3000 ; Move Z Axis up little to prevent scratching of Heat Bed
G1 X5 Y20 Z0.3 F5000.0 ; Move over to prevent blob squish
G92 E0
G92 E0
G1 F2700 E-5
;LAYER_COUNT:50
;LAYER:0
M107
;MESH:Hemisphere.stl
G0 F6000 X125.584 Y97.622 Z0.2
;TYPE:WALL-INNER
G1 F2700 E0
G1 F1200 X127.075 Y97.492 E0.04978
G1 X128.51 Y97.107 E0.0992
G1 X129.88 Y96.467 E0.14949
G1 X131.101 Y95.611 E0.19908
G1 X132.167 Y94.548 E0.24916
G1 X133.018 Y93.329 E0.2986
G1 X133.659 Y91.958 E0.34894
G1 X134.044 Y90.523 E0.39836
G1 X134.174 Y89.032 E0.44813
G1 X134.044 Y87.54 E0.49795
G1 X133.659 Y86.101 E0.54749
G1 X133.018 Y84.731 E0.5978
G1 X132.167 Y83.512 E0.64725
G1 X131.101 Y82.449 E0.69732
G1 X129.881 Y81.594 E0.74687
G1 X128.512 Y80.957 E0.79709
G1 X127.074 Y80.572 E0.8466
G1 X125.584 Y80.438 E0.89636
G1 X124.094 Y80.572 E0.94612
G1 X122.652 Y80.957 E0.99576
G1 X121.284 Y81.593 E1.04593
G1 X120.068 Y82.449 E1.09539
G1 X119.001 Y83.512 E1.14549
G1 X118.15 Y84.731 E1.19493
G1 X117.509 Y86.101 E1.24524
G1 X117.125 Y87.54 E1.29478
G1 X116.994 Y89.032 E1.34459
G1 X117.124 Y90.523 E1.39437
G1 X117.509 Y91.958 E1.44379
G1 X118.15 Y93.329 E1.49413
G1 X119.002 Y94.549 E1.54362
G1 X120.064 Y95.611 E1.59357
G1 X121.284 Y96.467 E1.64314
G1 X122.653 Y97.107 E1.6934
G1 X124.092 Y97.491 E1.74294
G1 X125.584 Y97.622 E1.79276
G0 F6000 X125.584 Y98.024
G1 F1200 X127.145 Y97.887 E1.84487
G1 X128.648 Y97.484 E1.89663
G1 X130.081 Y96.815 E1.94923
G1 X131.359 Y95.918 E2.00116
G1 X132.475 Y94.806 E2.05356
G1 X133.366 Y93.53 E2.10532
G1 X134.036 Y92.096 E2.15797
G1 X134.439 Y90.593 E2.20972
G1 X134.576 Y89.032 E2.26184
G1 X134.439 Y87.471 E2.31396
G1 X134.036 Y85.964 E2.36584
G1 X133.366 Y84.53 E2.41849
G1 X132.475 Y83.254 E2.47025
G1 X131.359 Y82.142 E2.52265
G1 X130.082 Y81.246 E2.57454
G1 X128.649 Y80.58 E2.62709
G1 X127.144 Y80.177 E2.67891
G1 X125.584 Y80.037 E2.73101
G1 X124.024 Y80.177 E2.7831
G1 X122.515 Y80.58 E2.83505
G1 X121.083 Y81.246 E2.88758
G1 X119.81 Y82.141 E2.93934
G1 X118.693 Y83.254 E2.99178
G1 X117.802 Y84.53 E3.04354
G1 X117.132 Y85.964 E3.09619
G1 X116.729 Y87.471 E3.14807
G1 X116.592 Y89.032 E3.20019
G1 X116.729 Y90.593 E3.25231
G1 X117.132 Y92.096 E3.30407
G1 X117.802 Y93.53 E3.35671
G1 X118.694 Y94.807 E3.40852
G1 X119.806 Y95.919 E3.46082
G1 X121.083 Y96.815 E3.51271
G1 X122.516 Y97.484 E3.56531
G1 X124.023 Y97.887 E3.61719
G1 X125.584 Y98.024 E3.66931
G0 F6000 X125.584 Y98.425
G1 F1200 X127.215 Y98.282 E3.72377
G1 X128.785 Y97.862 E3.77782
G1 X130.282 Y97.162 E3.83279
G1 X131.617 Y96.226 E3.88702
G1 X132.782 Y95.064 E3.94174
G1 X133.714 Y93.73 E3.99587
G1 X134.414 Y92.233 E4.05083
G1 X134.834 Y90.663 E4.10489
G1 X134.977 Y89.032 E4.15934
G1 X134.834 Y87.401 E4.2138
G1 X134.414 Y85.827 E4.26798
G1 X133.714 Y84.33 E4.32295
G1 X132.782 Y82.996 E4.37707
G1 X131.617 Y81.834 E4.4318
G1 X130.282 Y80.898 E4.48603
G1 X128.786 Y80.203 E4.54089
G1 X127.214 Y79.782 E4.59502
G1 X125.584 Y79.635 E4.64945
G1 X123.954 Y79.781 E4.70388
G1 X122.378 Y80.203 E4.75815
G1 X120.882 Y80.898 E4.81301
G1 X119.552 Y81.834 E4.86711
G1 X118.386 Y82.996 E4.92186
G1 X117.454 Y84.33 E4.97598
G1 X116.754 Y85.827 E5.03095
G1 X116.334 Y87.401 E5.08513
G1 X116.191 Y89.032 E5.13959
G1 X116.334 Y90.663 E5.19404
G1 X116.754 Y92.233 E5.2481
G1 X117.454 Y93.73 E5.30306
G1 X118.386 Y95.065 E5.35721
G1 X119.548 Y96.226 E5.41185
G1 X120.882 Y97.162 E5.46605
G1 X122.379 Y97.862 E5.52101
G1 X123.953 Y98.282 E5.5752
G1 X125.584 Y98.425 E5.62965
G0 F6000 X125.584 Y98.827
;TYPE:WALL-OUTER
G1 F1200 X127.285 Y98.678 E5.68644
G1 X128.923 Y98.239 E5.74285
G1 X130.483 Y97.51 E5.80012
G1 X131.875 Y96.534 E5.85666
G1 X133.09 Y95.322 E5.91374
G1 X134.062 Y93.931 E5.97018
G1 X134.791 Y92.371 E6.02745
G1 X135.23 Y90.733 E6.08386
G1 X135.379 Y89.032 E6.14065
G1 X135.23 Y87.331 E6.19744
G1 X134.791 Y85.689 E6.25397
G1 X134.062 Y84.129 E6.31124
G1 X133.09 Y82.738 E6.36769
G1 X131.875 Y81.526 E6.42476
G1 X130.483 Y80.55 E6.48131
G1 X128.923 Y79.825 E6.53852
G1 X127.284 Y79.386 E6.59496
G1 X125.584 Y79.233 E6.65173
G1 X123.884 Y79.386 E6.7085
G1 X122.241 Y79.825 E6.76506
G1 X120.681 Y80.55 E6.82228
G1 X119.294 Y81.526 E6.87869
G1 X118.078 Y82.738 E6.93579
G1 X117.106 Y84.129 E6.99223
G1 X116.377 Y85.689 E7.0495
G1 X115.938 Y87.331 E7.10604
G1 X115.789 Y89.032 E7.16283
G1 X115.938 Y90.733 E7.21962
G1 X116.377 Y92.371 E7.27602
G1 X117.106 Y93.931 E7.33329
G1 X118.078 Y95.323 E7.38976
G1 X119.29 Y96.534 E7.44675
G1 X120.681 Y97.51 E7.50326
G1 X122.241 Y98.239 E7.56054
G1 X123.883 Y98.678 E7.61707
G1 X125.584 Y98.827 E7.67386
G0 F6000 X125.585 Y98.125
G0 X125.561 Y97.519
G0 X125.584 Y97.259
;TYPE:SKIN
G1 F1200 X124.155 Y97.134 E7.72157
G1 X122.773 Y96.767 E7.76913
G1 X121.469 Y96.154 E7.81705
G1 X120.298 Y95.334 E7.8646
G1 X119.27 Y94.307 E7.91293
G1 X118.466 Y93.155 E7.95966
G1 X117.845 Y91.823 E8.00854
G1 X117.478 Y90.461 E8.05545
G1 X117.353 Y89.032 E8.10316
G1 X117.478 Y87.603 E8.15087
G1 X117.845 Y86.233 E8.19805
G1 X118.462 Y84.905 E8.24675
G1 X119.274 Y83.746 E8.29382
G1 X120.302 Y82.722 E8.34208
G1 X121.461 Y81.906 E8.38922
G1 X122.781 Y81.293 E8.43763
G1 X124.156 Y80.926 E8.48496
G1 X125.583 Y80.797 E8.53262
G1 X127.008 Y80.926 E8.58021
G1 X128.379 Y81.293 E8.62741
G1 X129.703 Y81.91 E8.676
G1 X130.863 Y82.722 E8.72309
G1 X131.89 Y83.746 E8.77133
G1 X132.702 Y84.905 E8.81839
G1 X133.319 Y86.233 E8.8671
G1 X133.686 Y87.603 E8.91427
G1 X133.811 Y89.031 E8.96195
G1 X133.686 Y90.457 E9.00956
G1 X133.319 Y91.835 E9.05699
G1 X132.706 Y93.147 E9.10516
G1 X131.898 Y94.306 E9.15215
G1 X130.863 Y95.333 E9.20064
G1 X129.691 Y96.154 E9.24824
G1 X128.387 Y96.767 E9.29616
G1 X127.013 Y97.134 E9.34346
G1 X125.584 Y97.259 E9.39117
G0 F6000 X125.561 Y97.519
G0 X124.121 Y97.333
G0 X122.85 Y96.993
G0 X120.857 Y96.044
G0 X121.122 Y95.667
G1 F1200 X118.938 Y93.482 E9.49392
G0 F6000 X118.562 Y93.744
G0 X117.841 Y92.432
G0 X118.259 Y92.238
G1 F1200 X122.385 Y96.363 E9.68798
G0 F6000 X123.282 Y96.695
G1 F1200 X117.921 Y91.333 E9.94016
G0 F6000 X117.711 Y90.558
G1 F1200 X124.053 Y96.9 E10.23847
G0 F6000 X124.699 Y96.98
G1 F1200 X117.631 Y89.912 E10.57093
G0 F6000 X117.576 Y89.292
G1 F1200 X125.319 Y97.035 E10.93514
G0 F6000 X125.882 Y97.032
G1 F1200 X117.58 Y88.73 E11.32564
G0 F6000 X117.625 Y88.209
G1 F1200 X126.402 Y96.986 E11.73848
G0 F6000 X126.921 Y96.94
G1 F1200 X117.671 Y87.69 E12.17357
G0 F6000 X117.783 Y87.236
G1 F1200 X127.376 Y96.829 E12.6248
G0 F6000 X127.822 Y96.71
G1 F1200 X117.903 Y86.79 E13.09138
G0 F6000 X118.022 Y86.343
G1 F1200 X128.268 Y96.59 E13.57334
G0 F6000 X128.66 Y96.416
G1 F1200 X118.196 Y85.952 E14.06554
G0 F6000 X118.375 Y85.566
G1 F1200 X129.045 Y96.235 E14.5674
G0 F6000 X129.43 Y96.055
G1 F1200 X118.555 Y85.179 E15.07895
G0 F6000 X118.764 Y84.822
G1 F1200 X129.784 Y95.843 E15.59732
G0 F6000 X130.118 Y95.611
G1 F1200 X118.997 Y84.49 E16.12042
G0 F6000 X119.23 Y84.157
G1 F1200 X130.45 Y95.377 E16.64817
G0 F6000 X130.776 Y95.138
G1 F1200 X119.471 Y83.833 E17.17992
G0 F6000 X119.754 Y83.55
G1 F1200 X131.059 Y94.856 E17.7117
G0 F6000 X131.344 Y94.574
G1 F1200 X120.038 Y83.268 E18.2435
G0 F6000 X120.321 Y82.986
G1 F1200 X131.627 Y94.292 E18.7753
G0 F6000 X131.881 Y93.98
G1 F1200 X120.635 Y82.734 E19.30428
G0 F6000 X120.966 Y82.5
G1 F1200 X132.114 Y93.647 E19.82862
G0 F6000 X132.346 Y93.314
G1 F1200 X121.299 Y82.266 E20.34826
G0 F6000 X121.641 Y82.043
G1 F1200 X132.568 Y92.97 E20.86223
G0 F6000 X132.748 Y92.584
G1 F1200 X122.028 Y81.864 E21.36647
G0 F6000 X122.414 Y81.685
G1 F1200 X132.928 Y92.199 E21.86102
G0 F6000 X133.108 Y91.813
G1 F1200 X122.8 Y81.505 E22.34587
G0 F6000 X123.24 Y81.379
G1 F1200 X133.234 Y91.374 E22.81598
G0 F6000 X133.353 Y90.927
G1 F1200 X123.686 Y81.259 E23.27071
G0 F6000 X124.133 Y81.141
G1 F1200 X133.473 Y90.481 E23.71004
G0 F6000 X133.528 Y89.97
G1 F1200 X124.642 Y81.084 E24.12801
G0 F6000 X125.161 Y81.037
G1 F1200 X133.573 Y89.45 E24.52371
G0 F6000 X133.6 Y88.911
G1 F1200 X125.698 Y81.009 E24.89539
G0 F6000 X126.32 Y81.066
G1 F1200 X133.546 Y88.291 E25.23526
G0 F6000 X133.492 Y87.671
G1 F1200 X126.943 Y81.122 E25.5433
G0 F6000 X127.707 Y81.321
G1 F1200 X133.292 Y86.906 E25.806
G0 F6000 X133.022 Y86.07
G1 F1200 X128.543 Y81.591 E26.01668
G0 F6000 X128.738 Y81.174
G0 X129.866 Y81.707
G0 X129.601 Y82.083
G1 F1200 X132.533 Y85.015 E26.15459
G0 F6000 X133.222 Y84.694
;MESH:NONMESH
G0 F300 X133.222 Y84.694 Z0.4
G0 F6000 X133.885 Y87.569
G0 X134.013 Y89.032
G0 X133.885 Y90.495
G0 X133.507 Y91.903
G0 X132.878 Y93.248
G0 X132.043 Y94.444
G0 X130.997 Y95.487
G0 X129.799 Y96.327
G0 X128.455 Y96.955
G0 X127.657 Y97.169
G0 X125.584 Y97.614
;TIME_ELAPSED:47.689086
;LAYER:1
M106 S85
;TYPE:WALL-INNER
;MESH:Hemisphere.stl
G1 F1350 X127.072 Y97.484 E26.20427
G1 X128.51 Y97.099 E26.25379
G1 X129.876 Y96.459 E26.30396
G1 X131.097 Y95.606 E26.3535
G1 X132.158 Y94.545 E26.4034
G1 X133.01 Y93.325 E26.4529
G1 X133.651 Y91.954 E26.50324
G1 X134.036 Y90.519 E26.55265
G1 X134.166 Y89.031 E26.60233
G1 X134.036 Y87.541 E26.65208
G1 X133.651 Y86.106 E26.70149
G1 X133.01 Y84.735 E26.75183
G1 X132.159 Y83.516 E26.80128
G1 X131.097 Y82.457 E26.85116
G1 X129.877 Y81.601 E26.90073
G1 X128.511 Y80.965 E26.95085
G1 X127.072 Y80.58 E27.00039
G1 X125.583 Y80.45 E27.0501
G1 X124.096 Y80.581 E27.09975
G1 X122.656 Y80.965 E27.14932
G1 X121.288 Y81.601 E27.1995
G1 X120.072 Y82.457 E27.24896
G1 X119.008 Y83.517 E27.29891
G1 X118.154 Y84.735 E27.34839
G1 X117.517 Y86.104 E27.39861
G1 X117.133 Y87.541 E27.44808
G1 X117.002 Y89.031 E27.49783
G1 X117.132 Y90.519 E27.54751
G1 X117.517 Y91.956 E27.59699
G1 X118.154 Y93.325 E27.64721
G1 X119.009 Y94.544 E27.69673
G1 X120.072 Y95.607 E27.74673
G1 X121.288 Y96.459 E27.79612
G1 X122.657 Y97.099 E27.84638
G1 X124.096 Y97.483 E27.89592
G1 X125.584 Y97.614 E27.9456
G0 F7500 X125.584 Y98.016
G1 F1350 X127.141 Y97.879 E27.99758
G1 X128.648 Y97.476 E28.04947
G1 X130.077 Y96.806 E28.10196
G1 X131.355 Y95.914 E28.1538
G1 X132.466 Y94.803 E28.20606
G1 X133.358 Y93.526 E28.25787
G1 X134.028 Y92.092 E28.31051
G1 X134.431 Y90.589 E28.36227
G1 X134.568 Y89.031 E28.41428
G1 X134.431 Y87.471 E28.46637
G1 X134.028 Y85.968 E28.51813
G1 X133.358 Y84.534 E28.57077
G1 X132.467 Y83.258 E28.62253
G1 X131.355 Y82.15 E28.67474
G1 X130.077 Y81.254 E28.72666
G1 X128.649 Y80.588 E28.77906
G1 X127.141 Y80.185 E28.83098
G1 X125.583 Y80.048 E28.883
G1 X124.027 Y80.185 E28.93495
G1 X122.519 Y80.588 E28.98687
G1 X121.087 Y81.254 E29.0394
G1 X119.814 Y82.149 E29.09115
G1 X118.701 Y83.259 E29.14343
G1 X117.806 Y84.534 E29.19525
G1 X117.14 Y85.967 E29.2478
G1 X116.737 Y87.471 E29.29959
G1 X116.6 Y89.031 E29.35168
G1 X116.737 Y90.589 E29.4037
G1 X117.14 Y92.093 E29.45549
G1 X117.806 Y93.526 E29.50804
G1 X118.701 Y94.802 E29.55988
G1 X119.814 Y95.915 E29.61223
G1 X121.087 Y96.806 E29.66391
G1 X122.52 Y97.476 E29.71653
G1 X124.027 Y97.879 E29.76841
G1 X125.584 Y98.016 E29.8204
G0 F7500 X125.584 Y98.417
G1 F1350 X127.211 Y98.274 E29.87472
G1 X128.785 Y97.854 E29.92891
G1 X130.278 Y97.154 E29.98375
G1 X131.613 Y96.222 E30.0379
G1 X132.774 Y95.061 E30.09251
G1 X133.706 Y93.726 E30.14666
G1 X134.406 Y92.229 E30.20163
G1 X134.826 Y90.659 E30.25568
G1 X134.969 Y89.031 E30.31004
G1 X134.826 Y87.401 E30.36446
G1 X134.406 Y85.831 E30.41852
G1 X133.706 Y84.334 E30.47348
G1 X132.774 Y83 E30.52761
G1 X131.613 Y81.842 E30.58215
G1 X130.278 Y80.906 E30.63637
G1 X128.786 Y80.211 E30.69112
G1 X127.211 Y79.79 E30.74534
G1 X125.583 Y79.647 E30.7997
G1 X123.957 Y79.79 E30.85399
G1 X122.382 Y80.211 E30.90821
G1 X120.886 Y80.906 E30.96308
G1 X119.556 Y81.842 E31.01717
G1 X118.393 Y83 E31.07175
G1 X117.458 Y84.334 E31.12594
G1 X116.763 Y85.83 E31.1808
G1 X116.342 Y87.401 E31.2349
G1 X116.199 Y89.031 E31.28932
G1 X116.342 Y90.659 E31.34368
G1 X116.763 Y92.23 E31.39777
G1 X117.458 Y93.726 E31.45264
G1 X118.394 Y95.06 E31.50684
G1 X119.556 Y96.222 E31.56149
G1 X120.886 Y97.154 E31.61551
G1 X122.383 Y97.854 E31.67047
G1 X123.957 Y98.274 E31.72466
G1 X125.584 Y98.417 E31.77898
G0 F7500 X125.584 Y98.819
;TYPE:WALL-OUTER
G1 F1350 X127.281 Y98.67 E31.83564
G1 X128.923 Y98.231 E31.89217
G1 X130.479 Y97.502 E31.94932
G1 X131.871 Y96.53 E32.00579
G1 X133.082 Y95.319 E32.06275
G1 X134.054 Y93.927 E32.11922
G1 X134.783 Y92.367 E32.17649
G1 X135.222 Y90.729 E32.23289
G1 X135.371 Y89.031 E32.28959
G1 X135.222 Y87.331 E32.34635
G1 X134.783 Y85.693 E32.40275
G1 X134.054 Y84.133 E32.46002
G1 X133.082 Y82.742 E32.51646
G1 X131.871 Y81.534 E32.57335
G1 X130.479 Y80.558 E32.6299
G1 X128.923 Y79.833 E32.68699
G1 X127.281 Y79.394 E32.74352
G1 X125.583 Y79.245 E32.80022
G1 X123.887 Y79.394 E32.85684
G1 X122.245 Y79.833 E32.91337
G1 X120.685 Y80.558 E32.97059
G1 X119.298 Y81.534 E33.027
G1 X118.086 Y82.742 E33.08391
G1 X117.11 Y84.133 E33.14043
G1 X116.385 Y85.693 E33.19765
G1 X115.946 Y87.331 E33.25405
G1 X115.797 Y89.031 E33.31081
G1 X115.946 Y90.729 E33.3675
G1 X116.385 Y92.367 E33.4239
G1 X117.11 Y93.927 E33.48112
G1 X118.086 Y95.318 E33.53764
G1 X119.298 Y96.53 E33.59464
G1 X120.685 Y97.502 E33.65098
G1 X122.245 Y98.231 E33.70825
G1 X123.887 Y98.67 E33.76478
G1 X125.584 Y98.819 E33.82144
G0 F7500 X125.585 Y98.116
G0 X125.561 Y97.511
G0 X125.584 Y97.251
;TYPE:SKIN
G1 F1350 X124.159 Y97.126 E33.86902
G1 X122.777 Y96.759 E33.91658
G1 X121.473 Y96.146 E33.9645
G1 X120.306 Y95.33 E34.01186
G1 X119.282 Y94.306 E34.06003
G1 X118.47 Y93.147 E34.1071
G1 X117.853 Y91.823 E34.15568
G1 X117.486 Y90.453 E34.20285
G1 X117.361 Y89.028 E34.25043
G1 X117.486 Y87.603 E34.29801
G1 X117.853 Y86.237 E34.34505
G1 X118.47 Y84.909 E34.39376
G1 X119.282 Y83.754 E34.44071
G1 X120.306 Y82.73 E34.48888
G1 X121.465 Y81.914 E34.53602
G1 X122.785 Y81.301 E34.58443
G1 X124.159 Y80.934 E34.63173
G1 X125.581 Y80.809 E34.67921
G1 X127.005 Y80.934 E34.72676
G1 X128.379 Y81.301 E34.77406
G1 X129.699 Y81.914 E34.82246
G1 X130.858 Y82.73 E34.86961
G1 X131.882 Y83.75 E34.91768
G1 X132.698 Y84.917 E34.96504
G1 X133.311 Y86.225 E35.01309
G1 X133.678 Y87.603 E35.06052
G1 X133.803 Y89.028 E35.10809
G1 X133.678 Y90.453 E35.15567
G1 X133.311 Y91.819 E35.20272
G1 X132.689 Y93.151 E35.25161
G1 X131.889 Y94.303 E35.29826
G1 X130.855 Y95.338 E35.34692
G1 X129.695 Y96.146 E35.39394
G1 X128.387 Y96.759 E35.44198
G1 X127.009 Y97.126 E35.48941
G1 X125.584 Y97.251 E35.53699
G0 F7500 X125.561 Y97.511
G0 X127.043 Y97.325
G0 X128.454 Y96.947
G0 X129.796 Y96.319
G0 X130.993 Y95.483
G0 X131.584 Y94.892
G0 X132.566 Y93.786
G0 X132.188 Y93.521
G1 F1350 X130.062 Y95.647 E35.63699
G0 F7500 X130.324 Y96.023
G0 X128.993 Y96.761
G0 X128.799 Y96.344
G1 F1350 X132.886 Y92.257 E35.82923
G0 F7500 X133.23 Y91.347
G1 F1350 X127.897 Y96.681 E36.0801
G0 F7500 X127.125 Y96.886
G1 F1350 X133.438 Y90.573 E36.37705
G0 F7500 X133.523 Y89.923
G1 F1350 X126.475 Y96.971 E36.70856
G0 F7500 X125.854 Y97.026
G1 F1350 X133.577 Y89.303 E37.07183
G0 F7500 X133.576 Y88.738
G1 F1350 X125.291 Y97.024 E37.46155
G0 F7500 X124.771 Y96.978
G1 F1350 X133.531 Y88.218 E37.8736
G0 F7500 X133.485 Y87.698
G1 F1350 X124.251 Y96.932 E38.30794
G0 F7500 X123.797 Y96.821
G1 F1350 X133.374 Y87.244 E38.75841
G0 F7500 X133.254 Y86.797
G1 F1350 X123.35 Y96.702 E39.22429
G0 F7500 X122.903 Y96.583
G1 F1350 X133.135 Y86.351 E39.70557
G0 F7500 X132.963 Y85.957
G1 F1350 X122.51 Y96.41 E40.19725
G0 F7500 X122.125 Y96.229
G1 F1350 X132.783 Y85.572 E40.69854
G0 F7500 X132.603 Y85.186
G1 F1350 X121.74 Y96.049 E41.2095
G0 F7500 X121.385 Y95.838
G1 F1350 X132.393 Y84.83 E41.72729
