;FLAVOR:Marlin
;TIME:4394
;Filament used: 2.9642m
;Layer height: 0.2
;MINX:92.7
;MINY:92.7
;MINZ:0.2
;MAXX:142.3
;MAXY:142.3
;MAXZ:10
;TARGET_MACHINE.NAME:Creality Ender-3
;Generated with Cura_SteamEngine 5.7.1
M140 S50
M105
M190 S50
M104 S200
M105
M109 S200
M82 ;absolute extrusion mode
; Ender 3 Custom Start G-code
G92 E0 ; Reset Extruder
G28 ; Home all axes
G1 Z2.0 F3000 ; Move Z Axis up little to prevent scratching of Heat Bed
G1 X0.1 Y20 Z0.3 F5000.0 ; Move to start position
G1 X0.1 Y200.0 Z0.3 F1500.0 E15 ; Draw the first line
G1 X0.4 Y200.0 Z0.3 F5000.0 ; Move to side a little
G1 X0.4 Y20 Z0.3 F1500.0 E30 ; Draw the second line
G92 E0 ; Reset Extruder
G1 Z2.0 F3000 ; Move Z Axis up little to prevent scratching of Heat Bed
G1 X5 Y20 Z0.3 F5000.0 ; Move over to prevent blob squish
G92 E0
G92 E0
G1 F2700 E-5
;LAYER_COUNT:50
;LAYER:0
M107
;MESH:Profile.stl
G0 F6000 X117.5 Y124.748 Z0.2
;TYPE:WALL-INNER
G1 F2700 E0
G1 F1200 X116.327 Y124.655 E0.03914
G1 X115.21 Y124.386 E0.07735
G1 X114.161 Y123.938 E0.11529
G1 X113.221 Y123.359 E0.15201
G1 X112.367 Y122.626 E0.18944
G1 X111.644 Y121.779 E0.22648
G1 X111.053 Y120.834 E0.26355
G1 X110.615 Y119.786 E0.30133
G1 X110.343 Y118.677 E0.33931
G1 X110.244 Y117.506 E0.37839
G1 X110.342 Y116.313 E0.41821
G1 X110.616 Y115.207 E0.45611
G1 X111.052 Y114.163 E0.49374
G1 X111.638 Y113.219 E0.53069
G1 X112.341 Y112.405 E0.56646
G1 X113.214 Y111.641 E0.60505
G1 X114.166 Y111.055 E0.64223
G1 X115.206 Y110.616 E0.67978
G1 X116.323 Y110.346 E0.718
G1 X117.475 Y110.245 E0.75646
G1 X118.029 Y110.268 E0.7749
G1 X118.674 Y110.346 E0.79651
G1 X119.239 Y110.459 E0.81568
G1 X119.77 Y110.615 E0.83408
G1 X120.298 Y110.811 E0.85281
G1 X120.819 Y111.054 E0.87194
G1 X121.303 Y111.327 E0.89042
G1 X121.723 Y111.607 E0.90721
G1 X122.223 Y112.001 E0.92838
G1 X122.591 Y112.337 E0.94495
G1 X122.988 Y112.765 E0.96437
G1 X123.343 Y113.209 E0.98328
G1 X123.701 Y113.743 E1.00466
G1 X123.98 Y114.247 E1.02382
G1 X124.18 Y114.679 E1.03965
G1 X124.381 Y115.223 E1.05894
G1 X124.557 Y115.846 E1.08048
G1 X124.662 Y116.381 E1.09861
G1 X124.722 Y116.88 E1.11533
G1 X124.748 Y117.492 E1.1357
G1 X124.722 Y118.112 E1.15634
G1 X124.654 Y118.665 E1.17487
G1 X124.542 Y119.224 E1.19383
G1 X124.379 Y119.782 E1.21317
G1 X124.182 Y120.309 E1.23188
G1 X123.951 Y120.806 E1.25011
G1 X123.707 Y121.246 E1.26684
G1 X123.39 Y121.723 E1.28589
G1 X123.034 Y122.179 E1.30513
G1 X122.599 Y122.655 E1.32658
G1 X122.173 Y123.04 E1.34568
G1 X121.729 Y123.385 E1.36438
G1 X121.321 Y123.661 E1.38076
G1 X120.753 Y123.976 E1.40236
G1 X120.313 Y124.18 E1.4185
G1 X119.776 Y124.382 E1.43758
G1 X119.243 Y124.535 E1.45602
G1 X118.653 Y124.658 E1.47607
G1 X118.106 Y124.722 E1.49438
G1 X117.5 Y124.748 E1.51456
G0 F6000 X117.45 Y124.347
G1 F1200 X116.394 Y124.259 E1.5498
G1 X115.337 Y124.005 E1.58596
G1 X114.388 Y123.6 E1.62028
G1 X113.456 Y123.034 E1.65654
G1 X112.674 Y122.363 E1.69082
G1 X111.995 Y121.574 E1.72544
G1 X111.41 Y120.651 E1.76178
G1 X110.996 Y119.66 E1.79751
G1 X110.734 Y118.606 E1.83363
G1 X110.646 Y117.505 E1.87036
G1 X110.738 Y116.38 E1.90791
G1 X110.996 Y115.335 E1.94371
G1 X111.408 Y114.349 E1.97925
G1 X111.966 Y113.45 E2.01444
G1 X112.687 Y112.625 E2.05088
G1 X113.451 Y111.965 E2.08446
G1 X114.349 Y111.412 E2.11954
G1 X115.339 Y110.994 E2.15528
G1 X116.392 Y110.74 E2.19131
G1 X117.521 Y110.648 E2.22898
G1 X118.061 Y110.672 E2.24696
G1 X118.557 Y110.732 E2.26358
G1 X119.128 Y110.843 E2.28293
G1 X119.633 Y110.991 E2.30043
G1 X120.131 Y111.174 E2.31808
G1 X120.625 Y111.403 E2.33619
G1 X121.041 Y111.635 E2.35203
G1 X121.501 Y111.94 E2.37039
G1 X121.953 Y112.297 E2.38954
G1 X122.36 Y112.671 E2.40793
G1 X122.692 Y113.035 E2.42431
G1 X123.03 Y113.458 E2.44232
G1 X123.327 Y113.897 E2.45995
G1 X123.617 Y114.415 E2.4797
G1 X123.817 Y114.847 E2.49553
G1 X124.018 Y115.4 E2.5151
G1 X124.165 Y115.925 E2.53323
G1 X124.257 Y116.381 E2.54871
G1 X124.328 Y116.975 E2.5686
G1 X124.348 Y117.516 E2.58661
G1 X124.324 Y118.064 E2.60485
G1 X124.258 Y118.606 E2.62301
G1 X124.17 Y119.062 E2.63846
G1 X124.004 Y119.644 E2.65859
G1 X123.818 Y120.142 E2.67627
G1 X123.601 Y120.612 E2.69349
G1 X123.357 Y121.052 E2.71022
G1 X123.032 Y121.536 E2.72961
G1 X122.72 Y121.932 E2.74638
G1 X122.329 Y122.36 E2.76566
G1 X121.927 Y122.725 E2.78372
G1 X121.505 Y123.053 E2.8015
G1 X121.05 Y123.358 E2.81972
G1 X120.585 Y123.613 E2.83736
G1 X120.101 Y123.835 E2.85507
G1 X119.591 Y124.022 E2.87313
G1 X119.092 Y124.16 E2.89035
G1 X118.584 Y124.264 E2.9076
G1 X118.017 Y124.328 E2.92658
G1 X117.45 Y124.347 E2.94545
G1 F2700 E-2.05455
G0 F6000 X117.425 Y124.645
G0 X118.684 Y124.836
G0 X118.684 Y126.204
G0 X125.123 Y126.569
G0 X132.179 Y133.678
G0 X132.171 Y139.068
G0 X126.078 Y139.068
G0 X126.073 Y139.909
G0 X126.557 Y141.5
G1 F2700 E2.94545
G1 F1200 X139.257 Y141.5 E3.36785
G1 X139.649 Y141.466 E3.38094
G1 X139.988 Y141.383 E3.39255
G1 X140.306 Y141.249 E3.40402
G1 X140.588 Y141.074 E3.41506
G1 X140.85 Y140.85 E3.42653
G1 X141.074 Y140.588 E3.43799
G1 X141.249 Y140.305 E3.44906
G1 X141.383 Y139.992 E3.46038
G1 X141.466 Y139.65 E3.47209
G1 X141.5 Y139.257 E3.48521
G1 X141.5 Y126.959 E3.89424
G1 X140.845 Y126.248 E3.92639
G1 X138.984 Y126.248 E3.98829
G1 X138.984 Y131.458 E4.16158
G1 X138.931 Y131.665 E4.16868
G1 X138.785 Y131.941 E4.17907
G1 X138.585 Y132.141 E4.18848
G1 X138.369 Y132.264 E4.19674
G1 X138.111 Y132.34 E4.20569
G1 X133.768 Y132.34 E4.35014
G1 X133.482 Y132.299 E4.35975
G1 X133.136 Y132.123 E4.37266
G1 X126.444 Y125.419 E4.68771
G1 X126.233 Y125.107 E4.70024
G1 X126.152 Y124.811 E4.71045
G1 X126.152 Y110.224 E5.19561
G1 X126.195 Y109.933 E5.2054
G1 X126.371 Y109.589 E5.21825
G1 X133.063 Y102.942 E5.53196
G1 X133.414 Y102.716 E5.54585
G1 X133.708 Y102.653 E5.55585
G1 X138.11 Y102.652 E5.70226
G1 X138.369 Y102.728 E5.71124
G1 X138.585 Y102.851 E5.7195
G1 X138.784 Y103.051 E5.72889
G1 X138.931 Y103.327 E5.73929
G1 X138.984 Y103.652 E5.75024
G1 X138.984 Y108.748 E5.91973
G1 X140.947 Y108.748 E5.98502
G1 X141.5 Y108.243 E6.00993
G1 X141.5 Y95.74 E6.42578
G1 X141.466 Y95.35 E6.4388
G1 X141.382 Y95.005 E6.45061
G1 X141.252 Y94.693 E6.46186
G1 X141.075 Y94.409 E6.47299
G1 X140.85 Y94.146 E6.4845
G1 X140.586 Y93.921 E6.49604
G1 X140.309 Y93.747 E6.50692
G1 X139.989 Y93.613 E6.51845
G1 X139.656 Y93.531 E6.52986
G1 X139.261 Y93.5 E6.54304
G1 X126.844 Y93.5 E6.95603
G1 X126.248 Y94.215 E6.98699
G1 X126.248 Y96.148 E7.05128
G1 X131.34 Y96.148 E7.22064
G1 X131.665 Y96.201 E7.23159
G1 X131.941 Y96.348 E7.24199
G1 X132.14 Y96.548 E7.25138
G1 X132.264 Y96.763 E7.25963
G1 X132.34 Y97.021 E7.26858
G1 X132.34 Y101.364 E7.41303
G1 X132.295 Y101.662 E7.42305
G1 X132.091 Y102.026 E7.43693
G1 X125.388 Y108.722 E7.75205
G1 X125.084 Y108.913 E7.764
G1 X124.798 Y108.981 E7.77377
G1 X110.169 Y108.983 E8.26034
G1 X109.871 Y108.92 E8.27047
G1 X109.56 Y108.732 E8.28255
G1 X102.894 Y102.016 E8.59728
G1 X102.699 Y101.66 E8.61078
G1 X102.656 Y101.368 E8.6206
G1 X102.656 Y97.021 E8.76518
G1 X102.733 Y96.763 E8.77413
G1 X102.856 Y96.548 E8.78237
G1 X103.056 Y96.347 E8.7918
G1 X103.332 Y96.201 E8.80219
G1 X103.537 Y96.148 E8.80923
G1 X108.748 Y96.148 E8.98255
G1 X108.748 Y94.196 E9.04747
G1 X108.086 Y93.5 E9.07942
G1 X95.736 Y93.5 E9.49018
G1 X95.346 Y93.531 E9.5032
G1 X95.007 Y93.613 E9.5148
G1 X94.69 Y93.747 E9.52624
G1 X94.408 Y93.922 E9.53728
G1 X94.145 Y94.146 E9.54877
G1 X93.921 Y94.409 E9.56026
G1 X93.749 Y94.684 E9.57105
G1 X93.613 Y95.004 E9.58262
G1 X93.531 Y95.346 E9.59431
G1 X93.5 Y95.733 E9.60723
G1 X93.5 Y108.197 E10.02178
G1 X94.067 Y108.748 E10.04808
G1 X95.96 Y108.748 E10.11104
G1 X95.96 Y103.652 E10.28053
G1 X96.014 Y103.327 E10.29149
G1 X96.16 Y103.052 E10.30184
G1 X96.359 Y102.852 E10.31123
G1 X96.575 Y102.728 E10.31951
G1 X96.834 Y102.652 E10.32849
G1 X101.259 Y102.655 E10.47567
G1 X101.546 Y102.722 E10.48547
G1 X101.885 Y102.946 E10.49898
G1 X108.565 Y109.646 E10.81366
G1 X108.746 Y109.986 E10.82647
G1 X108.792 Y110.288 E10.83663
G1 X108.791 Y124.828 E11.32023
G1 X108.729 Y125.128 E11.33042
G1 X108.497 Y125.487 E11.34464
G1 X101.811 Y132.12 E11.65788
G1 X101.469 Y132.297 E11.67069
G1 X101.176 Y132.34 E11.68054
G1 X96.833 Y132.34 E11.82499
G1 X96.575 Y132.264 E11.83394
G1 X96.359 Y132.14 E11.84222
G1 X96.159 Y131.94 E11.85163
G1 X96.014 Y131.665 E11.86197
G1 X95.96 Y131.34 E11.87293
G1 X95.96 Y126.248 E12.04229
G1 X94.055 Y126.248 E12.10565
G1 X93.5 Y126.875 E12.1335
G1 X93.5 Y139.26 E12.54542
G1 X93.531 Y139.653 E12.55854
G1 X93.613 Y139.99 E12.57007
G1 X93.744 Y140.303 E12.58136
G1 X93.922 Y140.589 E12.59256
G1 X94.15 Y140.858 E12.60429
G1 X94.396 Y141.067 E12.61503
G1 X94.687 Y141.249 E12.62644
G1 X95.005 Y141.382 E12.63791
G1 X95.351 Y141.466 E12.64975
G1 X95.736 Y141.5 E12.6626
G1 X108.33 Y141.5 E13.08148
G1 X108.748 Y141.105 E13.10061
G1 X108.748 Y139.24 E13.16264
G1 X103.656 Y139.24 E13.332
G1 X103.271 Y139.164 E13.34505
G1 X102.966 Y138.965 E13.35717
G1 X102.773 Y138.711 E13.36778
G1 X102.656 Y138.395 E13.37898
G1 X102.659 Y133.945 E13.52699
G1 X102.726 Y133.656 E13.53686
G1 X102.916 Y133.35 E13.54884
G1 X109.615 Y126.663 E13.86366
G1 X109.985 Y126.45 E13.87786
G1 X110.288 Y126.404 E13.88805
G1 X124.776 Y126.403 E14.36992
G1 X125.054 Y126.443 E14.37926
G1 X125.414 Y126.626 E14.3927
G1 X132.074 Y133.34 E14.70723
G1 X132.266 Y133.641 E14.71911
G1 X132.336 Y133.921 E14.72871
G1 X132.34 Y138.395 E14.87751
G1 X132.223 Y138.711 E14.88872
G1 X132.03 Y138.965 E14.89933
G1 X131.725 Y139.164 E14.91144
G1 X131.465 Y139.24 E14.92045
G1 X126.248 Y139.24 E15.09397
G1 X126.248 Y141.184 E15.15863
G1 X126.557 Y141.5 E15.17333
G0 F6000 X126.389 Y141.9
G1 F1200 X139.274 Y141.9 E15.60189
G1 X139.714 Y141.862 E15.61658
G1 X140.114 Y141.764 E15.63027
G1 X140.491 Y141.605 E15.64388
G1 X140.825 Y141.398 E15.65695
G1 X141.134 Y141.134 E15.67047
G1 X141.398 Y140.825 E15.68399
G1 X141.605 Y140.49 E15.69708
G1 X141.764 Y140.118 E15.71054
G1 X141.862 Y139.715 E15.72433
G1 X141.9 Y139.274 E15.73906
G1 X141.9 Y126.803 E16.15384
G1 X141.02 Y125.848 E16.19704
G1 X138.584 Y125.848 E16.27806
G1 X138.584 Y131.414 E16.46318
G1 X138.465 Y131.701 E16.47352
G1 X138.345 Y131.821 E16.47916
G1 X138.063 Y131.94 E16.48934
G1 X133.643 Y131.94 E16.63635
G1 X133.405 Y131.819 E16.64523
G1 X126.727 Y125.136 E16.95946
G1 X126.6 Y124.949 E16.96698
G1 X126.556 Y124.787 E16.97256
G1 X126.552 Y110.098 E17.46112
G1 X126.676 Y109.857 E17.47014
G1 X133.345 Y103.226 E17.78293
G1 X133.555 Y103.09 E17.79125
G1 X133.732 Y103.053 E17.79727
G1 X138.062 Y103.052 E17.94128
G1 X138.345 Y103.171 E17.9515
G1 X138.464 Y103.291 E17.95712
G1 X138.552 Y103.457 E17.96337
G1 X138.584 Y103.652 E17.96994
G1 X138.584 Y109.148 E18.15274
G1 X141.102 Y109.148 E18.23648
G1 X141.9 Y108.419 E18.27243
G1 X141.9 Y95.722 E18.69474
G1 X141.862 Y95.286 E18.70929
G1 X141.764 Y94.88 E18.72319
G1 X141.609 Y94.509 E18.73656
G1 X141.398 Y94.172 E18.74978
G1 X141.134 Y93.862 E18.76333
G1 X140.823 Y93.598 E18.77689
G1 X140.494 Y93.391 E18.78982
G1 X140.115 Y93.232 E18.80349
G1 X139.72 Y93.135 E18.81702
G1 X139.276 Y93.1 E18.83183
G1 X126.657 Y93.1 E19.25154
G1 X125.848 Y94.07 E19.29355
G1 X125.848 Y96.548 E19.37597
G1 X131.34 Y96.548 E19.55864
G1 X131.535 Y96.58 E19.56521
G1 X131.701 Y96.668 E19.57146
G1 X131.82 Y96.788 E19.57708
G1 X131.94 Y97.069 E19.58724
G1 X131.94 Y101.495 E19.73445
G1 X131.791 Y101.761 E19.74459
G1 X125.118 Y108.427 E20.05831
G1 X124.935 Y108.542 E20.06549
G1 X124.764 Y108.582 E20.07134
G1 X110.191 Y108.584 E20.55604
G1 X110.012 Y108.546 E20.56212
G1 X109.825 Y108.433 E20.56939
G1 X103.198 Y101.757 E20.88226
G1 X103.056 Y101.498 E20.89208
G1 X103.056 Y97.069 E21.03939
G1 X103.176 Y96.788 E21.04955
G1 X103.296 Y96.667 E21.05522
G1 X103.582 Y96.548 E21.06552
G1 X109.148 Y96.548 E21.25065
G1 X109.148 Y94.036 E21.3342
G1 X108.258 Y93.1 E21.37716
G1 X95.72 Y93.1 E21.79417
G1 X95.283 Y93.135 E21.80875
G1 X94.881 Y93.232 E21.82251
G1 X94.505 Y93.391 E21.83609
G1 X94.171 Y93.598 E21.84916
G1 X93.862 Y93.862 E21.86267
G1 X93.598 Y94.172 E21.87622
G1 X93.394 Y94.499 E21.88904
G1 X93.232 Y94.878 E21.90274
G1 X93.135 Y95.283 E21.9166
G1 X93.1 Y95.717 E21.93108
G1 X93.1 Y108.366 E22.35178
G1 X93.904 Y109.148 E22.38909
G1 X96.36 Y109.148 E22.47078
G1 X96.36 Y103.652 E22.65357
G1 X96.392 Y103.457 E22.66015
G1 X96.599 Y103.172 E22.67186
G1 X96.881 Y103.052 E22.68205
G1 X101.226 Y103.054 E22.82657
G1 X101.398 Y103.094 E22.83244
G1 X101.602 Y103.228 E22.84056
G1 X108.262 Y109.914 E23.15444
G1 X108.364 Y110.106 E23.16167
G1 X108.392 Y110.288 E23.16779
G1 X108.392 Y124.807 E23.6507
G1 X108.355 Y124.987 E23.65681
G1 X108.215 Y125.203 E23.66537
G1 X101.544 Y131.815 E23.97777
G1 X101.302 Y131.94 E23.98683
G1 X96.881 Y131.94 E24.13387
G1 X96.599 Y131.82 E24.14407
G1 X96.479 Y131.7 E24.14971
G1 X96.392 Y131.535 E24.15591
G1 X96.36 Y131.34 E24.16249
G1 X96.36 Y125.848 E24.34515
G1 X93.875 Y125.848 E24.4278
G1 X93.1 Y126.724 E24.46671
G1 X93.1 Y139.276 E24.88419
G1 X93.135 Y139.716 E24.89887
G1 X93.232 Y140.116 E24.91256
G1 X93.387 Y140.487 E24.92593
G1 X93.598 Y140.825 E24.93918
G1 X93.866 Y141.142 E24.95299
G1 X94.16 Y141.39 E24.96578
G1 X94.502 Y141.605 E24.97922
G1 X94.88 Y141.764 E24.99286
G1 X95.286 Y141.862 E25.00675
G1 X95.719 Y141.9 E25.02121
G1 X108.489 Y141.9 E25.44594
G1 X109.148 Y141.277 E25.4761
G1 X109.148 Y138.84 E25.55715
G1 X103.656 Y138.84 E25.73982
G1 X103.425 Y138.794 E25.74765
G1 X103.242 Y138.675 E25.75491
G1 X103.126 Y138.523 E25.76127
G1 X103.056 Y138.334 E25.76798
G1 X103.057 Y133.976 E25.91292
G1 X103.098 Y133.803 E25.91884
G1 X103.212 Y133.619 E25.92604
G1 X109.884 Y126.959 E26.23959
G1 X110.106 Y126.832 E26.24809
G1 X110.288 Y126.804 E26.25422
G1 X124.896 Y126.803 E26.74008
G1 X125.144 Y126.93 E26.74935
G1 X131.78 Y133.612 E27.06257
G1 X131.896 Y133.793 E27.06972
G1 X131.938 Y133.96 E27.07545
G1 X131.94 Y138.334 E27.22093
G1 X131.87 Y138.523 E27.22763
G1 X131.754 Y138.675 E27.23399
G1 X131.571 Y138.794 E27.24125
G1 X131.417 Y138.84 E27.2466
G1 X125.848 Y138.84 E27.43182
G1 X125.848 Y141.347 E27.5152
G1 X126.389 Y141.9 E27.54093
G0 F6000 X126.221 Y142.3
;TYPE:WALL-OUTER
G1 F1200 X139.291 Y142.3 E27.97564
G1 X139.779 Y142.258 E27.99194
G1 X140.24 Y142.145 E28.00772
G1 X140.675 Y141.961 E28.02343
G1 X141.061 Y141.722 E28.03853
G1 X141.418 Y141.418 E28.05413
G1 X141.722 Y141.061 E28.06972
G1 X141.961 Y140.675 E28.08482
G1 X142.145 Y140.244 E28.10041
G1 X142.258 Y139.779 E28.11633
G1 X142.3 Y139.291 E28.13262
G1 X142.3 Y126.647 E28.55316
G1 X141.196 Y125.448 E28.60737
G1 X138.184 Y125.448 E28.70755
G1 X138.182 Y131.375 E28.90468
G1 X138.105 Y131.501 E28.90959
G1 X138.021 Y131.537 E28.91263
G1 X133.725 Y131.54 E29.05552
G1 X133.641 Y131.496 E29.05867
G1 X127.01 Y124.854 E29.37083
G1 X126.953 Y124.737 E29.37516
G1 X126.952 Y110.181 E29.85929
G1 X126.993 Y110.101 E29.86228
G1 X133.685 Y103.452 E30.17605
G1 X138.021 Y103.455 E30.32026
G1 X138.105 Y103.491 E30.3233
G1 X138.184 Y103.601 E30.32781
G1 X138.184 Y109.548 E30.5256
G1 X141.258 Y109.548 E30.62785
G1 X142.3 Y108.595 E30.67481
G1 X142.3 Y95.705 E31.10353
G1 X142.258 Y95.221 E31.11969
G1 X142.145 Y94.755 E31.13564
G1 X141.965 Y94.325 E31.15115
G1 X141.722 Y93.935 E31.16643
G1 X141.418 Y93.578 E31.18202
G1 X141.061 Y93.274 E31.19762
G1 X140.679 Y93.035 E31.21261
G1 X140.241 Y92.851 E31.22841
G1 X139.784 Y92.739 E31.24406
G1 X139.292 Y92.7 E31.26047
G1 X126.47 Y92.7 E31.68693
G1 X125.448 Y93.925 E31.74
G1 X125.448 Y96.948 E31.84054
G1 X131.386 Y96.948 E32.03804
G1 X131.5 Y97.028 E32.04267
G1 X131.537 Y97.111 E32.04569
G1 X131.54 Y101.408 E32.18861
G1 X131.491 Y101.497 E32.19199
G1 X124.848 Y108.132 E32.50427
G1 X124.73 Y108.184 E32.50856
G1 X110.141 Y108.184 E32.99379
G1 X103.503 Y101.498 E33.30715
G1 X103.456 Y101.412 E33.31041
G1 X103.459 Y97.111 E33.45347
G1 X103.536 Y96.987 E33.45832
G1 X103.621 Y96.95 E33.4614
G1 X109.548 Y96.948 E33.65854
G1 X109.548 Y93.876 E33.76071
G1 X108.43 Y92.7 E33.81468
G1 X95.704 Y92.7 E34.23795
G1 X95.22 Y92.739 E34.2541
G1 X94.755 Y92.851 E34.27001
G1 X94.321 Y93.035 E34.28569
G1 X93.935 Y93.274 E34.30079
G1 X93.578 Y93.578 E34.31638
