;FLAVOR:Marlin
;TIME:1739
;Filament used: 1.0214m
;Layer height: 0.2
;MINX:112.7
;MINY:92.7
;MINZ:0.2
;MAXX:142.3
;MAXY:142.3
;MAXZ:10
;TARGET_MACHINE.NAME:Creality Ender-3
;Generated with Cura_SteamEngine 5.7.1
M140 S50
M105
M190 S50
M104 S200
M105
M109 S200
M82 ;absolute extrusion mode
; Ender 3 Custom Start G-code
G92 E0 ; Reset Extruder
G28 ; Home all axes
G1 Z2.0 F3000 ; Move Z Axis up little to prevent scratching of Heat Bed
G1 X0.1 Y20 Z0.3 F5000.0 ; Move to start position
G1 X0.1 Y200.0 Z0.3 F1500.0 E15 ; Draw the first line
G1 X0.4 Y200.0 Z0.3 F5000.0 ; Move to side a little
G1 X0.4 Y20 Z0.3 F1500.0 E30 ; Draw the second line
G92 E0 ; Reset Extruder
G1 Z2.0 F3000 ; Move Z Axis up little to prevent scratching of Heat Bed
G1 X5 Y20 Z0.3 F5000.0 ; Move over to prevent blob squish
G92 E0
G92 E0
G1 F2700 E-5
;LAYER_COUNT:50
;LAYER:0
M107
;MESH:Cube.stl(3)
G0 F6000 X121.9 Y101.9 Z0.2
;TYPE:WALL-INNER
G1 F2700 E0
G1 F1200 X121.9 Y93.1 E0.29269
G1 X113.1 Y93.1 E0.58538
G1 X113.1 Y101.9 E0.87807
G1 X121.9 Y101.9 E1.17076
G0 F6000 X122.3 Y102.3
;TYPE:WALL-OUTER
G1 F1200 X122.3 Y92.7 E1.49005
G1 X112.7 Y92.7 E1.80935
G1 X112.7 Y102.3 E2.12865
G1 X122.3 Y102.3 E2.44795
G0 F6000 X122.03 Y102.03
G0 X121.8 Y101.54
G0 X121.54 Y101.54
;TYPE:SKIN
G1 F1200 X113.46 Y101.54 E2.71669
G1 X113.46 Y93.46 E2.98543
G1 X121.54 Y93.46 E3.25417
G1 X121.54 Y101.54 E3.52291
G0 F6000 X121.8 Y101.54
G0 X121.728 Y93.272
G0 X120.813 Y93.2
G0 X120.813 Y93.66
G1 F1200 X121.34 Y94.187 E3.5477
G0 F6000 X121.34 Y94.753
G1 F1200 X120.247 Y93.66 E3.59911
G0 F6000 X119.681 Y93.66
G1 F1200 X121.34 Y95.319 E3.67715
G0 F6000 X121.34 Y95.884
G1 F1200 X119.116 Y93.66 E3.78176
G0 F6000 X118.55 Y93.66
G1 F1200 X121.34 Y96.45 E3.91299
G0 F6000 X121.34 Y97.016
G1 F1200 X117.984 Y93.66 E4.07085
G0 F6000 X117.419 Y93.66
G1 F1200 X121.34 Y97.581 E4.25528
G0 F6000 X121.34 Y98.147
G1 F1200 X116.853 Y93.66 E4.46633
G0 F6000 X116.287 Y93.66
G1 F1200 X121.34 Y98.713 E4.70401
G0 F6000 X121.34 Y99.278
G1 F1200 X115.722 Y93.66 E4.96826
G0 F6000 X115.156 Y93.66
G1 F1200 X121.34 Y99.844 E5.25914
G0 F6000 X121.34 Y100.41
G1 F1200 X114.59 Y93.66 E5.57664
G0 F6000 X114.025 Y93.66
G1 F1200 X121.34 Y100.976 E5.92074
G0 F6000 X121.139 Y101.34
G1 F1200 X113.66 Y93.861 E6.27253
G0 F6000 X113.66 Y94.426
G1 F1200 X120.573 Y101.34 E6.59772
G0 F6000 X120.007 Y101.34
G1 F1200 X113.66 Y94.992 E6.89628
G0 F6000 X113.66 Y95.558
G1 F1200 X119.442 Y101.34 E7.16825
G0 F6000 X118.876 Y101.34
G1 F1200 X113.66 Y96.123 E7.41362
G0 F6000 X113.66 Y96.689
G1 F1200 X118.31 Y101.34 E7.63237
G0 F6000 X117.745 Y101.34
G1 F1200 X113.66 Y97.255 E7.82451
G0 F6000 X113.66 Y97.82
G1 F1200 X117.179 Y101.34 E7.99006
G0 F6000 X116.613 Y101.34
G1 F1200 X113.66 Y98.386 E8.12898
G0 F6000 X113.66 Y98.952
G1 F1200 X116.048 Y101.34 E8.24131
G0 F6000 X115.482 Y101.34
G1 F1200 X113.66 Y99.518 E8.32701
G0 F6000 X113.66 Y100.083
G1 F1200 X114.916 Y101.34 E8.38611
G0 F6000 X114.35 Y101.34
G1 F1200 X113.66 Y100.649 E8.41859
G0 F6000 X113.66 Y101.215
G1 F1200 X113.785 Y101.34 E8.42447
G1 F2700 E3.42447
;MESH:Cube.stl
G0 F6000 X113.785 Y101.8
G0 X121.9 Y102.08
G0 X121.9 Y103.165
G0 X121.9 Y111.835
G0 X121.9 Y121.9
;TYPE:WALL-INNER
G1 F2700 E8.42447
G1 F1200 X121.9 Y113.1 E8.71716
G1 X113.1 Y113.1 E9.00985
G1 X113.1 Y121.9 E9.30254
G1 X121.9 Y121.9 E9.59522
G0 F6000 X122.3 Y122.3
;TYPE:WALL-OUTER
G1 F1200 X122.3 Y112.7 E9.91452
G1 X112.7 Y112.7 E10.23382
G1 X112.7 Y122.3 E10.55312
G1 X122.3 Y122.3 E10.87241
G0 F6000 X122.03 Y122.03
G0 X121.8 Y121.54
G0 X121.54 Y121.54
;TYPE:SKIN
G1 F1200 X113.46 Y121.54 E11.14116
G1 X113.46 Y113.46 E11.4099
G1 X121.54 Y113.46 E11.67864
G1 X121.54 Y121.54 E11.94738
G0 F6000 X121.8 Y121.54
G0 X121.728 Y113.272
G0 X121.014 Y113.2
G0 X121.014 Y113.66
G1 F1200 X121.34 Y113.986 E11.96272
G0 F6000 X121.34 Y114.552
G1 F1200 X120.449 Y113.66 E12.00465
G0 F6000 X119.883 Y113.66
G1 F1200 X121.34 Y115.118 E12.07321
G0 F6000 X121.34 Y115.683
G1 F1200 X119.317 Y113.66 E12.16836
G0 F6000 X118.752 Y113.66
G1 F1200 X121.34 Y116.249 E12.29012
G0 F6000 X121.34 Y116.815
G1 F1200 X118.186 Y113.66 E12.43849
G0 F6000 X117.62 Y113.66
G1 F1200 X121.34 Y117.38 E12.61347
G0 F6000 X121.34 Y117.946
G1 F1200 X117.054 Y113.66 E12.81507
G0 F6000 X116.489 Y113.66
G1 F1200 X121.34 Y118.512 E13.04327
G0 F6000 X121.34 Y119.077
G1 F1200 X115.923 Y113.66 E13.29807
G0 F6000 X115.357 Y113.66
G1 F1200 X121.34 Y119.643 E13.57949
G0 F6000 X121.34 Y120.209
G1 F1200 X114.792 Y113.66 E13.88751
G0 F6000 X114.226 Y113.66
G1 F1200 X121.34 Y120.775 E14.22216
G0 F6000 X121.34 Y121.34
G1 F1200 X113.66 Y113.66 E14.5834
G0 F6000 X113.66 Y114.225
G1 F1200 X120.775 Y121.34 E14.91807
G0 F6000 X120.209 Y121.34
G1 F1200 X113.66 Y114.791 E15.22611
G0 F6000 X113.66 Y115.357
G1 F1200 X119.643 Y121.34 E15.50754
G0 F6000 X119.077 Y121.34
G1 F1200 X113.66 Y115.922 E15.76236
G0 F6000 X113.66 Y116.488
G1 F1200 X118.512 Y121.34 E15.99058
G0 F6000 X117.946 Y121.34
G1 F1200 X113.66 Y117.054 E16.19218
G0 F6000 X113.66 Y117.619
G1 F1200 X117.38 Y121.34 E16.36718
G0 F6000 X116.815 Y121.34
G1 F1200 X113.66 Y118.185 E16.51558
G0 F6000 X113.66 Y118.751
G1 F1200 X116.249 Y121.34 E16.63736
G0 F6000 X115.683 Y121.34
G1 F1200 X113.66 Y119.316 E16.73254
G0 F6000 X113.66 Y119.882
G1 F1200 X115.118 Y121.34 E16.80112
G0 F6000 X114.552 Y121.34
G1 F1200 X113.66 Y120.448 E16.84308
G0 F6000 X113.66 Y121.014
G1 F1200 X113.986 Y121.34 E16.85841
G1 F2700 E11.85841
;MESH:Cube.stl(1)
G0 F6000 X113.986 Y121.8
G0 X122.08 Y121.9
G0 X123.165 Y121.9
G0 X131.835 Y121.9
G0 X133.1 Y121.9
;TYPE:WALL-INNER
G1 F2700 E16.85841
G1 F1200 X141.9 Y121.9 E17.1511
G1 X141.9 Y113.1 E17.44379
G1 X133.1 Y113.1 E17.73648
G1 X133.1 Y121.9 E18.02917
G0 F6000 X132.7 Y122.3
;TYPE:WALL-OUTER
G1 F1200 X142.3 Y122.3 E18.34847
G1 X142.3 Y112.7 E18.66776
G1 X132.7 Y112.7 E18.98706
G1 X132.7 Y122.3 E19.30636
G0 F6000 X132.97 Y122.03
G0 X133.2 Y121.54
G0 X133.46 Y121.54
;TYPE:SKIN
G1 F1200 X133.46 Y113.46 E19.5751
G1 X141.54 Y113.46 E19.84384
G1 X141.54 Y121.54 E20.11259
G1 X133.46 Y121.54 E20.38133
G0 F6000 X133.66 Y121.215
G1 F1200 X133.785 Y121.34 E20.38721
G0 F6000 X134.35 Y121.34
G1 F1200 X133.66 Y120.649 E20.41969
G0 F6000 X133.66 Y120.084
G1 F1200 X134.916 Y121.34 E20.47876
G0 F6000 X135.482 Y121.34
G1 F1200 X133.66 Y119.518 E20.56447
G0 F6000 X133.66 Y118.952
G1 F1200 X136.047 Y121.34 E20.67677
G0 F6000 X136.613 Y121.34
G1 F1200 X133.66 Y118.387 E20.81567
G0 F6000 X133.66 Y117.821
G1 F1200 X137.179 Y121.34 E20.98119
G0 F6000 X137.744 Y121.34
G1 F1200 X133.66 Y117.255 E21.17331
G0 F6000 X133.66 Y116.69
G1 F1200 X138.31 Y121.34 E21.39203
G0 F6000 X138.876 Y121.34
G1 F1200 X133.66 Y116.124 E21.63738
G0 F6000 X133.66 Y115.558
G1 F1200 X139.441 Y121.34 E21.90932
G0 F6000 X140.007 Y121.34
G1 F1200 X133.66 Y114.993 E22.20787
G0 F6000 X133.66 Y114.427
G1 F1200 X140.573 Y121.34 E22.53303
G0 F6000 X141.139 Y121.34
G1 F1200 X133.66 Y113.861 E22.88482
G0 F6000 X134.025 Y113.66
G1 F1200 X141.34 Y120.975 E23.2289
G0 F6000 X141.34 Y120.41
G1 F1200 X134.591 Y113.66 E23.54637
G0 F6000 X135.156 Y113.66
G1 F1200 X141.34 Y119.844 E23.83725
G0 F6000 X141.34 Y119.278
G1 F1200 X135.722 Y113.66 E24.1015
G0 F6000 X136.288 Y113.66
G1 F1200 X141.34 Y118.713 E24.33916
G0 F6000 X141.34 Y118.147
G1 F1200 X136.853 Y113.66 E24.55021
G0 F6000 X137.419 Y113.66
G1 F1200 X141.34 Y117.581 E24.73464
G0 F6000 X141.34 Y117.016
G1 F1200 X137.985 Y113.66 E24.89247
G0 F6000 X138.551 Y113.66
G1 F1200 X141.34 Y116.45 E25.02368
G0 F6000 X141.34 Y115.884
G1 F1200 X139.116 Y113.66 E25.12829
G0 F6000 X139.682 Y113.66
G1 F1200 X141.34 Y115.319 E25.20631
G0 F6000 X141.34 Y114.753
G1 F1200 X140.248 Y113.66 E25.25769
G0 F6000 X140.813 Y113.66
G1 F1200 X141.34 Y114.187 E25.28248
G1 F2700 E20.28248
;MESH:Cube.stl(2)
G0 F6000 X141.8 Y114.187
G0 X141.728 Y113.272
G0 X133.1 Y112.92
G0 X133.1 Y111.835
G0 X133.1 Y103.165
G0 X133.1 Y101.9
;TYPE:WALL-INNER
G1 F2700 E25.28248
G1 F1200 X141.9 Y101.9 E25.57517
G1 X141.9 Y93.1 E25.86786
G1 X133.1 Y93.1 E26.16055
G1 X133.1 Y101.9 E26.45324
G0 F6000 X132.7 Y102.3
;TYPE:WALL-OUTER
G1 F1200 X142.3 Y102.3 E26.77254
G1 X142.3 Y92.7 E27.09183
G1 X132.7 Y92.7 E27.41113
G1 X132.7 Y102.3 E27.73043
G0 F6000 X132.97 Y102.03
G0 X133.2 Y101.54
G0 X133.46 Y101.54
;TYPE:SKIN
G1 F1200 X133.46 Y93.46 E27.99917
G1 X141.54 Y93.46 E28.26791
G1 X141.54 Y101.54 E28.53665
G1 X133.46 Y101.54 E28.8054
G0 F6000 X134.149 Y101.34
G1 F1200 X133.66 Y100.85 E28.82842
G0 F6000 X133.66 Y100.285
G1 F1200 X134.715 Y101.34 E28.87804
G0 F6000 X135.281 Y101.34
G1 F1200 X133.66 Y99.719 E28.95429
G0 F6000 X133.66 Y99.153
G1 F1200 X135.847 Y101.34 E29.05716
G0 F6000 X136.412 Y101.34
G1 F1200 X133.66 Y98.588 E29.18661
G0 F6000 X133.66 Y98.022
G1 F1200 X136.978 Y101.34 E29.34267
G0 F6000 X137.544 Y101.34
G1 F1200 X133.66 Y97.456 E29.52537
G0 F6000 X133.66 Y96.891
G1 F1200 X138.109 Y101.34 E29.73463
G0 F6000 X138.675 Y101.34
G1 F1200 X133.66 Y96.325 E29.97052
G0 F6000 X133.66 Y95.759
G1 F1200 X139.241 Y101.34 E30.23304
G0 F6000 X139.806 Y101.34
G1 F1200 X133.66 Y95.194 E30.52213
G0 F6000 X133.66 Y94.628
G1 F1200 X140.372 Y101.34 E30.83784
G0 F6000 X140.938 Y101.34
G1 F1200 X133.66 Y94.062 E31.18017
G0 F6000 X133.824 Y93.661
G1 F1200 X141.34 Y101.176 E31.53368
G0 F6000 X141.34 Y100.611
G1 F1200 X134.39 Y93.661 E31.86059
G0 F6000 X134.956 Y93.661
G1 F1200 X141.34 Y100.045 E32.16087
G0 F6000 X141.34 Y99.479
G1 F1200 X135.521 Y93.661 E32.43455
G0 F6000 X136.087 Y93.661
G1 F1200 X141.34 Y98.914 E32.68164
G0 F6000 X141.34 Y98.348
G1 F1200 X136.653 Y93.661 E32.9021
G0 F6000 X137.218 Y93.661
G1 F1200 X141.34 Y97.782 E33.09596
G0 F6000 X141.34 Y97.217
G1 F1200 X137.784 Y93.661 E33.26323
G0 F6000 X138.35 Y93.661
G1 F1200 X141.34 Y96.651 E33.40387
G0 F6000 X141.34 Y96.085
G1 F1200 X138.915 Y93.661 E33.51791
G0 F6000 X139.481 Y93.661
G1 F1200 X141.34 Y95.52 E33.60535
G0 F6000 X141.34 Y94.954
G1 F1200 X140.047 Y93.661 E33.66617
G0 F6000 X140.612 Y93.661
G1 F1200 X141.34 Y94.388 E33.70039
G0 F6000 X141.34 Y93.822
G1 F1200 X141.178 Y93.661 E33.70798
G1 F2700 E28.70798
;MESH:Cube.stl(4)
G0 F6000 X141.178 Y93.2
G0 X133.272 Y93.272
G0 X133.1 Y102.08
G0 X133.1 Y103.165
G0 X131.847 Y111.847
G0 X131.847 Y123.153
G0 X133.1 Y131.835
G0 X133.1 Y141.9
;TYPE:WALL-INNER
G1 F2700 E33.70798
G1 F1200 X141.9 Y141.9 E34.00067
G1 X141.9 Y133.1 E34.29336
G1 X133.1 Y133.1 E34.58605
G1 X133.1 Y141.9 E34.87874
G0 F6000 X132.7 Y142.3
;TYPE:WALL-OUTER
G1 F1200 X142.3 Y142.3 E35.19804
G1 X142.3 Y132.7 E35.51734
G1 X132.7 Y132.7 E35.83663
G1 X132.7 Y142.3 E36.15593
G0 F6000 X132.97 Y142.03
G0 X133.2 Y141.54
G0 X133.46 Y141.54
;TYPE:SKIN
G1 F1200 X133.46 Y133.46 E36.42467
G1 X141.54 Y133.46 E36.69341
G1 X141.54 Y141.54 E36.96216
G1 X133.46 Y141.54 E37.2309
G0 F6000 X133.986 Y141.34
G1 F1200 X133.659 Y141.013 E37.24628
G0 F6000 X133.659 Y140.448
G1 F1200 X134.552 Y141.34 E37.28826
G0 F6000 X135.117 Y141.34
G1 F1200 X133.659 Y139.882 E37.35684
G0 F6000 X133.659 Y139.316
G1 F1200 X135.683 Y141.34 E37.45204
G0 F6000 X136.249 Y141.34
G1 F1200 X133.659 Y138.751 E37.57384
G0 F6000 X133.659 Y138.185
G1 F1200 X136.815 Y141.34 E37.72227
G0 F6000 X137.38 Y141.34
G1 F1200 X133.659 Y137.619 E37.89729
G0 F6000 X133.659 Y137.054
G1 F1200 X137.946 Y141.34 E38.09892
G0 F6000 X138.512 Y141.34
G1 F1200 X133.659 Y136.488 E38.32716
G0 F6000 X133.659 Y135.922
G1 F1200 X139.077 Y141.34 E38.58201
G0 F6000 X139.643 Y141.34
G1 F1200 X133.659 Y135.357 E38.86346
G0 F6000 X133.659 Y134.791
G1 F1200 X140.209 Y141.34 E39.17152
G0 F6000 X140.774 Y141.34
G1 F1200 X133.659 Y134.225 E39.50619
G0 F6000 X133.66 Y133.66
G1 F1200 X141.34 Y141.34 E39.86744
G0 F6000 X141.34 Y140.774
G1 F1200 X134.226 Y133.66 E40.20206
G0 F6000 X134.792 Y133.66
G1 F1200 X141.34 Y140.209 E40.51008
G0 F6000 X141.34 Y139.643
G1 F1200 X135.357 Y133.66 E40.7915
G0 F6000 X135.923 Y133.66
G1 F1200 X141.34 Y139.077 E41.0463
G0 F6000 X141.34 Y138.512
G1 F1200 X136.489 Y133.66 E41.2745
G0 F6000 X137.054 Y133.66
G1 F1200 X141.34 Y137.946 E41.4761
G0 F6000 X141.34 Y137.38
G1 F1200 X137.62 Y133.66 E41.65108
G0 F6000 X138.186 Y133.66
G1 F1200 X141.34 Y136.815 E41.79945
G0 F6000 X141.34 Y136.249
G1 F1200 X138.751 Y133.66 E41.92123
G0 F6000 X139.317 Y133.66
G1 F1200 X141.34 Y135.683 E42.01639
G0 F6000 X141.34 Y135.117
G1 F1200 X139.883 Y133.66 E42.08492
G0 F6000 X140.448 Y133.66
G1 F1200 X141.34 Y134.552 E42.12688
G0 F6000 X141.34 Y133.986
G1 F1200 X141.014 Y133.66 E42.14221
G1 F2700 E37.14221
;MESH:Cube.stl(5)
G0 F6000 X141.014 Y133.2
G0 X133.272 Y133.272
G0 X132.92 Y141.9
G0 X131.835 Y141.9
G0 X123.165 Y141.9
G0 X121.9 Y141.9
;TYPE:WALL-INNER
G1 F2700 E42.14221
G1 F1200 X121.9 Y133.1 E42.4349
G1 X113.1 Y133.1 E42.72759
G1 X113.1 Y141.9 E43.02028
G1 X121.9 Y141.9 E43.31297
G0 F6000 X122.3 Y142.3
;TYPE:WALL-OUTER
G1 F1200 X122.3 Y132.7 E43.63227
G1 X112.7 Y132.7 E43.95156
G1 X112.7 Y142.3 E44.27086
G1 X122.3 Y142.3 E44.59016
G0 F6000 X122.03 Y142.03
G0 X121.8 Y141.54
G0 X121.54 Y141.54
;TYPE:SKIN
G1 F1200 X113.46 Y141.54 E44.8589
G1 X113.46 Y133.46 E45.12764
G1 X121.54 Y133.46 E45.39638
G1 X121.54 Y141.54 E45.66513
G0 F6000 X121.8 Y141.54
G0 X121.728 Y133.272
G0 X121.215 Y133.2
G0 X121.215 Y133.66
G1 F1200 X121.34 Y133.785 E45.67101
G0 F6000 X121.34 Y134.351
G1 F1200 X120.649 Y133.66 E45.70351
G0 F6000 X120.084 Y133.66
G1 F1200 X121.34 Y134.917 E45.76261
G0 F6000 X121.34 Y135.482
G1 F1200 X119.518 Y133.66 E45.84831
G0 F6000 X118.952 Y133.66
G1 F1200 X121.34 Y136.048 E45.96064
G0 F6000 X121.34 Y136.614
G1 F1200 X118.387 Y133.66 E46.09956
G0 F6000 X117.821 Y133.66
G1 F1200 X121.34 Y137.179 E46.26508
G0 F6000 X121.34 Y137.745
G1 F1200 X117.255 Y133.66 E46.45723
G0 F6000 X116.69 Y133.66
G1 F1200 X121.34 Y138.311 E46.67597
G0 F6000 X121.34 Y138.876
G1 F1200 X116.124 Y133.66 E46.92132
G0 F6000 X115.558 Y133.66
G1 F1200 X121.34 Y139.442 E47.19329
G0 F6000 X121.34 Y140.008
G1 F1200 X114.993 Y133.66 E47.49185
G0 F6000 X114.427 Y133.66
G1 F1200 X121.34 Y140.574 E47.81704
G0 F6000 X121.34 Y141.139
G1 F1200 X113.861 Y133.66 E48.16883
G0 F6000 X113.66 Y134.024
G1 F1200 X120.975 Y141.34 E48.51293
G0 F6000 X120.41 Y141.34
G1 F1200 X113.66 Y134.59 E48.83043
G0 F6000 X113.66 Y135.156
G1 F1200 X119.844 Y141.34 E49.12131
G0 F6000 X119.278 Y141.34
G1 F1200 X113.66 Y135.721 E49.38558
G0 F6000 X113.66 Y136.287
G1 F1200 X118.713 Y141.34 E49.62326
G0 F6000 X118.147 Y141.34
G1 F1200 X113.66 Y136.853 E49.83431
G0 F6000 X113.66 Y137.418
G1 F1200 X117.581 Y141.34 E50.01877
G0 F6000 X117.016 Y141.34
G1 F1200 X113.66 Y137.984 E50.17663
G0 F6000 X113.66 Y138.55
G1 F1200 X116.45 Y141.34 E50.30786
G0 F6000 X115.884 Y141.34
G1 F1200 X113.66 Y139.115 E50.41249
G0 F6000 X113.66 Y139.681
G1 F1200 X115.319 Y141.34 E50.49053
G0 F6000 X114.753 Y141.34
G1 F1200 X113.66 Y140.247 E50.54194
G0 F6000 X113.66 Y140.813
G1 F1200 X114.187 Y141.34 E50.56673
G1 F2700 E45.56673
;MESH:NONMESH
G0 F300 X114.187 Y141.34 Z0.4
G0 F6000 X114.187 Y141.8
G0 X121.728 Y141.728
G0 X121.9 Y132.92
G0 X121.9 Y131.835
G0 X123.153 Y123.153
G0 X123.153 Y111.847
G0 X121.9 Y103.165
G0 X121.9 Y101.9
;TIME_ELAPSED:101.168777
;LAYER:1
M106 S85
;TYPE:WALL-INNER
;MESH:Cube.stl(3)
G1 F2700 E50.56673
G1 F1350 X121.9 Y93.1 E50.85942
G1 X113.1 Y93.1 E51.15211
G1 X113.1 Y101.9 E51.44479
G1 X121.9 Y101.9 E51.73748
G0 F7500 X122.3 Y102.3
;TYPE:WALL-OUTER
G1 F1350 X122.3 Y92.7 E52.05678
G1 X112.7 Y92.7 E52.37608
G1 X112.7 Y102.3 E52.69538
G1 X122.3 Y102.3 E53.01467
G0 F7500 X122.03 Y102.03
G0 X121.8 Y101.54
G0 X121.54 Y101.54
;TYPE:SKIN
G1 F1350 X113.46 Y101.54 E53.28341
G1 X113.46 Y93.46 E53.55216
G1 X121.54 Y93.46 E53.8209
G1 X121.54 Y101.54 E54.08964
G0 F7500 X120.974 Y101.34
G1 F1350 X121.34 Y100.974 E54.10686
G0 F7500 X121.34 Y100.408
G1 F1350 X120.408 Y101.34 E54.15069
G0 F7500 X119.843 Y101.34
G1 F1350 X121.34 Y99.843 E54.22111
G0 F7500 X121.34 Y99.277
G1 F1350 X119.277 Y101.34 E54.31815
G0 F7500 X118.711 Y101.34
G1 F1350 X121.34 Y98.711 E54.44181
G0 F7500 X121.34 Y98.146
G1 F1350 X118.146 Y101.34 E54.59204
G0 F7500 X117.58 Y101.34
G1 F1350 X121.34 Y97.58 E54.7689
G0 F7500 X121.34 Y97.014
G1 F1350 X117.014 Y101.34 E54.97238
