;FLAVOR:Marlin
;TIME:22570
;Filament used: 18.3457m
;Layer height: 0.2
;MINX:12.516
;MINY:12.562
;MINZ:0.2
;MAXX:222.528
;MAXY:222.405
;MAXZ:216.325
;TARGET_MACHINE.NAME:Creality Ender-3
;Generated with Cura_SteamEngine 5.7.1
M140 S50
M105
M190 S50
M104 S200
M105
M109 S200
M82 ;absolute extrusion mode
; Ender 3 Custom Start G-code
G92 E0 ; Reset Extruder
G28 ; Home all axes
G1 Z2.0 F3000 ; Move Z Axis up little to prevent scratching of Heat Bed
G1 X0.1 Y20 Z0.3 F5000.0 ; Move to start position
G1 X0.1 Y200.0 Z0.3 F1500.0 E15 ; Draw the first line
G1 X0.4 Y200.0 Z0.3 F5000.0 ; Move to side a little
G1 X0.4 Y20 Z0.3 F1500.0 E30 ; Draw the second line
G92 E0 ; Reset Extruder
G1 Z2.0 F3000 ; Move Z Axis up little to prevent scratching of Heat Bed
G1 X5 Y20 Z0.3 F5000.0 ; Move over to prevent blob squish
G92 E0
G92 E0
;LAYER_COUNT:1081
;LAYER:0
M106 S255
;MESH:SquareVase.stl
G0 F6000 X124.324 Y49 Z0.2
;TYPE:WALL-INNER
G1 F600 X125.835 Y49.012 E0.05026
G1 X127.72 Y49.009 E0.11295
G1 X126.436 Y47.306 E0.18389
G1 X124.324 Y49 E0.27394
G0 F6000 X124.99 Y48.905
G0 X123.853 Y49.167
G0 X123.196 Y49.392
;TYPE:WALL-OUTER
G1 F600 X125.835 Y49.412 E0.36172
G1 X128.52 Y49.408 E0.45102
G1 X126.506 Y46.738 E0.56226
G1 X123.196 Y49.392 E0.70337
G0 F6000 X123.853 Y49.167
G0 X125.543 Y48.906
G0 X125.544 Y48.573
;TYPE:SKIN
G1 F442.8 X126.359 Y47.919 E0.75046
G1 X126.854 Y48.576 E0.78753
G1 X125.544 Y48.573 E0.84657
;MESH:NONMESH
G0 F300 X125.544 Y48.573 Z0.4
G0 F6000 X125.543 Y48.906
G0 X123.777 Y49.193
G0 X123.77 Y50.264
G0 X122.249 Y53.093
;TIME_ELAPSED:4.790864
;LAYER:1
M106 S85
;TYPE:WALL-INNER
;MESH:SquareVase.stl
G1 F1350 X128.488 Y53.104 E1.05408
G1 X126.136 Y49.982 E1.18409
G1 X122.249 Y53.093 E1.34968
G0 F7500 X121.107 Y53.494
G1 F1350 X123.348 Y53.492 E1.42422
G1 X125.678 Y53.504 E1.50171
G1 X129.29 Y53.504 E1.62185
G1 X126.208 Y49.412 E1.79223
G1 X121.107 Y53.494 E2.00953
G0 F7500 X119.965 Y53.895
G1 F1350 X123.346 Y53.892 E2.12198
G1 X125.678 Y53.904 E2.19955
G1 X130.092 Y53.904 E2.34636
G1 X126.28 Y48.842 E2.55712
G1 X119.965 Y53.895 E2.82612
G0 F7500 X118.823 Y54.296
G1 F1350 X123.344 Y54.292 E2.97649
G1 X125.678 Y54.304 E3.05412
G1 X130.894 Y54.304 E3.2276
G1 X126.351 Y48.273 E3.47874
G1 X118.823 Y54.296 E3.7994
G0 F7500 X117.681 Y54.697
G1 F1350 X123.342 Y54.692 E3.98768
G1 X125.678 Y54.704 E4.06538
G1 X131.696 Y54.704 E4.26554
G1 X126.423 Y47.703 E4.55705
G1 X117.681 Y54.697 E4.92941
G0 F7500 X117.211 Y54.865
G0 X116.54 Y55.098
G1 F1350 X123.34 Y55.092 E5.15558
G1 X125.678 Y55.104 E5.23335
G1 X132.498 Y55.104 E5.46018
G1 X126.493 Y47.135 E5.79206
G1 X116.54 Y55.098 E6.216
G0 F7500 X117.211 Y54.865
G0 X116.069 Y55.266
G0 X115.398 Y55.499
;TYPE:WALL-OUTER
G1 F1350 X123.338 Y55.492 E6.48009
G1 X125.678 Y55.504 E6.55792
G1 X133.3 Y55.504 E6.81143
G1 X126.715 Y46.76 E7.1755
G1 X126.375 Y46.717 E7.1869
G1 X115.398 Y55.499 E7.65446
G0 F7500 X116.069 Y55.266
G0 X123.115 Y52.528
G0 X123.276 Y52.732
;TYPE:SKIN
G1 F1350 X126.068 Y50.493 E7.77349
G1 X127.761 Y52.739 E7.86704
G1 X123.276 Y52.732 E8.01621
G0 F7500 X123.961 Y52.533
G1 F1350 X124.436 Y52.058 E8.03856
G0 F7500 X124.526 Y52.534
G1 F1350 X126.139 Y50.92 E8.11445
G0 F7500 X126.382 Y51.243
G1 F1350 X125.09 Y52.535 E8.17522
G0 F7500 X125.655 Y52.536
G1 F1350 X126.625 Y51.566 E8.22085
G0 F7500 X126.868 Y51.888
G1 F1350 X126.219 Y52.537 E8.25137
G0 F7500 X126.784 Y52.538
G1 F1350 X127.112 Y52.211 E8.26678
G0 F7500 X127.721 Y51.755
;MESH:NONMESH
G0 F300 X127.721 Y51.755 Z0.6
G0 F7500 X128.122 Y52.921
G0 X115.993 Y55.293
G0 X115.994 Y56.363
G0 X108.731 Y61.214
;TIME_ELAPSED:17.316871
;LAYER:2
M106 S170
;TYPE:WALL-INNER
;MESH:SquareVase.stl
G1 F1500 X121.068 Y61.204 E8.67711
G1 X123.137 Y61.216 E8.74593
G1 X137.284 Y61.204 E9.21646
G1 X126.701 Y47.153 E9.80152
G1 X126.358 Y47.111 E9.81302
G1 X108.731 Y61.214 E10.56385
G0 F9000 X109.402 Y61.114
G0 X108.259 Y61.382
G0 X107.59 Y61.615
;TYPE:WALL-OUTER
G1 F1500 X121.066 Y61.604 E11.01206
G1 X123.137 Y61.616 E11.08094
G1 X138.085 Y61.604 E11.57812
G1 X126.919 Y46.777 E12.19547
G1 X126.24 Y46.693 E12.21822
G1 X107.59 Y61.615 E13.01264
G0 F9000 X108.259 Y61.382
G0 X109.599 Y60.648
G0 X109.76 Y60.851
;TYPE:SKIN
G1 F1500 X126.464 Y47.485 E13.72418
G1 X126.503 Y47.489 E13.72548
G1 X136.56 Y60.844 E14.28154
G1 X123.151 Y60.856 E14.72752
G1 X121.066 Y60.844 E14.79687
G1 X109.76 Y60.851 E15.17291
G0 F9000 X109.599 Y60.648
G0 X110.415 Y59.996
G0 X110.702 Y60.356
G1 F1500 X110.997 Y60.651 E15.18678
G0 F9000 X111.016 Y60.104
G1 F1500 X111.562 Y60.65 E15.21247
G0 F9000 X112.127 Y60.65
G1 F1500 X111.33 Y59.852 E15.24998
G0 F9000 X111.644 Y59.601
G1 F1500 X112.692 Y60.649 E15.29927
G0 F9000 X113.258 Y60.649
G1 F1500 X111.958 Y59.35 E15.3604
G0 F9000 X112.273 Y59.099
G1 F1500 X113.823 Y60.649 E15.4333
G0 F9000 X114.388 Y60.648
G1 F1500 X112.587 Y58.847 E15.51802
G0 F9000 X112.901 Y58.595
G1 F1500 X114.954 Y60.648 E15.61459
G0 F9000 X115.519 Y60.647
G1 F1500 X113.216 Y58.344 E15.72291
G0 F9000 X113.53 Y58.092
G1 F1500 X116.084 Y60.647 E15.84307
G0 F9000 X116.649 Y60.646
G1 F1500 X113.843 Y57.841 E15.97503
G0 F9000 X114.158 Y57.59
G1 F1500 X117.214 Y60.646 E16.11877
G0 F9000 X117.78 Y60.646
G1 F1500 X114.472 Y57.338 E16.27437
G0 F9000 X114.787 Y57.087
G1 F1500 X118.345 Y60.645 E16.44173
G0 F9000 X118.911 Y60.645
G1 F1500 X115.101 Y56.835 E16.62094
G0 F9000 X115.415 Y56.583
G1 F1500 X119.476 Y60.644 E16.81196
G0 F9000 X120.041 Y60.644
G1 F1500 X115.729 Y56.332 E17.01478
G0 F9000 X116.043 Y56.081
G1 F1500 X120.606 Y60.644 E17.22941
G0 F9000 X121.172 Y60.644
G1 F1500 X116.357 Y55.829 E17.45589
G0 F9000 X116.672 Y55.578
G1 F1500 X121.741 Y60.647 E17.69432
G0 F9000 X122.31 Y60.651
G1 F1500 X116.986 Y55.326 E17.94477
G0 F9000 X117.3 Y55.074
G1 F1500 X122.879 Y60.653 E18.20719
G0 F9000 X123.446 Y60.655
G1 F1500 X117.614 Y54.823 E18.48151
G0 F9000 X117.928 Y54.572
G1 F1500 X124.011 Y60.654 E18.76761
G0 F9000 X124.577 Y60.654
G1 F1500 X118.243 Y54.321 E19.06552
G0 F9000 X118.557 Y54.069
G1 F1500 X125.142 Y60.653 E19.37524
G0 F9000 X125.707 Y60.653
G1 F1500 X118.871 Y53.817 E19.69678
G0 F9000 X119.186 Y53.566
G1 F1500 X126.272 Y60.652 E20.03008
G0 F9000 X126.837 Y60.652
G1 F1500 X119.5 Y53.314 E20.37522
G0 F9000 X119.814 Y53.063
G1 F1500 X127.402 Y60.651 E20.73213
G0 F9000 X127.967 Y60.651
G1 F1500 X120.128 Y52.812 E21.10086
G0 F9000 X120.442 Y52.56
G1 F1500 X128.532 Y60.65 E21.48138
G0 F9000 X129.098 Y60.65
G1 F1500 X120.756 Y52.308 E21.87377
G0 F9000 X121.071 Y52.057
G1 F1500 X129.663 Y60.649 E22.27791
G0 F9000 X130.228 Y60.649
G1 F1500 X121.385 Y51.805 E22.69388
G0 F9000 X121.699 Y51.554
G1 F1500 X130.794 Y60.649 E23.12168
G0 F9000 X131.359 Y60.648
G1 F1500 X122.013 Y51.303 E23.56126
G0 F9000 X122.327 Y51.051
G1 F1500 X131.923 Y60.647 E24.01263
G0 F9000 X132.488 Y60.646
G1 F1500 X122.642 Y50.8 E24.47576
G0 F9000 X122.956 Y50.548
G1 F1500 X133.054 Y60.646 E24.95073
G0 F9000 X133.619 Y60.646
G1 F1500 X123.27 Y50.297 E25.43752
G0 F9000 X123.585 Y50.045
G1 F1500 X134.184 Y60.645 E25.93609
G0 F9000 X134.749 Y60.644
G1 F1500 X123.899 Y49.794 E26.44644
G0 F9000 X124.212 Y49.542
G1 F1500 X135.315 Y60.644 E26.96867
G0 F9000 X135.88 Y60.644
G1 F1500 X124.527 Y49.291 E27.50268
G0 F9000 X124.841 Y49.039
G1 F1500 X135.289 Y59.487 E27.99412
G0 F9000 X135.656 Y59.211
G0 X133.931 Y56.92
G0 X133.563 Y57.196
G1 F1500 X125.156 Y48.788 E28.38958
G0 F9000 X125.47 Y48.537
G1 F1500 X131.838 Y54.905 E28.68911
G0 F9000 X132.205 Y54.629
G0 X130.48 Y52.338
G0 X130.113 Y52.614
G1 F1500 X125.784 Y48.285 E28.89274
G0 F9000 X126.098 Y48.034
G1 F1500 X128.387 Y50.323 E29.0004
G0 F9000 X128.755 Y50.046
G0 X127.03 Y47.756
G0 X126.662 Y48.032
G1 F1500 X126.412 Y47.782 E29.01216
;MESH:NONMESH
G0 F300 X126.412 Y47.782 Z0.8
G0 F9000 X126.819 Y47.476
G0 X127.125 Y46.797
;TIME_ELAPSED:47.366754
;LAYER:3
M106 S255
;TYPE:WALL-OUTER
;MESH:SquareVase.stl
G1 F1250.6 X138.926 Y62.477 E29.66488
G1 X142.893 Y67.732 E29.88387
G1 X140.606 Y67.737 E29.95994
G1 X136.086 Y67.712 E30.11028
G1 X120.749 Y67.728 E30.62039
G1 X118.793 Y67.717 E30.68545
G1 X99.789 Y67.732 E31.31752
G1 X107.259 Y61.737 E31.63609
G1 X126.107 Y46.672 E32.43862
G1 X127.125 Y46.797 E32.47273
G0 F9000 X126.921 Y46.778
G1 F1250.6 X138.926 Y62.477 Z0.838 E33.13006
G1 X142.893 Y67.732 Z0.851 E33.34905
G1 X140.606 Y67.737 Z0.855 E33.42512
G1 X136.086 Y67.712 Z0.864 E33.57545
G1 X120.749 Y67.728 Z0.893 E34.08557
G1 X118.793 Y67.717 Z0.897 E34.15062
G1 X99.789 Y67.732 Z0.933 E34.7827
G1 X107.34 Y61.708 Z0.952 E35.10398
G1 X126.108 Y46.673 Z0.998 E35.90381
G1 X127.125 Y46.797 Z1 E35.93788
;TIME_ELAPSED:57.546148
;LAYER:4
;TYPE:WALL-OUTER
;MESH:SquareVase.stl
G1 F806.8 X134.463 Y56.526 Z1.018 E36.34319
G1 X147.675 Y73.83 Z1.051 E37.06731
G1 X137.368 Y73.842 Z1.066 E37.41012
G1 X133.861 Y73.823 Z1.071 E37.52677
G1 X118.423 Y73.839 Z1.094 E38.04024
G1 X116.519 Y73.829 Z1.097 E38.10356
G1 X99.747 Y73.845 Z1.122 E38.6614
G1 X94.847 Y73.817 Z1.129 E38.82438
G1 X92.021 Y73.818 Z1.133 E38.91838
G1 X101.379 Y66.34 Z1.151 E39.31679
G1 X114.834 Y55.551 Z1.177 E39.89041
G1 X125.976 Y46.648 Z1.198 E40.36477
G1 X127.329 Y46.815 Z1.2 E40.41012
;TIME_ELAPSED:67.583938
;LAYER:5
;TYPE:WALL-OUTER
;MESH:SquareVase.stl
G1 F989.3 X135.533 Y57.716 Z1.217 E40.86389
G1 X141.774 Y65.977 Z1.229 E41.20825
G1 X152.477 Y79.952 Z1.25 E41.79372
G1 X148.696 Y79.935 Z1.255 E41.91948
G1 X134.759 Y79.951 Z1.272 E42.38302
G1 X131.618 Y79.934 Z1.276 E42.48749
G1 X116.116 Y79.951 Z1.295 E43.00309
G1 X114.244 Y79.941 Z1.297 E43.06536
G1 X101.27 Y79.954 Z1.313 E43.49688
G1 X96.684 Y79.927 Z1.318 E43.64941
G1 X84.214 Y79.935 Z1.333 E44.06416
G1 X96.648 Y69.981 Z1.353 E44.59392
G1 X113.032 Y56.849 Z1.378 E45.29229
G1 X125.844 Y46.626 Z1.398 E45.83745
G1 X127.534 Y46.835 Z1.4 E45.89408
;TIME_ELAPSED:77.639553
;LAYER:6
;TYPE:WALL-OUTER
;MESH:SquareVase.stl
G1 F1171.6 X135.159 Y56.981 Z1.413 E46.31622
G1 X146.477 Y71.977 Z1.432 E46.9411
G1 X157.264 Y86.057 Z1.45 E47.53104
G1 X151.338 Y86.067 Z1.456 E47.72814
G1 X146.784 Y86.043 Z1.461 E47.87961
G1 X132.266 Y86.061 Z1.476 E48.36248
G1 X129.364 Y86.046 Z1.479 E48.459
G1 X113.821 Y86.063 Z1.495 E48.97596
G1 X111.97 Y86.053 Z1.497 E49.03753
G1 X107.647 Y86.058 Z1.501 E49.18131
G1 X104.425 Y86.04 Z1.505 E49.28848
G1 X76.407 Y86.051 Z1.533 E50.22036
G1 X83.857 Y80.102 Z1.543 E50.53746
G1 X92.502 Y73.15 Z1.554 E50.90643
G1 X100.691 Y66.58 Z1.565 E51.25562
G1 X117.09 Y53.469 Z1.587 E51.95394
G1 X125.712 Y46.602 Z1.598 E52.32055
G1 X127.739 Y46.853 Z1.6 E52.38849
;TIME_ELAPSED:87.714945
;LAYER:7
;TYPE:WALL-OUTER
;MESH:SquareVase.stl
G1 F1353.8 X132.6 Y53.334 Z1.607 E52.65794
G1 X140.824 Y64.263 Z1.619 E53.11286
G1 X148.751 Y74.768 Z1.631 E53.55057
G1 X159.329 Y88.573 Z1.646 E54.12902
G1 X162.049 Y92.157 Z1.65 E54.27867
G1 X148.26 Y92.174 Z1.663 E54.73729
G1 X144.537 Y92.154 Z1.666 E54.86112
G1 X129.836 Y92.172 Z1.679 E55.35008
G1 X127.105 Y92.157 Z1.681 E55.44092
G1 X111.531 Y92.175 Z1.695 E55.95891
G1 X106.732 Y92.149 Z1.699 E56.11853
G1 X93.125 Y92.158 Z1.711 E56.5711
G1 X92.111 Y92.152 Z1.712 E56.60483
G1 X68.601 Y92.167 Z1.733 E57.38677
G1 X81.925 Y81.484 Z1.748 E57.95479
G1 X92.447 Y73.03 Z1.76 E58.40371
G1 X101.812 Y65.529 Z1.771 E58.80279
G1 X117.048 Y53.365 Z1.788 E59.45124
G1 X125.581 Y46.579 Z1.798 E59.81385
G1 X127.941 Y46.872 Z1.8 E59.89295
;TIME_ELAPSED:97.811314
;LAYER:8
;TYPE:WALL-OUTER
;MESH:SquareVase.stl
G1 F1500 X135.861 Y57.434 Z1.81 E60.33203
G1 X142.133 Y65.776 Z1.818 E60.67916
G1 X153.147 Y80.363 Z1.833 E61.2871
G1 X162.091 Y92.166 Z1.844 E61.77965
G1 X166.854 Y98.284 Z1.85 E62.03753
G1 X164.153 Y98.289 Z1.852 E62.12736
G1 X159.352 Y98.265 Z1.856 E62.28705
G1 X145.742 Y98.283 Z1.867 E62.73972
G1 X142.283 Y98.264 Z1.87 E62.85477
G1 X127.447 Y98.283 Z1.881 E63.34821
G1 X124.841 Y98.269 Z1.883 E63.43489
G1 X116.188 Y98.279 Z1.89 E63.72269
G1 X113.611 Y98.265 Z1.892 E63.8084
G1 X109.089 Y98.268 Z1.896 E63.95881
G1 X107.266 Y98.258 Z1.897 E64.01944
G1 X90.929 Y98.271 Z1.91 E64.56281
G1 X89.828 Y98.264 Z1.911 E64.59943
G1 X68.323 Y98.278 Z1.927 E65.31469
G1 X63.464 Y98.252 Z1.931 E65.4763
G1 X60.833 Y98.253 Z1.933 E65.56381
G1 X70.768 Y90.293 Z1.943 E65.98723
G1 X84.205 Y79.482 Z1.957 E66.56084
G1 X100.006 Y66.821 Z1.972 E67.23429
G1 X115.248 Y54.661 Z1.988 E67.8828
G1 X125.45 Y46.556 Z1.998 E68.31617
G1 X128.147 Y46.892 Z2 E68.40657
;TIME_ELAPSED:108.163989
;LAYER:9
;TYPE:WALL-OUTER
;MESH:SquareVase.stl
G1 X136.013 Y57.4 Z2.009 E68.84314
G1 X145.444 Y69.939 Z2.02 E69.36498
G1 X152.128 Y78.805 Z2.028 E69.73428
G1 X161.199 Y90.789 Z2.038 E70.23418
G1 X171.636 Y104.382 Z2.05 E70.80418
G1 X161.565 Y104.396 Z2.057 E71.13914
G1 X157.495 Y104.374 Z2.06 E71.27451
G1 X143.281 Y104.393 Z2.07 E71.74727
G1 X140.025 Y104.375 Z2.072 E71.85557
G1 X125.083 Y104.394 Z2.083 E72.35254
G1 X122.576 Y104.38 Z2.085 E72.43593
G1 X118.249 Y104.386 Z2.088 E72.57985
G1 X115.813 Y104.372 Z2.089 E72.66087
G1 X106.805 Y104.38 Z2.096 E72.96048
G1 X104.991 Y104.37 Z2.097 E73.02081
G1 X88.715 Y104.384 Z2.108 E73.56215
G1 X87.548 Y104.377 Z2.109 E73.60097
G1 X74.504 Y104.388 Z2.118 E74.03481
G1 X69.899 Y104.36 Z2.121 E74.18798
G1 X53.026 Y104.37 Z2.133 E74.74918
G1 X62.531 Y96.752 Z2.142 E75.15432
G1 X70.704 Y90.163 Z2.149 E75.5035
G1 X88.245 Y76.077 Z2.165 E76.25174
G1 X101.272 Y65.659 Z2.176 E76.80653
G1 X114.097 Y55.441 Z2.188 E77.35193
G1 X125.319 Y46.532 Z2.198 E77.82849
G1 X128.352 Y46.913 Z2.2 E77.93016
;TIME_ELAPSED:119.731300
;LAYER:10
;TYPE:WALL-OUTER
;MESH:SquareVase.stl
G1 X137.01 Y58.486 Z2.209 E78.41088
G1 X141.427 Y64.369 Z2.214 E78.65556
G1 X149.569 Y75.195 Z2.222 E79.1061
G1 X155.095 Y82.517 Z2.228 E79.41121
G1 X165.82 Y96.679 Z2.239 E80.00207
G1 X176.439 Y110.505 Z2.25 E80.5819
G1 X172.569 Y110.487 Z2.253 E80.71062
G1 X159.052 Y110.505 Z2.261 E81.1602
G1 X155.237 Y110.484 Z2.264 E81.28709
G1 X140.86 Y110.503 Z2.273 E81.76527
G1 X137.763 Y110.487 Z2.275 E81.86828
G1 X124.774 Y110.503 Z2.283 E82.30029
G1 X120.186 Y110.477 Z2.286 E82.45289
G1 X104.523 Y110.492 Z2.296 E82.97385
G1 X102.717 Y110.482 Z2.297 E83.03391
G1 X86.49 Y110.496 Z2.307 E83.57363
G1 X85.266 Y110.489 Z2.308 E83.61434
G1 X76.574 Y110.497 Z2.313 E83.90344
G1 X72.775 Y110.475 Z2.316 E84.02979
G1 X45.219 Y110.486 Z2.333 E84.94631
G1 X56.044 Y101.798 Z2.342 E85.40797
G1 X68.888 Y91.445 Z2.352 E85.95666
G1 X85.85 Y77.831 Z2.366 E86.68006
G1 X101.081 Y65.66 Z2.378 E87.32852
G1 X111.643 Y57.252 Z2.387 E87.77753
G1 X125.188 Y46.507 Z2.398 E88.35258
G1 X128.558 Y46.933 Z2.4 E88.46556
;TIME_ELAPSED:132.515478
;LAYER:11
;TYPE:WALL-OUTER
;MESH:SquareVase.stl
G1 X135.352 Y56.027 Z2.407 E88.84312
G1 X140.712 Y63.188 Z2.412 E89.14062
G1 X149.667 Y75.108 Z2.421 E89.6365
G1 X159.367 Y87.956 Z2.431 E90.17193
G1 X170.442 Y102.571 Z2.441 E90.78183
G1 X181.226 Y116.609 Z2.452 E91.3706
G1 X175.045 Y116.619 Z2.456 E91.57618
G1 X170.474 Y116.595 Z2.458 E91.72822
G1 X156.586 Y116.614 Z2.467 E92.19014
G1 X152.976 Y116.595 Z2.469 E92.31021
G1 X138.467 Y116.614 Z2.477 E92.79278
G1 X135.499 Y116.598 Z2.479 E92.8915
G1 X126.839 Y116.609 Z2.484 E93.17953
G1 X124.762 Y116.598 Z2.486 E93.24861
G1 X120.281 Y116.602 Z2.488 E93.39765
G1 X117.915 Y116.588 Z2.49 E93.47635
G1 X102.243 Y116.604 Z2.499 E93.9976
G1 X100.443 Y116.594 Z2.5 E94.05747
G1 X84.256 Y116.608 Z2.51 E94.59585
G1 X78.927 Y116.592 Z2.513 E94.77309
G1 X77.471 Y116.6 Z2.514 E94.82152
G1 X74.764 Y116.587 Z2.515 E94.91156
G1 X72.455 Y116.593 Z2.517 E94.98836
G1 X71.525 Y116.604 E95.01929
G1 X67.214 Y116.591 Z2.52 E95.16267
G1 X67.207 Y116.605 E95.1632
G1 X63.072 Y116.579 Z2.522 E95.30073
G1 X61.713 Y116.594 Z2.523 E95.34593
G1 X58.797 Y116.599 Z2.525 E95.44292
G1 X55.958 Y116.58 Z2.527 E95.53735
G1 X50.981 Y116.605 Z2.529 E95.70288
G1 X50.728 Y116.592 Z2.53 E95.71131
G1 X46.944 Y116.595 Z2.532 E95.83717
G1 X43.241 Y111.985 Z2.535 E96.03384
G1 X43.253 Y111.877 E96.03745
G1 X48.974 Y107.314 Z2.54 E96.28084
G1 X60.647 Y97.897 Z2.549 E96.77968
G1 X70.581 Y89.907 Z2.556 E97.20369
G1 X84.039 Y79.117 Z2.567 E97.77741
G1 X93.997 Y71.159 Z2.574 E98.20139
G1 X105.729 Y61.812 Z2.583 E98.70029
G1 X118.652 Y51.553 Z2.593 E99.24909
