;FLAVOR:Marlin
;TIME:3807
;Filament used: 2.20659m
;Layer height: 0.2
;MINX:82.497
;MINY:82.471
;MINZ:0.2
;MAXX:152.556
;MAXY:152.476
;MAXZ:70.5
;TARGET_MACHINE.NAME:Creality Ender-3
;Generated with Cura_SteamEngine 5.7.1
M140 S50
M105
M190 S50
M104 S200
M105
M109 S200
M82 ;absolute extrusion mode
; Ender 3 Custom Start G-code
G92 E0 ; Reset Extruder
G28 ; Home all axes
G1 Z2.0 F3000 ; Move Z Axis up little to prevent scratching of Heat Bed
G1 X0.1 Y20 Z0.3 F5000.0 ; Move to start position
G1 X0.1 Y200.0 Z0.3 F1500.0 E15 ; Draw the first line
G1 X0.4 Y200.0 Z0.3 F5000.0 ; Move to side a little
G1 X0.4 Y20 Z0.3 F1500.0 E30 ; Draw the second line
G92 E0 ; Reset Extruder
G1 Z2.0 F3000 ; Move Z Axis up little to prevent scratching of Heat Bed
G1 X5 Y20 Z0.3 F5000.0 ; Move over to prevent blob squish
G92 E0
G92 E0
;LAYER_COUNT:352
;LAYER:0
M107
;MESH:SquareVase.stl
G0 F6000 X116.64 Y142.281 Z0.2
;TYPE:WALL-OUTER
G1 F1200 X92.717 Y116.642 E1.16632
G1 X118.354 Y92.717 E2.33264
G1 X142.279 Y118.354 E3.49896
G1 X116.64 Y142.281 E4.66537
G0 F6000 X116.658 Y141.773
;TYPE:SKIN
G1 F1200 X93.223 Y116.658 E5.80787
G1 X118.334 Y93.223 E6.95028
G1 X141.769 Y118.334 E8.09269
G1 X116.658 Y141.773 E9.23519
G0 F6000 X116.925 Y141.25
G1 F1200 X109.722 Y134.047 E9.57399
G0 F6000 X108.679 Y135.022
G0 X116.254 Y143.136
G0 X116.973 Y143.157
G0 X118.194 Y142.022
G0 X117.217 Y140.976
G1 F1200 X101.831 Y125.59 E10.2977
G0 F6000 X100.788 Y126.565
G0 X92.895 Y118.105
G0 X93.939 Y117.132
G1 F1200 X117.51 Y140.703 E11.40641
G0 F6000 X117.803 Y140.43
G1 F1200 X93.783 Y116.41 E12.53624
G0 F6000 X94.075 Y116.137
G1 F1200 X118.095 Y140.157 E13.66607
G0 F6000 X118.387 Y139.883
G1 F1200 X94.368 Y115.864 E14.79585
G0 F6000 X94.66 Y115.591
G1 F1200 X118.68 Y139.61 E15.92565
G0 F6000 X118.973 Y139.338
G1 F1200 X94.953 Y115.318 E17.05548
G0 F6000 X95.246 Y115.045
G1 F1200 X119.266 Y139.065 E18.1853
G0 F6000 X119.558 Y138.792
G1 F1200 X95.538 Y114.771 E19.31515
G0 F6000 X95.831 Y114.498
G1 F1200 X119.85 Y138.518 E20.44496
G0 F6000 X120.143 Y138.245
G1 F1200 X96.123 Y114.225 E21.57478
G0 F6000 X96.416 Y113.952
G1 F1200 X120.436 Y137.972 E22.70461
G0 F6000 X120.729 Y137.699
G1 F1200 X96.709 Y113.679 E23.83444
G0 F6000 X97.001 Y113.406
G1 F1200 X121.021 Y137.425 E24.96424
G0 F6000 X121.313 Y137.153
G1 F1200 X97.294 Y113.133 E26.09405
G0 F6000 X97.586 Y112.86
G1 F1200 X121.606 Y136.88 E27.22387
G0 F6000 X121.899 Y136.607
G1 F1200 X97.879 Y112.587 E28.3537
G0 F6000 X98.172 Y112.314
G1 F1200 X122.191 Y136.333 E29.48348
G0 F6000 X122.484 Y136.06
G1 F1200 X98.464 Y112.04 E30.61331
G0 F6000 X98.757 Y111.767
G1 F1200 X122.776 Y135.787 E31.74311
G0 F6000 X123.069 Y135.514
G1 F1200 X99.049 Y111.494 E32.87294
G0 F6000 X99.342 Y111.222
G1 F1200 X123.362 Y135.241 E34.00274
G0 F6000 X123.654 Y134.968
G1 F1200 X99.635 Y110.949 E35.13252
G0 F6000 X99.927 Y110.675
G1 F1200 X123.947 Y134.695 E36.26235
G0 F6000 X124.239 Y134.422
G1 F1200 X100.22 Y110.402 E37.39215
G0 F6000 X100.512 Y110.129
G1 F1200 X124.532 Y134.149 E38.52198
G0 F6000 X124.824 Y133.875
G1 F1200 X100.805 Y109.856 E39.65176
G0 F6000 X101.098 Y109.583
G1 F1200 X125.117 Y133.602 E40.78154
G0 F6000 X125.41 Y133.329
G1 F1200 X101.391 Y109.31 E41.91132
G0 F6000 X101.683 Y109.037
G1 F1200 X125.702 Y133.056 E43.0411
G0 F6000 X125.994 Y132.783
G1 F1200 X101.975 Y108.764 E44.17088
G0 F6000 X102.268 Y108.491
G1 F1200 X126.287 Y132.51 E45.30066
G0 F6000 X126.58 Y132.237
G1 F1200 X102.561 Y108.218 E46.43044
G0 F6000 X102.854 Y107.945
G1 F1200 X126.873 Y131.964 E47.56022
G0 F6000 X127.165 Y131.691
G1 F1200 X103.146 Y107.671 E48.69003
G0 F6000 X103.438 Y107.398
G1 F1200 X127.457 Y131.417 E49.81981
G0 F6000 X127.75 Y131.144
G1 F1200 X103.731 Y107.125 E50.94959
G0 F6000 X104.024 Y106.852
G1 F1200 X128.043 Y130.871 E52.07937
G0 F6000 X128.336 Y130.598
G1 F1200 X104.317 Y106.579 E53.20915
G0 F6000 X104.609 Y106.306
G1 F1200 X128.628 Y130.325 E54.33893
G0 F6000 X128.92 Y130.052
G1 F1200 X104.901 Y106.033 E55.46871
G0 F6000 X105.194 Y105.76
G1 F1200 X129.213 Y129.779 E56.59849
G0 F6000 X129.506 Y129.506
G1 F1200 X105.487 Y105.487 E57.72827
G0 F6000 X105.78 Y105.214
G1 F1200 X129.798 Y129.232 E58.858
G0 F6000 X130.091 Y128.959
G1 F1200 X106.072 Y104.94 E59.98778
G0 F6000 X106.364 Y104.667
G1 F1200 X130.383 Y128.686 E61.11756
G0 F6000 X130.676 Y128.413
G1 F1200 X106.657 Y104.394 E62.24734
G0 F6000 X106.95 Y104.121
G1 F1200 X130.969 Y128.14 E63.37712
G0 F6000 X131.261 Y127.867
G1 F1200 X107.243 Y103.849 E64.50685
G0 F6000 X107.535 Y103.575
G1 F1200 X131.554 Y127.594 E65.63663
G0 F6000 X131.846 Y127.321
G1 F1200 X107.827 Y103.302 E66.76641
G0 F6000 X108.12 Y103.029
G1 F1200 X132.139 Y127.048 E67.89619
G0 F6000 X132.431 Y126.774
G1 F1200 X108.413 Y102.756 E69.02593
G0 F6000 X108.706 Y102.483
G1 F1200 X132.724 Y126.501 E70.15566
G0 F6000 X133.017 Y126.228
G1 F1200 X108.998 Y102.209 E71.28544
G0 F6000 X109.29 Y101.937
G1 F1200 X133.309 Y125.956 E72.41522
G0 F6000 X133.601 Y125.682
G1 F1200 X109.583 Y101.664 E73.54495
G0 F6000 X109.876 Y101.391
G1 F1200 X133.894 Y125.409 E74.67469
G0 F6000 X134.187 Y125.136
G1 F1200 X110.169 Y101.118 E75.80442
G0 F6000 X110.461 Y100.844
G1 F1200 X134.48 Y124.863 E76.9342
G0 F6000 X134.772 Y124.59
G1 F1200 X110.753 Y100.571 E78.06398
G0 F6000 X111.046 Y100.298
G1 F1200 X135.064 Y124.316 E79.19371
G0 F6000 X135.357 Y124.043
G1 F1200 X111.339 Y100.025 E80.32345
G0 F6000 X111.632 Y99.752
G1 F1200 X135.65 Y123.771 E81.4532
G0 F6000 X135.943 Y123.498
G1 F1200 X111.924 Y99.479 E82.58298
G0 F6000 X112.216 Y99.206
G1 F1200 X136.235 Y123.224 E83.71274
G0 F6000 X136.527 Y122.951
G1 F1200 X112.509 Y98.933 E84.84247
G0 F6000 X112.802 Y98.66
G1 F1200 X136.82 Y122.678 E85.9722
G0 F6000 X137.113 Y122.405
G1 F1200 X113.095 Y98.387 E87.10194
G0 F6000 X113.387 Y98.114
G1 F1200 X137.405 Y122.131 E88.23165
G0 F6000 X137.698 Y121.859
G1 F1200 X113.679 Y97.84 E89.36143
G0 F6000 X113.972 Y97.567
G1 F1200 X137.99 Y121.586 E90.49118
G0 F6000 X138.283 Y121.313
G1 F1200 X114.265 Y97.294 E91.62094
G0 F6000 X114.558 Y97.021
G1 F1200 X138.576 Y121.04 E92.7507
G0 F6000 X138.868 Y120.766
G1 F1200 X114.85 Y96.748 E93.88043
G0 F6000 X115.142 Y96.475
G1 F1200 X139.161 Y120.493 E95.01019
G0 F6000 X139.453 Y120.22
G1 F1200 X115.435 Y96.202 E96.13992
G0 F6000 X115.728 Y95.929
G1 F1200 X139.746 Y119.947 E97.26965
G0 F6000 X140.038 Y119.674
G1 F1200 X116.021 Y95.656 E98.39936
G0 F6000 X116.313 Y95.383
G1 F1200 X140.331 Y119.401 E99.5291
G0 F6000 X140.624 Y119.128
G1 F1200 X116.605 Y95.109 E100.65888
G0 F6000 X116.898 Y94.836
G1 F1200 X140.916 Y118.855 E101.78863
G0 F6000 X141.209 Y118.581
G1 F1200 X117.191 Y94.564 E102.91834
G0 F6000 X117.484 Y94.291
G1 F1200 X141.051 Y117.858 E104.02686
G0 F6000 X142.094 Y116.883
G0 X134.183 Y108.405
G0 X133.139 Y109.38
G1 F1200 X117.776 Y94.018 E104.74947
G0 F6000 X118.068 Y93.744
G1 F1200 X125.227 Y100.903 E105.0862
;MESH:NONMESH
G0 F300 X125.227 Y100.903 Z0.4
G0 F6000 X126.273 Y99.927
G0 X143.159 Y118.029
G0 X143.134 Y118.747
G0 X118.59 Y141.652
G0 X116.7 Y139.628
;TIME_ELAPSED:168.098809
;LAYER:1
M106 S85
;TYPE:WALL-INNER
;MESH:SquareVase.stl
G1 F1350 X139.626 Y118.296 E106.12776
G1 X118.296 Y95.368 E107.16932
G1 X95.368 Y116.7 E108.21092
G1 X116.7 Y139.628 E109.25253
G0 F6000 X116.68 Y140.193
G1 F1350 X140.192 Y118.316 E110.3207
G1 X118.316 Y94.803 E111.38887
G1 X94.803 Y116.68 E112.45707
G1 X116.68 Y140.193 E113.52526
G0 F6000 X116.659 Y140.758
G1 F1350 X140.757 Y118.337 E114.62003
G1 X118.337 Y94.238 E115.7148
G1 X94.238 Y116.659 E116.80959
G1 X116.659 Y140.758 E117.90438
G0 F6000 X116.639 Y141.324
G1 F1350 X141.322 Y118.357 E119.02576
G1 X118.357 Y93.672 E120.14715
G1 X93.672 Y116.639 E121.26858
G1 X116.639 Y141.324 E122.39001
G0 F6000 X116.618 Y141.889
G1 F1350 X141.887 Y118.377 E123.538
G1 X118.378 Y93.107 E124.68596
G1 X93.107 Y116.618 E125.83398
G1 X116.618 Y141.889 E126.98201
G0 F6000 X116.776 Y142.288
;TYPE:WALL-OUTER
G1 F1350 X142.274 Y118.565 E128.14036
G1 X142.288 Y118.22 E128.15185
G1 X118.565 Y92.721 E129.31023
G1 X118.22 Y92.708 E129.32171
G1 X92.721 Y116.431 E130.48009
G1 X92.708 Y116.776 E130.49157
G1 X116.431 Y142.275 E131.64995
G1 X116.776 Y142.288 E131.66143
G0 F6000 X116.633 Y141.51
G0 X116.525 Y139.293
G0 X116.715 Y139.117
;TYPE:SKIN
G1 F2100 X95.875 Y116.715 E132.67908
G1 X118.277 Y95.875 E133.69673
G1 X139.117 Y118.277 E134.71438
G1 X116.715 Y139.117 E135.73203
G0 F6000 X116.525 Y139.293
G0 X96.004 Y117.236
G0 X96.342 Y116.922
G1 F2100 X101.615 Y111.649 E135.98005
G0 F6000 X101.304 Y111.314
G0 X95.612 Y116.709
G0 X96.276 Y117.528
G0 X96.614 Y117.215
G1 F2100 X109.727 Y104.102 E136.59685
G0 F6000 X109.416 Y103.767
G0 X117.53 Y96.218
G0 X117.841 Y96.554
G1 F2100 X96.887 Y117.508 E137.58246
G0 F6000 X97.159 Y117.801
G1 F2100 X118.525 Y96.436 E138.58743
G0 F6000 X118.797 Y96.729
G1 F2100 X97.432 Y118.094 E139.59237
G0 F6000 X97.705 Y118.387
G1 F2100 X119.07 Y97.022 E140.59732
G0 F6000 X119.342 Y97.316
G1 F2100 X97.977 Y118.68 E141.60224
G0 F6000 X98.25 Y118.973
G1 F2100 X119.615 Y97.608 E142.60718
G0 F6000 X119.888 Y97.901
G1 F2100 X98.523 Y119.266 E143.61213
G0 F6000 X98.796 Y119.559
G1 F2100 X120.16 Y98.195 E144.61702
G0 F6000 X120.433 Y98.487
G1 F2100 X99.068 Y119.852 E145.62197
G0 F6000 X99.341 Y120.145
G1 F2100 X120.705 Y98.781 E146.62686
G0 F6000 X120.978 Y99.073
G1 F2100 X99.613 Y120.439 E147.63183
G0 F6000 X99.886 Y120.731
G1 F2100 X121.25 Y99.367 E148.63673
G0 F6000 X121.523 Y99.66
G1 F2100 X100.159 Y121.024 E149.64163
G0 F6000 X100.431 Y121.318
G1 F2100 X121.796 Y99.953 E150.64657
G0 F6000 X122.069 Y100.246
G1 F2100 X100.704 Y121.61 E151.65149
G0 F6000 X100.976 Y121.904
G1 F2100 X122.341 Y100.539 E152.65643
G0 F6000 X122.614 Y100.832
G1 F2100 X101.249 Y122.197 E153.66138
G0 F6000 X101.521 Y122.49
G1 F2100 X122.887 Y101.125 E154.66635
G0 F6000 X123.159 Y101.418
G1 F2100 X101.794 Y122.783 E155.67129
G0 F6000 X102.067 Y123.076
G1 F2100 X123.432 Y101.711 E156.67623
G0 F6000 X123.704 Y102.004
G1 F2100 X102.34 Y123.369 E157.68115
G0 F6000 X102.612 Y123.662
G1 F2100 X123.977 Y102.297 E158.6861
G0 F6000 X124.249 Y102.591
G1 F2100 X102.885 Y123.955 E159.691
G0 F6000 X103.158 Y124.248
G1 F2100 X124.522 Y102.883 E160.69592
G0 F6000 X124.795 Y103.176
G1 F2100 X103.43 Y124.541 E161.70086
G0 F6000 X103.703 Y124.834
G1 F2100 X125.067 Y103.47 E162.70576
G0 F6000 X125.34 Y103.762
G1 F2100 X103.975 Y125.127 E163.7107
G0 F6000 X104.248 Y125.42
G1 F2100 X125.613 Y104.056 E164.71562
G0 F6000 X125.886 Y104.348
G1 F2100 X104.52 Y125.714 E165.72061
G0 F6000 X104.793 Y126.006
G1 F2100 X126.158 Y104.642 E166.72553
G0 F6000 X126.431 Y104.935
G1 F2100 X105.065 Y126.3 E167.7305
G0 F6000 X105.338 Y126.593
G1 F2100 X126.703 Y105.228 E168.73545
G0 F6000 X126.976 Y105.521
G1 F2100 X105.611 Y126.885 E169.74037
G0 F6000 X105.884 Y127.179
G1 F2100 X127.248 Y105.814 E170.74529
G0 F6000 X127.521 Y106.107
G1 F2100 X106.157 Y127.472 E171.75021
G0 F6000 X106.429 Y127.765
G1 F2100 X127.794 Y106.4 E172.75515
G0 F6000 X128.066 Y106.693
G1 F2100 X106.702 Y128.058 E173.76007
G0 F6000 X106.974 Y128.351
G1 F2100 X128.339 Y106.986 E174.76502
G0 F6000 X128.611 Y107.279
G1 F2100 X107.247 Y128.644 E175.76994
G0 F6000 X107.519 Y128.937
G1 F2100 X128.884 Y107.572 E176.77488
G0 F6000 X129.157 Y107.866
G1 F2100 X107.792 Y129.23 E177.7798
G0 F6000 X108.065 Y129.523
G1 F2100 X129.43 Y108.158 E178.78475
G0 F6000 X129.702 Y108.452
G1 F2100 X108.337 Y129.816 E179.78967
G0 F6000 X108.61 Y130.109
G1 F2100 X129.975 Y108.745 E180.79459
G0 F6000 X130.248 Y109.037
G1 F2100 X108.882 Y130.403 E181.79958
G0 F6000 X109.155 Y130.695
G1 F2100 X130.52 Y109.331 E182.8045
G0 F6000 X130.793 Y109.623
G1 F2100 X109.428 Y130.989 E183.80947
G0 F6000 X109.701 Y131.281
G1 F2100 X131.065 Y109.917 E184.81436
G0 F6000 X131.338 Y110.21
G1 F2100 X109.973 Y131.575 E185.81931
G0 F6000 X110.246 Y131.868
G1 F2100 X131.61 Y110.503 E186.82423
G0 F6000 X131.883 Y110.796
G1 F2100 X110.518 Y132.161 E187.82917
G0 F6000 X110.791 Y132.454
G1 F2100 X132.155 Y111.089 E188.83409
G0 F6000 X132.428 Y111.382
G1 F2100 X111.064 Y132.747 E189.83901
G0 F6000 X111.336 Y133.04
G1 F2100 X132.701 Y111.675 E190.84396
G0 F6000 X132.974 Y111.968
G1 F2100 X111.609 Y133.333 E191.8489
G0 F6000 X111.881 Y133.626
G1 F2100 X133.246 Y112.261 E192.85385
G0 F6000 X133.519 Y112.554
G1 F2100 X112.154 Y133.919 E193.85879
G0 F6000 X112.426 Y134.212
G1 F2100 X133.792 Y112.847 E194.86376
G0 F6000 X134.064 Y113.141
G1 F2100 X112.699 Y134.505 E195.86868
G0 F6000 X112.972 Y134.799
G1 F2100 X134.337 Y113.433 E196.87365
G0 F6000 X134.609 Y113.727
G1 F2100 X113.245 Y135.091 E197.87854
G0 F6000 X113.518 Y135.384
G1 F2100 X134.882 Y114.02 E198.88344
G0 F6000 X135.154 Y114.313
G1 F2100 X113.79 Y135.678 E199.88836
G0 F6000 X114.063 Y135.97
G1 F2100 X135.427 Y114.606 E200.89326
G0 F6000 X135.7 Y114.898
G1 F2100 X114.335 Y136.264 E201.89822
G0 F6000 X114.608 Y136.556
G1 F2100 X135.972 Y115.192 E202.90312
G0 F6000 X136.245 Y115.485
G1 F2100 X114.88 Y136.85 E203.90807
G0 F6000 X115.153 Y137.143
G1 F2100 X136.518 Y115.778 E204.91301
G0 F6000 X136.791 Y116.071
G1 F2100 X115.425 Y137.436 E205.91798
G0 F6000 X115.698 Y137.729
G1 F2100 X137.063 Y116.364 E206.92292
G0 F6000 X137.336 Y116.657
G1 F2100 X115.971 Y138.022 E207.92787
G0 F6000 X116.243 Y138.315
G1 F2100 X137.608 Y116.951 E208.93279
G0 F6000 X137.881 Y117.243
G1 F2100 X116.516 Y138.608 E209.93773
G0 F6000 X116.179 Y138.921
G0 X116.709 Y139.384
G0 X118.906 Y137.438
G0 X118.591 Y137.099
G1 F2100 X138.154 Y117.536 E210.85791
G0 F6000 X138.426 Y117.829
G1 F2100 X126.704 Y129.551 E211.40928
G0 F6000 X127.019 Y129.89
G0 X135.132 Y122.341
G0 X134.818 Y122.003
G1 F2100 X138.699 Y118.122 E211.59183
G0 F6000 X139.256 Y117.605
;MESH:NONMESH
G0 F300 X139.256 Y117.605 Z0.6
G0 F6000 X141.51 Y118.367
G0 X142.295 Y118.089
;TIME_ELAPSED:281.904939
;LAYER:2
M106 S170
;TYPE:WALL-OUTER
;MESH:SquareVase.stl
G1 F1500 X142.269 Y118.773 E211.6146
G1 X116.91 Y142.295 E212.76502
G1 X116.226 Y142.27 E212.78778
G1 X92.703 Y116.912 E213.9382
G1 X92.731 Y116.227 E213.961
G1 X118.088 Y92.704 E215.11139
G1 X118.773 Y92.731 E215.13419
G1 X142.295 Y118.089 E216.28458
G0 F6000 X142.291 Y118.221
G1 F1500 X142.171 Y118.667 Z0.601 E216.29995
G1 X116.863 Y142.245 Z0.65 E217.45039
G1 X116.306 Y142.197 Z0.651 E217.46899
G1 X92.738 Y116.88 Z0.7 E218.61942
G1 X92.78 Y116.28 Z0.701 E218.63943
G1 X118.104 Y92.722 Z0.75 E219.78981
G1 X118.747 Y92.755 Z0.751 E219.81122
G1 X142.295 Y118.089 Z0.8 E220.96162
;TIME_ELAPSED:293.401918
;LAYER:3
M106 S255
;TYPE:WALL-OUTER
;MESH:SquareVase.stl
G1 F846.1 X142.162 Y118.874 Z0.801 E220.9881
G1 X116.995 Y142.249 Z0.85 E222.13051
G1 X116.098 Y142.186 Z0.851 E222.16042
G1 X92.733 Y117.011 Z0.9 E223.3028
G1 X92.789 Y116.072 Z0.901 E223.33409
G1 X117.973 Y92.715 Z0.95 E224.47651
G1 X118.955 Y92.764 Z0.951 E224.50921
G1 X142.302 Y117.957 Z1 E225.65162
;TIME_ELAPSED:303.422821
;LAYER:4
;TYPE:WALL-OUTER
;MESH:SquareVase.stl
G1 F848.5 X142.153 Y119.082 Z1.002 E225.68937
G1 X117.125 Y142.257 Z1.05 E226.82387
G1 X115.891 Y142.177 Z1.052 E226.865
G1 X92.727 Y117.142 Z1.1 E227.99942
G1 X92.798 Y115.864 Z1.102 E228.04199
G1 X117.843 Y92.709 Z1.15 E229.17645
G1 X119.163 Y92.773 Z1.152 E229.22041
G1 X142.307 Y117.829 Z1.2 E230.35489
;TIME_ELAPSED:313.443828
;LAYER:5
;TYPE:WALL-OUTER
;MESH:SquareVase.stl
G1 F850.8 X142.143 Y119.29 Z1.202 E230.40379
G1 X117.254 Y142.262 Z1.25 E231.53031
G1 X115.684 Y142.169 Z1.252 E231.58262
G1 X92.72 Y117.271 Z1.3 E232.70918
G1 X92.807 Y115.655 Z1.302 E232.76301
G1 X117.713 Y92.703 Z1.35 E233.88949
G1 X119.372 Y92.783 Z1.352 E233.94473
G1 X142.314 Y117.698 Z1.4 E235.07122
;TIME_ELAPSED:323.464952
;LAYER:6
;TYPE:WALL-OUTER
;MESH:SquareVase.stl
G1 F853.2 X142.134 Y119.498 Z1.403 E235.13138
G1 X117.383 Y142.27 Z1.45 E236.25002
G1 X115.475 Y142.159 Z1.453 E236.31359
G1 X92.713 Y117.398 Z1.5 E237.43225
G1 X92.816 Y115.447 Z1.503 E237.49723
G1 X117.586 Y92.696 Z1.55 E238.61586
G1 X119.58 Y92.791 Z1.553 E238.68225
G1 X142.32 Y117.571 Z1.6 E239.80088
;TIME_ELAPSED:333.486218
;LAYER:7
;TYPE:WALL-OUTER
;MESH:SquareVase.stl
