;FLAVOR:Marlin
;TIME:10231
;Filament used: 10.0142m
;Layer height: 0.25
;MINX:47.175
;MINY:47.143
;MINZ:0.2
;MAXX:187.891
;MAXY:187.79
;MAXZ:141.093
;TARGET_MACHINE.NAME:Creality Ender-3
;Generated with Cura_SteamEngine 5.7.1
M140 S50
M105
M190 S50
M104 S200
M105
M109 S200
M82 ;absolute extrusion mode
; Ender 3 Custom Start G-code
G92 E0 ; Reset Extruder
G28 ; Home all axes
G1 Z2.0 F3000 ; Move Z Axis up little to prevent scratching of Heat Bed
G1 X0.1 Y20 Z0.3 F5000.0 ; Move to start position
G1 X0.1 Y200.0 Z0.3 F1500.0 E15 ; Draw the first line
G1 X0.4 Y200.0 Z0.3 F5000.0 ; Move to side a little
G1 X0.4 Y20 Z0.3 F1500.0 E30 ; Draw the second line
G92 E0 ; Reset Extruder
G1 Z2.0 F3000 ; Move Z Axis up little to prevent scratching of Heat Bed
G1 X5 Y20 Z0.3 F5000.0 ; Move over to prevent blob squish
G92 E0
G92 E0
G1 F2700 E-5
;LAYER_COUNT:564
;LAYER:0
M107
;MESH:SquareVase.stl
G0 F6000 X115.794 Y167.267 Z0.2
;TYPE:WALL-OUTER
G1 F2700 E0
G1 F1200 X67.731 Y115.792 E2.34236
G1 X119.204 Y67.731 E4.68462
G1 X167.267 Y119.202 E7.02688
G1 X115.794 Y167.267 E9.36923
G0 F6000 X115.81 Y166.757
;TYPE:SKIN
G1 F1200 X68.235 Y115.81 E11.68767
G1 X119.186 Y68.235 E14.00621
G1 X166.757 Y119.182 E16.32457
G1 X115.81 Y166.757 E18.64301
G0 F6000 X115.979 Y166.325
G1 F1200 X111.468 Y161.814 E18.85519
G1 F2700 E13.85519
G0 F6000 X110.423 Y162.79
G0 X115.405 Y168.12
G0 X116.123 Y168.145
G0 X117.249 Y167.098
G0 X116.272 Y166.052
G1 F2700 E18.85519
G1 F1200 X103.485 Y153.265 E19.45665
G1 F2700 E14.45665
G0 F6000 X102.44 Y154.24
G0 X94.459 Y145.691
G0 X95.502 Y144.716
G1 F2700 E19.45665
G1 F1200 X116.564 Y165.778 E20.44735
G0 F6000 X116.856 Y165.505
G1 F1200 X87.518 Y136.167 E21.82732
G1 F2700 E16.82732
G0 F6000 X86.475 Y137.141
G0 X78.493 Y128.591
G0 X79.535 Y127.618
G1 F2700 E21.82732
G1 F1200 X117.149 Y165.232 E23.59656
G0 F6000 X117.441 Y164.959
G1 F1200 X71.551 Y119.069 E25.75509
G1 F2700 E20.75509
G0 F6000 X70.51 Y120.041
G0 X67.478 Y116.794
G0 X68.7 Y115.652
G1 F2700 E25.75509
G1 F1200 X117.734 Y164.686 E28.0615
G0 F6000 X118.027 Y164.413
G1 F1200 X68.992 Y115.379 E30.36793
G0 F6000 X69.284 Y115.105
G1 F1200 X118.319 Y164.139 E32.67436
G0 F6000 X118.612 Y163.866
G1 F1200 X69.577 Y114.832 E34.98079
G0 F6000 X69.87 Y114.559
G1 F1200 X118.904 Y163.593 E37.2872
G0 F6000 X119.197 Y163.32
G1 F1200 X70.163 Y114.286 E39.59361
G0 F6000 X70.455 Y114.012
G1 F1200 X119.489 Y163.047 E41.90004
G0 F6000 X119.782 Y162.774
G1 F1200 X70.747 Y113.74 E44.20648
G0 F6000 X71.04 Y113.467
G1 F1200 X120.075 Y162.501 E46.51291
G0 F6000 X120.367 Y162.227
G1 F1200 X71.332 Y113.193 E48.81934
G0 F6000 X71.625 Y112.92
G1 F1200 X120.659 Y161.954 E51.12575
G0 F6000 X120.952 Y161.681
G1 F1200 X71.918 Y112.647 E53.43216
G0 F6000 X72.21 Y112.373
G1 F1200 X121.244 Y161.408 E55.73859
G0 F6000 X121.537 Y161.135
G1 F1200 X72.502 Y112.1 E58.04505
G0 F6000 X72.795 Y111.828
G1 F1200 X121.83 Y160.862 E60.35148
G0 F6000 X122.122 Y160.588
G1 F1200 X73.088 Y111.555 E62.65787
G0 F6000 X73.38 Y111.281
G1 F1200 X122.414 Y160.315 E64.96428
G0 F6000 X122.707 Y160.042
G1 F1200 X73.673 Y111.008 E67.27069
G0 F6000 X73.965 Y110.735
G1 F1200 X122.999 Y159.769 E69.57709
G0 F6000 X123.292 Y159.496
G1 F1200 X74.258 Y110.461 E71.88353
G0 F6000 X74.55 Y110.188
G1 F1200 X123.585 Y159.223 E74.18998
G0 F6000 X123.877 Y158.949
G1 F1200 X74.843 Y109.916 E76.49637
G0 F6000 X75.135 Y109.642
G1 F1200 X124.169 Y158.676 E78.80278
G0 F6000 X124.462 Y158.403
G1 F1200 X75.428 Y109.369 E81.10919
G0 F6000 X75.721 Y109.096
G1 F1200 X124.755 Y158.13 E83.4156
G0 F6000 X125.047 Y157.857
G1 F1200 X76.013 Y108.823 E85.722
G0 F6000 X76.305 Y108.549
G1 F1200 X125.34 Y157.584 E88.02846
G0 F6000 X125.632 Y157.311
G1 F1200 X76.598 Y108.276 E90.33489
G0 F6000 X76.891 Y108.003
G1 F1200 X125.924 Y157.037 E92.64128
G0 F6000 X126.217 Y156.764
G1 F1200 X77.183 Y107.73 E94.94769
G0 F6000 X77.476 Y107.457
G1 F1200 X126.51 Y156.491 E97.2541
G0 F6000 X126.802 Y156.218
G1 F1200 X77.768 Y107.184 E99.56051
G0 F6000 X78.06 Y106.91
G1 F1200 X127.095 Y155.945 E101.86696
G0 F6000 X127.387 Y155.672
G1 F1200 X78.353 Y106.637 E104.17339
G0 F6000 X78.646 Y106.364
G1 F1200 X127.679 Y155.398 E106.47978
G0 F6000 X127.972 Y155.125
G1 F1200 X78.939 Y106.091 E108.78617
G0 F6000 X79.231 Y105.818
G1 F1200 X128.265 Y154.852 E111.09257
G0 F6000 X128.557 Y154.578
G1 F1200 X79.523 Y105.545 E113.39896
G0 F6000 X79.816 Y105.272
G1 F1200 X128.85 Y154.306 E115.70537
G0 F6000 X129.142 Y154.033
G1 F1200 X80.108 Y104.998 E118.0118
G0 F6000 X80.401 Y104.725
G1 F1200 X129.435 Y153.76 E120.31823
G0 F6000 X129.727 Y153.486
G1 F1200 X80.694 Y104.452 E122.62462
G0 F6000 X80.986 Y104.179
G1 F1200 X130.02 Y153.213 E124.93103
G0 F6000 X130.313 Y152.94
G1 F1200 X81.278 Y103.906 E127.23746
G0 F6000 X81.571 Y103.633
G1 F1200 X130.605 Y152.666 E129.54385
G0 F6000 X130.897 Y152.394
G1 F1200 X81.864 Y103.36 E131.85023
G0 F6000 X82.156 Y103.086
G1 F1200 X131.19 Y152.121 E134.15666
G0 F6000 X131.482 Y151.847
G1 F1200 X82.449 Y102.813 E136.46305
G0 F6000 X82.741 Y102.54
G1 F1200 X131.775 Y151.574 E138.76946
G0 F6000 X132.068 Y151.301
G1 F1200 X83.033 Y102.267 E141.07589
G0 F6000 X83.326 Y101.994
G1 F1200 X132.36 Y151.027 E143.38228
G0 F6000 X132.653 Y150.754
G1 F1200 X83.619 Y101.721 E145.68866
G0 F6000 X83.912 Y101.448
G1 F1200 X132.945 Y150.482 E147.99505
G0 F6000 X133.237 Y150.208
G1 F1200 X84.204 Y101.174 E150.30143
G0 F6000 X84.496 Y100.901
G1 F1200 X133.53 Y149.935 E152.60784
G0 F6000 X133.823 Y149.662
G1 F1200 X84.789 Y100.628 E154.91425
G0 F6000 X85.081 Y100.355
G1 F1200 X134.116 Y149.389 E157.22068
G0 F6000 X134.408 Y149.115
G1 F1200 X85.374 Y100.082 E159.52707
G0 F6000 X85.667 Y99.809
G1 F1200 X134.7 Y148.842 E161.83343
G0 F6000 X134.993 Y148.569
G1 F1200 X85.959 Y99.535 E164.13984
G0 F6000 X86.251 Y99.262
G1 F1200 X135.285 Y148.296 E166.44625
G0 F6000 X135.578 Y148.023
G1 F1200 X86.544 Y98.989 E168.75266
G0 F6000 X86.837 Y98.716
G1 F1200 X135.871 Y147.75 E171.05907
G0 F6000 X136.163 Y147.476
G1 F1200 X87.129 Y98.443 E173.36545
G0 F6000 X87.422 Y98.17
G1 F1200 X136.455 Y147.203 E175.67182
G0 F6000 X136.748 Y146.93
G1 F1200 X87.714 Y97.897 E177.9782
G0 F6000 X88.007 Y97.623
G1 F1200 X137.04 Y146.657 E180.28459
G0 F6000 X137.333 Y146.384
G1 F1200 X88.299 Y97.35 E182.591
G0 F6000 X88.592 Y97.077
G1 F1200 X137.626 Y146.111 E184.8974
G0 F6000 X137.918 Y145.837
G1 F1200 X88.885 Y96.804 E187.20377
G0 F6000 X89.177 Y96.531
G1 F1200 X138.21 Y145.564 E189.51013
G0 F6000 X138.503 Y145.291
G1 F1200 X89.47 Y96.258 E191.81649
G0 F6000 X89.762 Y95.985
G1 F1200 X138.795 Y145.018 E194.12285
G0 F6000 X139.088 Y144.745
G1 F1200 X90.054 Y95.711 E196.42926
G0 F6000 X90.347 Y95.438
G1 F1200 X139.381 Y144.472 E198.73567
G0 F6000 X139.673 Y144.199
G1 F1200 X90.64 Y95.165 E201.04206
G0 F6000 X90.932 Y94.892
G1 F1200 X139.965 Y143.925 E203.34842
G0 F6000 X140.258 Y143.652
G1 F1200 X91.225 Y94.619 E205.65478
G0 F6000 X91.517 Y94.346
G1 F1200 X140.551 Y143.379 E207.96117
G0 F6000 X140.843 Y143.106
G1 F1200 X91.81 Y94.073 E210.26753
G0 F6000 X92.102 Y93.799
G1 F1200 X141.136 Y142.833 E212.57394
G0 F6000 X141.428 Y142.56
G1 F1200 X92.395 Y93.526 E214.88032
G0 F6000 X92.688 Y93.253
G1 F1200 X141.72 Y142.286 E217.18666
G0 F6000 X142.013 Y142.013
G1 F1200 X92.98 Y92.98 E219.49302
G0 F6000 X93.272 Y92.707
G1 F1200 X142.306 Y141.74 E221.79941
G0 F6000 X142.598 Y141.467
G1 F1200 X93.565 Y92.434 E224.10577
G0 F6000 X93.857 Y92.16
G1 F1200 X142.891 Y141.194 E226.41218
G0 F6000 X143.183 Y140.921
G1 F1200 X94.15 Y91.887 E228.71856
G0 F6000 X94.443 Y91.614
G1 F1200 X143.476 Y140.647 E231.02493
G0 F6000 X143.768 Y140.374
G1 F1200 X94.735 Y91.341 E233.33129
G0 F6000 X95.027 Y91.068
G1 F1200 X144.061 Y140.101 E235.63767
G0 F6000 X144.354 Y139.828
G1 F1200 X95.32 Y90.795 E237.94406
G0 F6000 X95.613 Y90.522
G1 F1200 X144.646 Y139.555 E240.25042
G0 F6000 X144.939 Y139.282
G1 F1200 X95.905 Y90.248 E242.55683
G0 F6000 X96.198 Y89.975
G1 F1200 X145.231 Y139.009 E244.86322
G0 F6000 X145.523 Y138.735
G1 F1200 X96.49 Y89.702 E247.16958
G0 F6000 X96.782 Y89.429
G1 F1200 X145.816 Y138.462 E249.47596
G0 F6000 X146.109 Y138.189
G1 F1200 X97.075 Y89.156 E251.78235
G0 F6000 X97.368 Y88.883
G1 F1200 X146.401 Y137.916 E254.08871
G0 F6000 X146.694 Y137.643
G1 F1200 X97.661 Y88.61 E256.39507
G0 F6000 X97.953 Y88.336
G1 F1200 X146.986 Y137.37 E258.70146
G0 F6000 X147.278 Y137.096
G1 F1200 X98.245 Y88.063 E261.00782
G0 F6000 X98.538 Y87.79
G1 F1200 X147.571 Y136.823 E263.31418
G0 F6000 X147.864 Y136.55
G1 F1200 X98.83 Y87.516 E265.62059
G0 F6000 X99.123 Y87.244
G1 F1200 X148.156 Y136.276 E267.92693
G0 F6000 X148.449 Y136.004
G1 F1200 X99.416 Y86.971 E270.23329
G0 F6000 X99.708 Y86.698
G1 F1200 X148.741 Y135.731 E272.53965
G0 F6000 X149.034 Y135.458
G1 F1200 X100 Y86.424 E274.84606
G0 F6000 X100.293 Y86.151
G1 F1200 X149.326 Y135.184 E277.15242
G0 F6000 X149.619 Y134.911
G1 F1200 X100.586 Y85.878 E279.45879
G0 F6000 X100.878 Y85.604
G1 F1200 X149.912 Y134.638 E281.7652
G0 F6000 X150.204 Y134.364
G1 F1200 X101.171 Y85.332 E284.07153
G0 F6000 X101.463 Y85.059
G1 F1200 X150.496 Y134.091 E286.37787
G0 F6000 X150.789 Y133.819
G1 F1200 X101.755 Y84.785 E288.68428
G0 F6000 X102.048 Y84.512
G1 F1200 X151.081 Y133.545 E290.99064
G0 F6000 X151.374 Y133.272
G1 F1200 X102.341 Y84.239 E293.29701
G0 F6000 X102.634 Y83.966
G1 F1200 X151.667 Y132.999 E295.60337
G0 F6000 X151.959 Y132.725
G1 F1200 X102.926 Y83.692 E297.90973
G0 F6000 X103.218 Y83.42
G1 F1200 X152.251 Y132.452 E300.21607
G0 F6000 X152.544 Y132.179
G1 F1200 X103.511 Y83.147 E302.52241
G0 F6000 X103.803 Y82.873
G1 F1200 X152.836 Y131.906 E304.82877
G0 F6000 X153.129 Y131.633
G1 F1200 X104.096 Y82.6 E307.13513
G0 F6000 X104.389 Y82.327
G1 F1200 X153.422 Y131.36 E309.44149
G0 F6000 X153.714 Y131.087
G1 F1200 X104.681 Y82.053 E311.74788
G0 F6000 X104.974 Y81.78
G1 F1200 X154.006 Y130.813 E314.05422
G0 F6000 X154.299 Y130.54
G1 F1200 X105.266 Y81.507 E316.36058
G0 F6000 X105.559 Y81.235
G1 F1200 X154.592 Y130.267 E318.66692
G0 F6000 X154.884 Y129.994
G1 F1200 X105.851 Y80.961 E320.97328
G0 F6000 X106.144 Y80.688
G1 F1200 X155.177 Y129.721 E323.27964
G0 F6000 X155.469 Y129.448
G1 F1200 X106.437 Y80.415 E325.58598
G0 F6000 X106.729 Y80.141
G1 F1200 X155.761 Y129.174 E327.89232
G0 F6000 X156.054 Y128.901
G1 F1200 X107.021 Y79.868 E330.19868
G0 F6000 X107.314 Y79.595
G1 F1200 X156.347 Y128.628 E332.50504
G0 F6000 X156.639 Y128.355
G1 F1200 X107.607 Y79.323 E334.81136
G0 F6000 X107.899 Y79.049
G1 F1200 X156.932 Y128.082 E337.11772
G0 F6000 X157.224 Y127.809
G1 F1200 X108.192 Y78.776 E339.42406
G0 F6000 X108.484 Y78.503
G1 F1200 X157.517 Y127.535 E341.7304
G0 F6000 X157.809 Y127.262
G1 F1200 X108.776 Y78.229 E344.03676
G0 F6000 X109.069 Y77.956
G1 F1200 X158.102 Y126.989 E346.34312
G0 F6000 X158.394 Y126.716
G1 F1200 X109.362 Y77.683 E348.64946
G0 F6000 X109.654 Y77.41
G1 F1200 X158.687 Y126.443 E350.95582
G0 F6000 X158.98 Y126.17
G1 F1200 X109.947 Y77.137 E353.26218
G0 F6000 X110.239 Y76.864
G1 F1200 X159.272 Y125.897 E355.56854
G0 F6000 X159.564 Y125.623
G1 F1200 X110.532 Y76.591 E357.87486
G0 F6000 X110.824 Y76.317
G1 F1200 X159.857 Y125.35 E360.18122
G0 F6000 X160.15 Y125.077
G1 F1200 X111.117 Y76.044 E362.48758
G0 F6000 X111.41 Y75.771
G1 F1200 X160.442 Y124.804 E364.79392
G0 F6000 X160.735 Y124.531
G1 F1200 X111.702 Y75.498 E367.10028
G0 F6000 X111.994 Y75.225
G1 F1200 X161.027 Y124.258 E369.40665
G0 F6000 X161.319 Y123.984
G1 F1200 X112.287 Y74.952 E371.71296
G0 F6000 X112.579 Y74.678
G1 F1200 X161.612 Y123.711 E374.01932
G0 F6000 X161.905 Y123.438
G1 F1200 X112.872 Y74.405 E376.32568
G0 F6000 X113.165 Y74.132
G1 F1200 X162.197 Y123.165 E378.63202
G0 F6000 X162.49 Y122.892
G1 F1200 X113.457 Y73.859 E380.93838
G0 F6000 X113.749 Y73.586
G1 F1200 X162.782 Y122.619 E383.24475
G0 F6000 X163.074 Y122.345
G1 F1200 X114.042 Y73.313 E385.55106
G0 F6000 X114.335 Y73.04
G1 F1200 X163.367 Y122.072 E387.85738
G0 F6000 X163.66 Y121.799
G1 F1200 X114.627 Y72.766 E390.16374
G0 F6000 X114.92 Y72.493
G1 F1200 X163.953 Y121.526 E392.4701
G0 F6000 X164.245 Y121.253
G1 F1200 X115.212 Y72.22 E394.77646
G0 F6000 X115.504 Y71.947
G1 F1200 X164.537 Y120.98 E397.08282
G0 F6000 X164.83 Y120.707
G1 F1200 X115.797 Y71.674 E399.38919
G0 F6000 X116.09 Y71.401
G1 F1200 X165.122 Y120.433 E401.6955
G0 F6000 X165.415 Y120.16
G1 F1200 X116.383 Y71.128 E404.00182
G0 F6000 X116.675 Y70.854
G1 F1200 X165.708 Y119.887 E406.30818
G0 F6000 X166 Y119.613
G1 F1200 X116.967 Y70.581 E408.61452
G0 F6000 X117.26 Y70.308
G1 F1200 X166.292 Y119.341 E410.92086
G1 F2700 E405.92086
G0 F6000 X167.273 Y120.391
G0 X168.12 Y119.595
G0 X168.145 Y118.877
G0 X164.486 Y114.954
G0 X163.445 Y115.927
G1 F2700 E410.92086
G1 F1200 X117.552 Y70.035 E413.0795
G0 F6000 X117.845 Y69.762
G1 F1200 X155.472 Y107.389 E414.84936
G1 F2700 E409.84936
G0 F6000 X156.515 Y106.416
G0 X148.542 Y97.878
G0 X147.5 Y98.851
G1 F2700 E414.84936
G1 F1200 X118.138 Y69.489 E416.23046
G0 F6000 X118.43 Y69.216
G1 F1200 X139.527 Y90.312 E417.22277
G1 F2700 E412.22277
G0 F6000 X140.569 Y89.338
G0 X132.596 Y80.8
G0 X131.554 Y81.774
G1 F2700 E417.22277
G1 F1200 X118.723 Y68.942 E417.82632
G0 F6000 X119.015 Y68.669
G1 F1200 X123.582 Y73.236 E418.04114
G1 F2700 E413.04114
;MESH:NONMESH
G0 F300 X123.582 Y73.236 Z0.45
G0 F6000 X124.625 Y72.262
G0 X168.145 Y118.877
G0 X168.12 Y119.595
G0 X116.123 Y168.145
G0 X115.405 Y168.12
G0 X113.868 Y166.478
G0 X115.845 Y164.631
;TIME_ELAPSED:651.763886
;LAYER:1
M106 S127.5
;TYPE:WALL-INNER
;MESH:SquareVase.stl
G1 F2700 E418.04114
G1 F1350 X164.631 Y119.151 E420.81409
G1 X119.151 Y70.363 E423.58709
G1 X70.363 Y115.845 E426.36015
G1 X115.845 Y164.631 E429.13315
G0 F7500 X115.825 Y165.197
G1 F1350 X165.197 Y119.171 E431.93939
G1 X119.171 Y69.798 E434.74567
G1 X69.798 Y115.825 E437.55197
G1 X115.825 Y165.197 E440.35824
G0 F7500 X115.805 Y165.762
G1 F1350 X165.762 Y119.191 E443.19772
G1 X119.191 Y69.232 E446.03727
G1 X69.232 Y115.805 E448.87687
G1 X115.805 Y165.762 E451.71641
G0 F7500 X115.785 Y166.327
G1 F1350 X166.327 Y119.211 E454.58913
G1 X119.211 Y68.667 E457.46192
G1 X68.667 Y115.785 E460.33476
G1 X115.785 Y166.327 E463.20754
G0 F7500 X115.792 Y166.866
G1 F1350 X166.865 Y119.257 E466.11039
G1 X166.866 Y119.204 E466.11259
G1 X119.258 Y68.131 E469.01541
G1 X119.203 Y68.129 E469.0177
G1 X68.131 Y115.738 E471.92052
G1 X68.129 Y115.793 E471.92281
G1 X115.739 Y166.865 E474.82565
G1 X115.792 Y166.866 E474.82786
G0 F7500 X115.944 Y167.272
;TYPE:WALL-OUTER
G1 F1350 X167.259 Y119.437 E477.74447
G1 X167.272 Y119.052 E477.76049
G1 X119.438 Y67.737 E480.67708
G1 X119.052 Y67.723 E480.69313
G1 X67.737 Y115.558 E483.60975
G1 X67.723 Y115.944 E483.62581
G1 X115.559 Y167.259 E486.54245
G1 X115.944 Y167.272 E486.55847
G0 F7500 X115.779 Y166.518
G0 X116.039 Y164.313
G0 X115.862 Y164.121
;TYPE:SKIN
G1 F1350 X70.871 Y115.862 E489.30152
G1 X119.134 Y70.871 E492.0447
G1 X164.121 Y119.134 E494.78776
G1 X115.862 Y164.121 E497.5307
G1 F2700 E492.5307
G0 F7500 X116.039 Y164.313
G0 X164.388 Y119.143
G0 X164.118 Y118.748
G0 X163.779 Y119.063
G1 F2700 E497.5307
G1 F1350 X162.086 Y120.757 E497.63027
G0 F7500 X162.4 Y121.095
G0 X164.388 Y119.143
G0 X163.845 Y118.455
G0 X163.507 Y118.77
G1 F1350 X153.744 Y128.533 E498.2043
G0 F7500 X154.058 Y128.871
G0 X145.717 Y136.648
G0 X145.402 Y136.309
G1 F1350 X163.234 Y118.477 E499.25275
G0 F7500 X162.961 Y118.184
G1 F1350 X137.061 Y144.085 E500.7756
G0 F7500 X137.375 Y144.423
G0 X129.034 Y152.199
G0 X128.719 Y151.861
G1 F1350 X162.688 Y117.892 E502.77285
G0 F7500 X162.415 Y117.599
G1 F1350 X120.377 Y159.637 E505.24452
G0 F7500 X120.692 Y159.976
G0 X115.853 Y164.388
G0 X115.408 Y164.017
G0 X115.747 Y163.702
G1 F1350 X162.142 Y117.306 E507.9724
G0 F7500 X161.869 Y117.013
G1 F1350 X115.474 Y163.409 E510.70028
G0 F7500 X115.201 Y163.116
G1 F1350 X161.597 Y116.721 E513.42815
G0 F7500 X161.324 Y116.428
G1 F1350 X114.928 Y162.823 E516.15603
G0 F7500 X114.655 Y162.531
G1 F1350 X161.051 Y116.135 E518.88394
G0 F7500 X160.778 Y115.842
G1 F1350 X114.382 Y162.238 E521.61185
G0 F7500 X114.109 Y161.945
