;FLAVOR:Marlin
;TIME:23315
;Filament used: 21.1849m
;Layer height: 0.23
;MINX:11.84
;MINY:11.809
;MINZ:0.2
;MAXX:223.222
;MAXY:223.129
;MAXZ:211.455
;TARGET_MACHINE.NAME:Creality Ender-3
;Generated with Cura_SteamEngine 5.7.1
M140 S50
M105
M190 S50
M104 S200
M105
M109 S200
M82 ;absolute extrusion mode
; Ender 3 Custom Start G-code
G92 E0 ; Reset Extruder
G28 ; Home all axes
G1 Z2.0 F3000 ; Move Z Axis up little to prevent scratching of Heat Bed
G1 X0.1 Y20 Z0.3 F5000.0 ; Move to start position
G1 X0.1 Y200.0 Z0.3 F1500.0 E15 ; Draw the first line
G1 X0.4 Y200.0 Z0.3 F5000.0 ; Move to side a little
G1 X0.4 Y20 Z0.3 F1500.0 E30 ; Draw the second line
G92 E0 ; Reset Extruder
G1 Z2.0 F3000 ; Move Z Axis up little to prevent scratching of Heat Bed
G1 X5 Y20 Z0.3 F5000.0 ; Move over to prevent blob squish
G92 E0
G92 E0
;LAYER_COUNT:919
;LAYER:0
M107
;MESH:SquareVase.stl
G0 F6000 X114.946 Y192.251 Z0.2
;TYPE:WALL-OUTER
G1 F1200 X42.745 Y114.942 E3.5183
G1 X120.054 Y42.745 E7.0365
G1 X192.251 Y120.054 E10.55471
G1 X114.946 Y192.251 E14.07282
G0 F6000 X114.962 Y191.741
;TYPE:SKIN
G1 F1200 X43.251 Y114.958 E17.56721
G1 X120.034 Y43.251 E21.06151
G1 X191.741 Y120.034 E24.5558
G1 X114.962 Y191.741 E28.05
G0 F6000 X115.033 Y191.4
G1 F1200 X113.292 Y189.659 E28.13189
G0 F6000 X112.245 Y190.636
G0 X114.557 Y193.106
G0 X115.275 Y193.131
G0 X116.305 Y192.174
G0 X115.326 Y191.127
G1 F1200 X105.295 Y181.096 E28.60372
G0 F6000 X104.248 Y182.073
G0 X96.251 Y173.51
G0 X97.297 Y172.533
G1 F1200 X115.618 Y190.854 E29.46548
G0 F6000 X115.91 Y190.581
G1 F1200 X89.3 Y163.97 E30.71716
G0 F6000 X88.254 Y164.947
G0 X80.257 Y156.384
G0 X81.302 Y155.407
G1 F1200 X116.203 Y190.308 E32.3588
G0 F6000 X116.496 Y190.035
G1 F1200 X73.305 Y146.844 E34.39037
G0 F6000 X72.26 Y147.821
G0 X64.262 Y139.257
G0 X65.307 Y138.28
G1 F1200 X116.788 Y189.761 E36.81188
G0 F6000 X117.081 Y189.488
G1 F1200 X57.31 Y129.717 E39.62332
G0 F6000 X56.264 Y130.693
G0 X48.267 Y122.13
G0 X49.312 Y121.154
G1 F1200 X117.373 Y189.215 E42.8247
G0 F6000 X117.665 Y188.942
G1 F1200 X43.616 Y114.892 E46.30776
G0 F6000 X43.909 Y114.619
G1 F1200 X117.958 Y188.669 E49.79083
G0 F6000 X118.251 Y188.396
G1 F1200 X44.201 Y114.346 E53.27391
G0 F6000 X44.493 Y114.073
G1 F1200 X118.543 Y188.122 E56.75697
G0 F6000 X118.836 Y187.849
G1 F1200 X44.786 Y113.8 E60.24003
G0 F6000 X45.079 Y113.527
G1 F1200 X119.128 Y187.576 E63.72307
G0 F6000 X119.42 Y187.303
G1 F1200 X45.371 Y113.253 E67.20613
G0 F6000 X45.664 Y112.98
G1 F1200 X119.713 Y187.03 E70.68919
G0 F6000 X120.006 Y186.757
G1 F1200 X45.956 Y112.707 E74.17228
G0 F6000 X46.248 Y112.434
G1 F1200 X120.298 Y186.483 E77.65534
G0 F6000 X120.591 Y186.21
G1 F1200 X46.541 Y112.161 E81.1384
G0 F6000 X46.834 Y111.888
G1 F1200 X120.883 Y185.937 E84.62144
G0 F6000 X121.175 Y185.664
G1 F1200 X47.126 Y111.614 E88.1045
G0 F6000 X47.419 Y111.341
G1 F1200 X121.468 Y185.391 E91.58756
G0 F6000 X121.761 Y185.118
G1 F1200 X47.711 Y111.068 E95.07065
G0 F6000 X48.003 Y110.794
G1 F1200 X122.053 Y184.844 E98.55373
G0 F6000 X122.346 Y184.571
G1 F1200 X48.296 Y110.521 E102.03682
G0 F6000 X48.589 Y110.249
G1 F1200 X122.638 Y184.298 E105.51986
G0 F6000 X122.931 Y184.025
G1 F1200 X48.881 Y109.975 E109.00294
G0 F6000 X49.174 Y109.702
G1 F1200 X123.223 Y183.752 E112.486
G0 F6000 X123.516 Y183.479
G1 F1200 X49.466 Y109.429 E115.96909
G0 F6000 X49.758 Y109.155
G1 F1200 X123.808 Y183.205 E119.45217
G0 F6000 X124.101 Y182.932
G1 F1200 X50.051 Y108.882 E122.93526
G0 F6000 X50.344 Y108.609
G1 F1200 X124.393 Y182.658 E126.4183
G0 F6000 X124.686 Y182.385
G1 F1200 X50.636 Y108.336 E129.90136
G0 F6000 X50.929 Y108.063
G1 F1200 X124.978 Y182.113 E133.38442
G0 F6000 X125.27 Y181.839
G1 F1200 X51.221 Y107.79 E136.86746
G0 F6000 X51.513 Y107.516
G1 F1200 X125.563 Y181.566 E140.35054
G0 F6000 X125.856 Y181.293
G1 F1200 X51.806 Y107.243 E143.83363
G0 F6000 X52.099 Y106.97
G1 F1200 X126.148 Y181.019 E147.31666
G0 F6000 X126.441 Y180.746
G1 F1200 X52.391 Y106.697 E150.79973
G0 F6000 X52.684 Y106.424
G1 F1200 X126.733 Y180.473 E154.28276
G0 F6000 X127.025 Y180.2
G1 F1200 X52.976 Y106.151 E157.7658
G0 F6000 X53.268 Y105.877
G1 F1200 X127.318 Y179.927 E161.24889
G0 F6000 X127.611 Y179.654
G1 F1200 X53.561 Y105.604 E164.73197
G0 F6000 X53.854 Y105.331
G1 F1200 X127.903 Y179.38 E168.21501
G0 F6000 X128.196 Y179.107
G1 F1200 X54.146 Y105.058 E171.69807
G0 F6000 X54.439 Y104.785
G1 F1200 X128.488 Y178.834 E175.18111
G0 F6000 X128.78 Y178.561
G1 F1200 X54.731 Y104.512 E178.66415
G0 F6000 X55.024 Y104.238
G1 F1200 X129.073 Y178.288 E182.14721
G0 F6000 X129.366 Y178.015
G1 F1200 X55.316 Y103.965 E185.63029
G0 F6000 X55.609 Y103.692
G1 F1200 X129.658 Y177.741 E189.11333
G0 F6000 X129.951 Y177.468
G1 F1200 X55.901 Y103.419 E192.59639
G0 F6000 X56.194 Y103.146
G1 F1200 X130.243 Y177.195 E196.07943
G0 F6000 X130.535 Y176.922
G1 F1200 X56.487 Y102.873 E199.56244
G0 F6000 X56.779 Y102.6
G1 F1200 X130.828 Y176.649 E203.04548
G0 F6000 X131.121 Y176.376
G1 F1200 X57.071 Y102.326 E206.52857
G0 F6000 X57.364 Y102.053
G1 F1200 X131.413 Y176.102 E210.01161
G0 F6000 X131.706 Y175.829
G1 F1200 X57.657 Y101.78 E213.49464
G0 F6000 X57.949 Y101.507
G1 F1200 X131.998 Y175.556 E216.97768
G0 F6000 X132.29 Y175.283
G1 F1200 X58.242 Y101.234 E220.4607
G0 F6000 X58.534 Y100.961
G1 F1200 X132.583 Y175.01 E223.94373
G0 F6000 X132.876 Y174.737
G1 F1200 X58.826 Y100.687 E227.42682
G0 F6000 X59.119 Y100.414
G1 F1200 X133.168 Y174.463 E230.90986
G0 F6000 X133.461 Y174.19
G1 F1200 X59.412 Y100.141 E234.39289
G0 F6000 X59.704 Y99.868
G1 F1200 X133.753 Y173.917 E237.87593
G0 F6000 X134.046 Y173.644
G1 F1200 X59.997 Y99.595 E241.35897
G0 F6000 X60.289 Y99.322
G1 F1200 X134.338 Y173.371 E244.84201
G0 F6000 X134.631 Y173.098
G1 F1200 X60.581 Y99.048 E248.32509
G0 F6000 X60.874 Y98.775
G1 F1200 X134.923 Y172.824 E251.80813
G0 F6000 X135.216 Y172.551
G1 F1200 X61.167 Y98.502 E255.29117
G0 F6000 X61.459 Y98.228
G1 F1200 X135.509 Y172.278 E258.77425
G0 F6000 X135.801 Y172.004
G1 F1200 X61.752 Y97.956 E262.25727
G0 F6000 X62.044 Y97.683
G1 F1200 X136.093 Y171.731 E265.74028
G0 F6000 X136.386 Y171.459
G1 F1200 X62.336 Y97.409 E269.22337
G0 F6000 X62.629 Y97.136
G1 F1200 X136.678 Y171.185 E272.70641
G0 F6000 X136.971 Y170.912
G1 F1200 X62.922 Y96.863 E276.18944
G0 F6000 X63.214 Y96.589
G1 F1200 X137.264 Y170.639 E279.67253
G0 F6000 X137.556 Y170.365
G1 F1200 X63.507 Y96.316 E283.15557
G0 F6000 X63.799 Y96.043
G1 F1200 X137.848 Y170.092 E286.6386
G0 F6000 X138.141 Y169.819
G1 F1200 X64.091 Y95.77 E290.12167
G0 F6000 X64.384 Y95.497
G1 F1200 X138.433 Y169.546 E293.6047
G0 F6000 X138.726 Y169.273
G1 F1200 X64.677 Y95.224 E297.08774
G0 F6000 X64.969 Y94.95
G1 F1200 X139.019 Y169 E300.57083
G0 F6000 X139.311 Y168.726
G1 F1200 X65.262 Y94.677 E304.05386
G0 F6000 X65.554 Y94.404
G1 F1200 X139.603 Y168.453 E307.5369
G0 F6000 X139.895 Y168.18
G1 F1200 X65.846 Y94.131 E311.01994
G0 F6000 X66.139 Y93.858
G1 F1200 X140.188 Y167.907 E314.50298
G0 F6000 X140.481 Y167.634
G1 F1200 X66.432 Y93.585 E317.98602
G0 F6000 X66.724 Y93.311
G1 F1200 X140.773 Y167.36 E321.46905
G0 F6000 X141.066 Y167.087
G1 F1200 X67.017 Y93.038 E324.95209
G0 F6000 X67.309 Y92.765
G1 F1200 X141.358 Y166.814 E328.43513
G0 F6000 X141.65 Y166.541
G1 F1200 X67.602 Y92.492 E331.91814
G0 F6000 X67.894 Y92.219
G1 F1200 X141.943 Y166.268 E335.40118
G0 F6000 X142.236 Y165.995
G1 F1200 X68.187 Y91.946 E338.88422
G0 F6000 X68.479 Y91.672
G1 F1200 X142.528 Y165.721 E342.36726
G0 F6000 X142.821 Y165.448
G1 F1200 X68.772 Y91.399 E345.8503
G0 F6000 X69.065 Y91.126
G1 F1200 X143.113 Y165.175 E349.33331
G0 F6000 X143.405 Y164.902
G1 F1200 X69.357 Y90.853 E352.81633
G0 F6000 X69.649 Y90.58
G1 F1200 X143.698 Y164.629 E356.29936
G0 F6000 X143.991 Y164.356
G1 F1200 X69.942 Y90.307 E359.7824
G0 F6000 X70.234 Y90.033
G1 F1200 X144.283 Y164.082 E363.26544
G0 F6000 X144.576 Y163.809
G1 F1200 X70.527 Y89.76 E366.74848
G0 F6000 X70.82 Y89.487
G1 F1200 X144.869 Y163.536 E370.23152
G0 F6000 X145.161 Y163.262
G1 F1200 X71.112 Y89.214 E373.71453
G0 F6000 X71.404 Y88.941
G1 F1200 X145.453 Y162.99 E377.19757
G0 F6000 X145.746 Y162.717
G1 F1200 X71.697 Y88.668 E380.68061
G0 F6000 X71.989 Y88.394
G1 F1200 X146.038 Y162.443 E384.16364
G0 F6000 X146.331 Y162.17
G1 F1200 X72.282 Y88.121 E387.64668
G0 F6000 X72.575 Y87.848
G1 F1200 X146.624 Y161.897 E391.12972
G0 F6000 X146.916 Y161.623
G1 F1200 X72.867 Y87.574 E394.61276
G0 F6000 X73.159 Y87.302
G1 F1200 X147.208 Y161.35 E398.09577
G0 F6000 X147.501 Y161.078
G1 F1200 X73.452 Y87.029 E401.57881
G0 F6000 X73.744 Y86.755
G1 F1200 X147.793 Y160.804 E405.06185
G0 F6000 X148.086 Y160.531
G1 F1200 X74.037 Y86.482 E408.54489
G0 F6000 X74.33 Y86.209
G1 F1200 X148.379 Y160.258 E412.02792
G0 F6000 X148.671 Y159.984
G1 F1200 X74.622 Y85.935 E415.51096
G0 F6000 X74.914 Y85.662
G1 F1200 X148.963 Y159.711 E418.994
G0 F6000 X149.256 Y159.438
G1 F1200 X75.207 Y85.39 E422.47701
G0 F6000 X75.499 Y85.116
G1 F1200 X149.548 Y159.165 E425.96005
G0 F6000 X149.841 Y158.892
G1 F1200 X75.792 Y84.843 E429.44309
G0 F6000 X76.085 Y84.57
G1 F1200 X150.134 Y158.619 E432.92613
G0 F6000 X150.426 Y158.345
G1 F1200 X76.377 Y84.296 E436.40917
G0 F6000 X76.669 Y84.023
G1 F1200 X150.718 Y158.072 E439.8922
G0 F6000 X151.011 Y157.799
G1 F1200 X76.962 Y83.75 E443.37524
G0 F6000 X77.255 Y83.477
G1 F1200 X151.303 Y157.526 E446.85826
G0 F6000 X151.596 Y157.253
G1 F1200 X77.547 Y83.204 E450.34129
G0 F6000 X77.84 Y82.931
G1 F1200 X151.889 Y156.98 E453.82433
G0 F6000 X152.181 Y156.706
G1 F1200 X78.132 Y82.658 E457.30735
G0 F6000 X78.425 Y82.384
G1 F1200 X152.473 Y156.433 E460.79036
G0 F6000 X152.766 Y156.16
G1 F1200 X78.717 Y82.111 E464.2734
G0 F6000 X79.01 Y81.838
G1 F1200 X153.058 Y155.887 E467.75641
G0 F6000 X153.351 Y155.614
G1 F1200 X79.302 Y81.565 E471.23945
G0 F6000 X79.595 Y81.292
G1 F1200 X153.644 Y155.341 E474.72249
G0 F6000 X153.936 Y155.067
G1 F1200 X79.888 Y81.019 E478.20548
G0 F6000 X80.18 Y80.745
G1 F1200 X154.228 Y154.794 E481.68849
G0 F6000 X154.521 Y154.521
G1 F1200 X80.472 Y80.472 E485.17153
G0 F6000 X80.765 Y80.199
G1 F1200 X154.813 Y154.248 E488.65455
G0 F6000 X155.106 Y153.975
G1 F1200 X81.057 Y79.926 E492.13758
G0 F6000 X81.35 Y79.653
G1 F1200 X155.398 Y153.701 E495.62057
G0 F6000 X155.691 Y153.428
G1 F1200 X81.643 Y79.38 E499.10357
G0 F6000 X81.935 Y79.106
G1 F1200 X155.984 Y153.155 E502.5866
G0 F6000 X156.276 Y152.881
G1 F1200 X82.227 Y78.833 E506.06962
G0 F6000 X82.52 Y78.56
G1 F1200 X156.568 Y152.608 E509.55261
G0 F6000 X156.861 Y152.336
G1 F1200 X82.812 Y78.287 E513.03565
G0 F6000 X83.105 Y78.014
G1 F1200 X157.153 Y152.062 E516.51864
G0 F6000 X157.446 Y151.789
G1 F1200 X83.398 Y77.741 E520.00163
G0 F6000 X83.69 Y77.467
G1 F1200 X157.739 Y151.516 E523.48467
G0 F6000 X158.031 Y151.242
G1 F1200 X83.982 Y77.194 E526.96768
G0 F6000 X84.275 Y76.921
G1 F1200 X158.323 Y150.969 E530.45067
G0 F6000 X158.616 Y150.696
G1 F1200 X84.567 Y76.648 E533.93369
G0 F6000 X84.86 Y76.375
G1 F1200 X158.908 Y150.423 E537.41668
G0 F6000 X159.201 Y150.15
G1 F1200 X85.153 Y76.102 E540.89967
G0 F6000 X85.445 Y75.828
G1 F1200 X159.494 Y149.877 E544.38271
G0 F6000 X159.786 Y149.603
G1 F1200 X85.737 Y75.555 E547.86572
G0 F6000 X86.03 Y75.282
G1 F1200 X160.078 Y149.33 E551.34871
G0 F6000 X160.371 Y149.057
G1 F1200 X86.322 Y75.008 E554.83175
G0 F6000 X86.615 Y74.736
G1 F1200 X160.663 Y148.784 E558.31474
G0 F6000 X160.956 Y148.511
G1 F1200 X86.908 Y74.463 E561.79773
G0 F6000 X87.2 Y74.189
G1 F1200 X161.249 Y148.238 E565.28077
G0 F6000 X161.541 Y147.964
G1 F1200 X87.492 Y73.916 E568.76378
G0 F6000 X87.785 Y73.643
G1 F1200 X161.833 Y147.691 E572.24677
G0 F6000 X162.126 Y147.418
G1 F1200 X88.077 Y73.369 E575.72981
G0 F6000 X88.37 Y73.096
G1 F1200 X162.418 Y147.145 E579.21283
G0 F6000 X162.711 Y146.872
G1 F1200 X88.663 Y72.824 E582.69582
G0 F6000 X88.955 Y72.55
G1 F1200 X163.004 Y146.599 E586.17886
G0 F6000 X163.296 Y146.325
G1 F1200 X89.247 Y72.277 E589.66187
G0 F6000 X89.54 Y72.004
G1 F1200 X163.588 Y146.052 E593.14486
G0 F6000 X163.881 Y145.779
G1 F1200 X89.832 Y71.73 E596.6279
G0 F6000 X90.125 Y71.457
G1 F1200 X164.173 Y145.506 E600.11091
G0 F6000 X164.466 Y145.233
G1 F1200 X90.418 Y71.184 E603.59393
G0 F6000 X90.71 Y70.911
G1 F1200 X164.759 Y144.96 E607.07697
G0 F6000 X165.051 Y144.686
G1 F1200 X91.003 Y70.638 E610.55996
G0 F6000 X91.295 Y70.365
G1 F1200 X165.343 Y144.413 E614.04295
G0 F6000 X165.636 Y144.14
G1 F1200 X91.587 Y70.091 E617.52599
G0 F6000 X91.88 Y69.818
G1 F1200 X165.928 Y143.867 E621.009
G0 F6000 X166.221 Y143.594
G1 F1200 X92.173 Y69.545 E624.49201
G0 F6000 X92.465 Y69.272
G1 F1200 X166.514 Y143.321 E627.97505
G0 F6000 X166.806 Y143.047
G1 F1200 X92.758 Y68.999 E631.45804
G0 F6000 X93.05 Y68.726
G1 F1200 X167.099 Y142.774 E634.94106
G0 F6000 X167.391 Y142.501
G1 F1200 X93.342 Y68.452 E638.4241
G0 F6000 X93.635 Y68.179
G1 F1200 X167.683 Y142.227 E641.90709
G0 F6000 X167.976 Y141.955
G1 F1200 X93.928 Y67.906 E645.3901
G0 F6000 X94.22 Y67.633
G1 F1200 X168.269 Y141.682 E648.87314
G0 F6000 X168.561 Y141.408
G1 F1200 X94.513 Y67.36 E652.35613
G0 F6000 X94.805 Y67.087
G1 F1200 X168.854 Y141.135 E655.83914
G0 F6000 X169.146 Y140.862
G1 F1200 X95.097 Y66.813 E659.32218
G0 F6000 X95.39 Y66.54
G1 F1200 X169.438 Y140.588 E662.80517
G0 F6000 X169.731 Y140.315
G1 F1200 X95.683 Y66.267 E666.28816
G0 F6000 X95.975 Y65.994
G1 F1200 X170.024 Y140.042 E669.77118
G0 F6000 X170.316 Y139.769
G1 F1200 X96.268 Y65.721 E673.25417
G0 F6000 X96.56 Y65.448
G1 F1200 X170.609 Y139.496 E676.73718
G0 F6000 X170.901 Y139.222
G1 F1200 X96.852 Y65.174 E680.2202
G0 F6000 X97.145 Y64.901
G1 F1200 X171.193 Y138.949 E683.70319
G0 F6000 X171.486 Y138.676
G1 F1200 X97.438 Y64.628 E687.18618
G0 F6000 X97.731 Y64.355
G1 F1200 X171.778 Y138.403 E690.66915
G0 F6000 X172.071 Y138.13
G1 F1200 X98.023 Y64.082 E694.15214
G0 F6000 X98.315 Y63.809
G1 F1200 X172.364 Y137.857 E697.63515
G0 F6000 X172.656 Y137.583
G1 F1200 X98.608 Y63.536 E701.11812
G0 F6000 X98.9 Y63.262
G1 F1200 X172.948 Y137.31 E704.60111
G0 F6000 X173.241 Y137.037
G1 F1200 X99.193 Y62.989 E708.0841
G0 F6000 X99.486 Y62.716
G1 F1200 X173.533 Y136.764 E711.56707
G0 F6000 X173.826 Y136.491
G1 F1200 X99.778 Y62.442 E715.05008
G0 F6000 X100.07 Y62.17
G1 F1200 X174.119 Y136.218 E718.5331
G0 F6000 X174.411 Y135.944
G1 F1200 X100.363 Y61.897 E722.01606
G0 F6000 X100.655 Y61.623
G1 F1200 X174.703 Y135.671 E725.49906
G0 F6000 X174.996 Y135.398
G1 F1200 X100.948 Y61.35 E728.98205
G0 F6000 X101.241 Y61.077
G1 F1200 X175.288 Y135.125 E732.46501
G0 F6000 X175.581 Y134.852
G1 F1200 X101.533 Y60.803 E735.94803
G0 F6000 X101.825 Y60.53
G1 F1200 X175.874 Y134.579 E739.43107
G0 F6000 X176.166 Y134.305
G1 F1200 X102.118 Y60.258 E742.91403
G0 F6000 X102.41 Y59.984
G1 F1200 X176.458 Y134.032 E746.39702
G0 F6000 X176.751 Y133.759
G1 F1200 X102.703 Y59.711 E749.88002
G0 F6000 X102.996 Y59.438
G1 F1200 X177.043 Y133.485 E753.36296
G0 F6000 X177.336 Y133.213
G1 F1200 X103.288 Y59.164 E756.84597
G0 F6000 X103.581 Y58.891
G1 F1200 X177.629 Y132.94 E760.32899
G0 F6000 X177.921 Y132.666
G1 F1200 X103.873 Y58.618 E763.81198
G0 F6000 X104.165 Y58.345
G1 F1200 X178.214 Y132.393 E767.29499
G0 F6000 X178.506 Y132.12
G1 F1200 X104.458 Y58.072 E770.77798
G0 F6000 X104.751 Y57.799
G1 F1200 X178.798 Y131.846 E774.26093
G0 F6000 X179.091 Y131.573
G1 F1200 X105.043 Y57.525 E777.74392
G0 F6000 X105.336 Y57.252
G1 F1200 X179.384 Y131.301 E781.22693
G0 F6000 X179.676 Y131.027
G1 F1200 X105.628 Y56.979 E784.70992
G0 F6000 X105.92 Y56.706
G1 F1200 X179.969 Y130.754 E788.19294
G0 F6000 X180.261 Y130.481
G1 F1200 X106.213 Y56.433 E791.67593
G0 F6000 X106.506 Y56.16
G1 F1200 X180.553 Y130.207 E795.15887
G0 F6000 X180.846 Y129.934
G1 F1200 X106.798 Y55.886 E798.64186
G0 F6000 X107.091 Y55.613
G1 F1200 X181.139 Y129.661 E802.12486
G0 F6000 X181.431 Y129.388
G1 F1200 X107.383 Y55.34 E805.60785
G0 F6000 X107.675 Y55.067
G1 F1200 X181.724 Y129.115 E809.09086
G0 F6000 X182.016 Y128.842
G1 F1200 X107.968 Y54.794 E812.57385
G0 F6000 X108.261 Y54.521
G1 F1200 X182.308 Y128.568 E816.0568
G0 F6000 X182.601 Y128.295
