;FLAVOR:Marlin
;TIME:267
;Filament used: 0.12515m
;Layer height: 0.2
;MINX:107.926
;MINY:108.083
;MINZ:0.2
;MAXX:126.751
;MAXY:126.915
;MAXZ:5.8
;TARGET_MACHINE.NAME:Creality Ender-3
;Generated with Cura_SteamEngine 5.7.1
M140 S50
M105
M190 S50
M104 S200
M105
M109 S200
M82 ;absolute extrusion mode
; Ender 3 Custom Start G-code
G92 E0 ; Reset Extruder
G28 ; Home all axes
G1 Z2.0 F3000 ; Move Z Axis up little to prevent scratching of Heat Bed
G1 X0.1 Y20 Z0.3 F5000.0 ; Move to start position
G1 X0.1 Y200.0 Z0.3 F1500.0 E15 ; Draw the first line
G1 X0.4 Y200.0 Z0.3 F5000.0 ; Move to side a little
G1 X0.4 Y20 Z0.3 F1500.0 E30 ; Draw the second line
G92 E0 ; Reset Extruder
G1 Z2.0 F3000 ; Move Z Axis up little to prevent scratching of Heat Bed
G1 X5 Y20 Z0.3 F5000.0 ; Move over to prevent blob squish
G92 E0
G92 E0
G1 F2700 E-5
;LAYER_COUNT:29
;LAYER:0
M107
;MESH:Star3D.stl
G0 F6000 X118.731 Y124.425 Z0.2
;TYPE:WALL-INNER
G1 F2700 E0
G1 F1200 X119.389 Y120.143 E0.14409
G1 X119.543 Y119.815 E0.15614
G1 X119.679 Y119.627 E0.16386
G1 X119.99 Y119.343 E0.17787
G1 X123.925 Y117.498 E0.32242
G1 X119.99 Y115.653 E0.46697
G1 X119.679 Y115.369 E0.48098
G1 X119.543 Y115.181 E0.4887
G1 X119.389 Y114.853 E0.50075
G1 X118.731 Y110.572 E0.64481
G1 X115.549 Y113.678 E0.7927
G1 X115.177 Y113.897 E0.80706
G1 X114.798 Y113.975 E0.81993
G1 X114.443 Y113.963 E0.83174
G1 X110.172 Y113.267 E0.97567
G1 X112.238 Y117.013 E1.11796
G1 X112.328 Y117.499 E1.13439
G1 X112.239 Y117.987 E1.15089
G1 X110.173 Y121.729 E1.29306
G1 X114.577 Y121.011 E1.44147
G1 X114.93 Y121.04 E1.45325
G1 X115.368 Y121.203 E1.4688
G1 X115.647 Y121.414 E1.48043
G1 X118.731 Y124.425 E1.62379
G0 F6000 X119.008 Y125.255
G1 F1200 X119.763 Y120.34 E1.78918
G1 X119.842 Y120.103 E1.79749
G1 X120.06 Y119.806 E1.80974
G1 X120.319 Y119.63 E1.82016
G1 X124.867 Y117.498 E1.98722
G1 X120.207 Y115.314 E2.15839
G1 X119.914 Y115.047 E2.17157
G1 X119.763 Y114.657 E2.18548
G1 X119.009 Y109.742 E2.35087
G1 X115.298 Y113.363 E2.52332
G1 X115.085 Y113.49 E2.53157
G1 X114.761 Y113.576 E2.54272
G1 X114.507 Y113.568 E2.55117
G1 X109.423 Y112.74 E2.72249
G1 X111.822 Y117.085 E2.88757
G1 X111.897 Y117.326 E2.89597
G1 X111.898 Y117.673 E2.90751
G1 X111.823 Y117.915 E2.91594
G1 X109.425 Y122.256 E3.08088
G1 X114.602 Y121.413 E3.25534
G1 X114.855 Y121.433 E3.26378
G1 X115.085 Y121.506 E3.27181
G1 X115.299 Y121.633 E3.28008
G1 X119.008 Y125.255 E3.45251
G0 F6000 X119.286 Y126.085
G1 F1200 X120.163 Y120.367 E3.64491
G1 X120.287 Y120.146 E3.65334
G1 X120.421 Y120.024 E3.65937
G1 X125.809 Y117.498 E3.85729
G1 X120.421 Y114.972 E4.05521
G1 X120.229 Y114.769 E4.06451
G1 X120.155 Y114.578 E4.07132
G1 X119.286 Y108.913 E4.26194
G1 X115.025 Y113.063 E4.45977
G1 X114.875 Y113.144 E4.46544
G1 X114.627 Y113.182 E4.47379
G1 X108.675 Y112.213 E4.67436
G1 X111.458 Y117.251 E4.86579
G1 X111.511 Y117.547 E4.87579
G1 X111.459 Y117.749 E4.88273
G1 X108.676 Y122.783 E5.07404
G1 X114.627 Y121.814 E5.27458
G1 X114.781 Y121.826 E5.27972
G1 X115.013 Y121.913 E5.28796
G1 X119.286 Y126.085 E5.48659
G0 F6000 X119.563 Y126.915
;TYPE:WALL-OUTER
G1 F1200 X120.547 Y120.496 E5.70258
G1 X120.628 Y120.372 E5.7075
G1 X126.751 Y117.498 E5.93247
G1 X120.628 Y114.624 E6.15744
G1 X120.552 Y114.534 E6.16136
G1 X119.564 Y108.083 E6.37842
G1 X114.782 Y112.75 E6.60067
G1 X114.673 Y112.784 E6.60446
G1 X107.926 Y111.686 E6.83182
G1 X111.104 Y117.442 E7.05051
G1 X111.111 Y117.554 E7.05424
G1 X107.928 Y123.31 E7.27301
G1 X114.674 Y122.212 E7.50034
G1 X114.782 Y122.246 E7.5041
G1 X119.563 Y126.915 E7.72637
G0 F6000 X119.398 Y126.41
G0 X118.298 Y123.862
G0 X118.479 Y123.678
;TYPE:SKIN
G1 F1200 X115.784 Y121.044 E7.8517
G1 X115.422 Y120.823 E7.86581
G1 X115.125 Y120.715 E7.87632
G1 X114.842 Y120.661 E7.8859
G1 X114.379 Y120.674 E7.90131
G1 X110.841 Y121.255 E8.02056
G1 X112.576 Y118.111 E8.14
G1 X112.665 Y117.662 E8.15522
G1 X112.667 Y117.345 E8.16576
G1 X112.576 Y116.885 E8.18136
G1 X110.847 Y113.743 E8.30064
G1 X114.406 Y114.32 E8.42056
G1 X114.842 Y114.331 E8.43507
G1 X115.118 Y114.279 E8.44441
G1 X115.417 Y114.17 E8.45499
G1 X115.749 Y113.978 E8.46775
G1 X118.48 Y111.319 E8.59452
G1 X119.042 Y114.961 E8.71709
G1 X119.232 Y115.368 E8.73203
G1 X119.416 Y115.616 E8.7423
G1 X119.734 Y115.904 E8.75657
G1 X119.995 Y116.054 E8.76658
G1 X123.079 Y117.498 E8.87984
G1 X119.979 Y118.95 E8.9937
G1 X119.62 Y119.161 E9.00755
G1 X119.302 Y119.519 E9.02348
G1 X119.147 Y119.788 E9.0338
G1 X119.022 Y120.164 E9.04698
G1 X118.479 Y123.678 E9.16525
G0 F6000 X118.299 Y123.862
G0 X114.951 Y121.523
G0 X110.516 Y121.488
G0 X110.875 Y120.668
G0 X111.272 Y120.888
G1 F1200 X111.352 Y120.968 E9.16901
G0 F6000 X111.473 Y120.524
G1 F1200 X111.838 Y120.889 E9.18618
G0 F6000 X112.325 Y120.81
G1 F1200 X111.673 Y120.159 E9.21682
G0 F6000 X111.874 Y119.794
G1 F1200 X112.811 Y120.731 E9.26089
G0 F6000 X113.298 Y120.652
G1 F1200 X112.075 Y119.429 E9.31842
G0 F6000 X112.276 Y119.064
G1 F1200 X113.784 Y120.572 E9.38935
G0 F6000 X114.271 Y120.493
G1 F1200 X112.477 Y118.699 E9.47374
G0 F6000 X112.677 Y118.334
G1 F1200 X114.803 Y120.46 E9.57374
G0 F6000 X115.613 Y120.704
G1 F1200 X112.817 Y117.909 E9.70523
G0 F6000 X112.865 Y117.39
G1 F1200 X118.394 Y122.92 E9.96532
G0 F6000 X118.47 Y122.43
G1 F1200 X112.652 Y116.612 E10.23898
G0 F6000 X112.252 Y116.832
G0 X111.56 Y115.577
G0 X111.962 Y115.356
G1 F1200 X118.546 Y121.94 E10.54867
G0 F6000 X118.621 Y121.45
G1 F1200 X111.272 Y114.1 E10.89437
G0 F6000 X111.844 Y114.107
G1 F1200 X118.697 Y120.96 E11.21671
G0 F6000 X118.772 Y120.469
G1 F1200 X112.519 Y114.216 E11.51084
G0 F6000 X113.194 Y114.326
G1 F1200 X118.868 Y120 E11.77772
G0 F6000 X119.027 Y119.593
G1 F1200 X113.869 Y114.435 E12.02034
G0 F6000 X114.523 Y114.523
G1 F1200 X119.264 Y119.264 E12.24334
G0 F6000 X119.543 Y118.977
G1 F1200 X115.06 Y114.494 E12.45421
G0 F6000 X115.489 Y114.358
G1 F1200 X119.898 Y118.767 E12.66159
G0 F6000 X120.283 Y118.586
G1 F1200 X115.849 Y114.152 E12.87016
G0 F6000 X116.144 Y113.881
G1 F1200 X120.668 Y118.406 E13.08297
G0 F6000 X121.054 Y118.225
G1 F1200 X116.43 Y113.602 E13.30045
G0 F6000 X116.716 Y113.322
G1 F1200 X121.439 Y118.044 E13.52258
G0 F6000 X121.824 Y117.864
G1 F1200 X120.446 Y116.486 E13.5874
G0 F6000 X120.641 Y116.07
G0 X121.704 Y116.568
G0 X121.509 Y116.984
G1 F1200 X122.209 Y117.684 E13.62032
G0 F6000 X122.403 Y118.1
G0 X123.494 Y117.498
G0 X119.28 Y114.8
G0 X118.829 Y114.869
G1 F1200 X117.002 Y113.042 E13.70626
G0 F6000 X117.289 Y112.763
G1 F1200 X118.725 Y114.199 E13.77381
G0 F6000 X118.621 Y113.53
G1 F1200 X117.575 Y112.484 E13.82301
G0 F6000 X117.861 Y112.204
G1 F1200 X118.517 Y112.86 E13.85386
G0 F6000 X118.413 Y112.19
G1 F1200 X118.147 Y111.924 E13.86637
G0 F6000 X117.618 Y111.381
;MESH:NONMESH
G0 F300 X117.618 Y111.381 Z0.4
G0 F6000 X118.605 Y110.95
G0 X120.082 Y115.874
G0 X123.494 Y117.498
G0 X120.025 Y119.712
G0 X118.623 Y124.104
G0 X118.617 Y124.093
;TIME_ELAPSED:29.878148
;LAYER:1
M106 S85
;TYPE:WALL-INNER
;MESH:Star3D.stl
G1 F1350 X119.236 Y120.043 E14.00264
G1 X119.391 Y119.711 E14.01483
G1 X119.527 Y119.522 E14.02257
G1 X119.838 Y119.238 E14.03658
G1 X123.552 Y117.498 E14.17299
G1 X119.838 Y115.758 E14.30941
G1 X119.527 Y115.474 E14.32342
G1 X119.391 Y115.285 E14.33116
G1 X119.236 Y114.953 E14.34335
G1 X118.617 Y110.902 E14.47965
G1 X115.702 Y113.75 E14.61519
G1 X115.424 Y113.961 E14.6268
G1 X114.986 Y114.124 E14.64234
G1 X114.637 Y114.152 E14.65399
G1 X110.471 Y113.475 E14.79437
G1 X112.421 Y117.008 E14.92859
G1 X112.512 Y117.499 E14.9452
G1 X112.423 Y117.987 E14.9617
G1 X110.471 Y121.521 E15.09598
G1 X114.637 Y120.844 E15.23635
G1 X114.986 Y120.872 E15.248
G1 X115.424 Y121.035 E15.26354
G1 X115.702 Y121.246 E15.27515
G1 X118.617 Y124.093 E15.41067
G0 F7500 X118.895 Y124.923
G1 F1350 X119.611 Y120.236 E15.56837
G1 X119.69 Y119.999 E15.57668
G1 X119.908 Y119.702 E15.58894
G1 X120.167 Y119.526 E15.59935
G1 X124.494 Y117.498 E15.75829
G1 X120.052 Y115.416 E15.92146
G1 X119.762 Y115.151 E15.93452
G1 X119.611 Y114.76 E15.94846
G1 X118.895 Y110.071 E16.10623
G1 X115.355 Y113.531 E16.27087
G1 X115.141 Y113.658 E16.27914
G1 X114.817 Y113.744 E16.29029
G1 X114.563 Y113.736 E16.29874
G1 X109.723 Y112.948 E16.46184
G1 X112.007 Y117.084 E16.61899
G1 X112.081 Y117.326 E16.62741
G1 X112.082 Y117.673 E16.63895
G1 X112.007 Y117.915 E16.64737
G1 X109.723 Y122.048 E16.80443
G1 X114.658 Y121.245 E16.97073
G1 X114.911 Y121.265 E16.97917
G1 X115.224 Y121.381 E16.99027
G1 X115.423 Y121.532 E16.99858
G1 X118.895 Y124.923 E17.16
G0 F7500 X119.173 Y125.753
G1 F1350 X120.003 Y120.314 E17.343
G1 X120.135 Y120.042 E17.35305
G1 X120.269 Y119.92 E17.35908
G1 X125.437 Y117.498 E17.54891
G1 X120.269 Y115.076 E17.73874
G1 X120.077 Y114.873 E17.74803
G1 X120.003 Y114.682 E17.75484
G1 X119.174 Y109.241 E17.9379
G1 X115.101 Y113.22 E18.12728
G1 X114.931 Y113.312 E18.13371
G1 X114.683 Y113.35 E18.14206
G1 X108.975 Y112.422 E18.3344
G1 X111.643 Y117.25 E18.51787
G1 X111.695 Y117.547 E18.52789
G1 X111.643 Y117.749 E18.53483
G1 X108.974 Y122.575 E18.71826
G1 X114.683 Y121.646 E18.91064
G1 X114.837 Y121.658 E18.91577
G1 X115.069 Y121.745 E18.92402
G1 X119.173 Y125.753 E19.11481
G0 F7500 X119.451 Y126.584
;TYPE:WALL-OUTER
G1 F1350 X120.395 Y120.392 E19.32314
G1 X120.476 Y120.268 E19.32806
G1 X126.379 Y117.498 E19.54494
G1 X120.476 Y114.728 E19.76182
G1 X120.4 Y114.638 E19.76573
G1 X119.452 Y108.41 E19.97526
G1 X114.838 Y112.918 E20.18981
G1 X114.73 Y112.952 E20.19358
G1 X108.227 Y111.895 E20.41271
G1 X111.301 Y117.456 E20.62405
G1 X111.279 Y117.583 E20.62833
G1 X108.225 Y123.102 E20.83813
G1 X114.73 Y122.044 E21.05733
G1 X114.838 Y122.078 E21.06109
G1 X119.451 Y126.584 E21.27557
G0 F7500 X119.284 Y126.076
G0 X118.18 Y123.525
G0 X118.363 Y123.339
;TYPE:SKIN
G1 F1350 X115.834 Y120.87 E21.39313
G1 X115.451 Y120.643 E21.40793
G1 X115.178 Y120.547 E21.41756
G1 X114.889 Y120.492 E21.42734
G1 X114.435 Y120.506 E21.44245
G1 X111.145 Y121.046 E21.55334
G1 X112.692 Y118.241 E21.65988
G1 X112.832 Y117.79 E21.67559
G1 X112.856 Y117.518 E21.68467
G1 X112.832 Y117.206 E21.69508
G1 X112.692 Y116.755 E21.71079
G1 X111.146 Y113.951 E21.81728
G1 X114.435 Y114.486 E21.92811
G1 X114.889 Y114.5 E21.94322
G1 X115.174 Y114.447 E21.95286
G1 X115.459 Y114.347 E21.96291
G1 X115.822 Y114.131 E21.97696
G1 X118.364 Y111.644 E22.09524
G1 X118.89 Y115.061 E22.21023
G1 X119.08 Y115.471 E22.22526
G1 X119.244 Y115.699 E22.2346
G1 X119.556 Y115.988 E22.24874
G1 X119.833 Y116.151 E22.25943
G1 X122.703 Y117.497 E22.36487
G1 X119.847 Y118.834 E22.46975
G1 X119.469 Y119.057 E22.48435
G1 X119.153 Y119.411 E22.50013
G1 X118.995 Y119.684 E22.51062
G1 X118.87 Y120.06 E22.5238
G1 X118.363 Y123.339 E22.63416
G0 F7500 X118.14 Y122.842
G1 F1350 X118.254 Y122.728 E22.63952
G0 F7500 X117.875 Y122.541
G1 F1350 X118.357 Y122.059 E22.66219
G0 F7500 X118.459 Y121.391
G1 F1350 X117.567 Y122.284 E22.70417
G0 F7500 X117.281 Y122.004
G1 F1350 X118.562 Y120.723 E22.76443
G0 F7500 X118.668 Y120.051
G1 F1350 X116.996 Y121.723 E22.84307
G0 F7500 X116.709 Y121.444
G1 F1350 X121.159 Y116.994 E23.05239
G0 F7500 X120.774 Y116.814
G1 F1350 X116.423 Y121.165 E23.25704
G0 F7500 X116.137 Y120.886
G1 F1350 X120.389 Y116.633 E23.45707
G0 F7500 X120.004 Y116.453
G1 F1350 X115.826 Y120.63 E23.65356
G0 F7500 X115.457 Y120.434
G1 F1350 X119.626 Y116.265 E23.84966
G0 F7500 X119.302 Y116.023
G1 F1350 X115.013 Y120.312 E24.0514
G0 F7500 X114.456 Y120.304
G1 F1350 X119.024 Y115.736 E24.26627
G0 F7500 X118.817 Y115.377
G1 F1350 X113.781 Y120.413 E24.50315
G0 F7500 X113.105 Y120.523
G1 F1350 X118.673 Y114.955 E24.76505
G0 F7500 X118.597 Y114.465
G1 F1350 X112.429 Y120.633 E25.05517
G0 F7500 X111.969 Y120.528
G1 F1350 X118.522 Y113.975 E25.3634
G0 F7500 X118.446 Y113.485
G1 F1350 X111.975 Y119.956 E25.66778
G0 F7500 X111.968 Y120.528
G1 F1350 X111.752 Y120.745 E25.67796
G0 F7500 X111.825 Y121.199
G0 X110.814 Y121.281
G0 X112.269 Y118.473
G0 X112.67 Y118.695
G1 F1350 X118.37 Y112.996 E25.94605
G0 F7500 X118.236 Y112.564
G1 F1350 X113.033 Y117.767 E26.19078
G0 F7500 X113.032 Y117.202
G1 F1350 X115.944 Y114.29 E26.32776
G0 F7500 X115.671 Y113.922
G0 X114.902 Y114.235
G0 X114.983 Y114.686
G1 F1350 X112.905 Y116.763 E26.42547
G0 F7500 X112.716 Y116.387
G1 F1350 X114.418 Y114.684 E26.50555
G0 F7500 X113.93 Y114.607
G1 F1350 X112.515 Y116.022 E26.57211
G0 F7500 X112.314 Y115.657
G1 F1350 X113.443 Y114.528 E26.62522
G0 F7500 X112.957 Y114.449
G1 F1350 X112.113 Y115.292 E26.66489
G0 F7500 X111.912 Y114.927
G1 F1350 X112.47 Y114.37 E26.69112
G0 F7500 X111.985 Y114.29
G1 F1350 X111.712 Y114.563 E26.70396
G0 F7500 X111.308 Y114.785
G0 X110.813 Y113.716
G0 X113.405 Y114.137
G0 X116.566 Y113.161
G0 X118.49 Y111.28
G0 X118.757 Y112.484
G0 X118.237 Y112.563
G1 F1350 X118.293 Y112.506 E26.70661
G0 F7500 X118.75 Y112.437
G0 X119.838 Y115.131
G0 X121.739 Y116.76
G0 X121.544 Y117.175
G1 F1350 X120.332 Y118.387 E26.76362
G0 F7500 X120.527 Y118.805
G0 X121.592 Y118.306
G0 X121.397 Y117.888
G1 F1350 X121.689 Y117.596 E26.77736
G1 X121.69 Y117.595
G1 X121.93 Y117.355 E26.78865
G0 F7500 X122.252 Y116.669
;MESH:NONMESH
G0 F300 X122.252 Y116.669 Z0.6
G0 F7500 X123.121 Y117.498
G0 X119.838 Y119.869
G0 X118.509 Y123.771
G0 X118.505 Y123.761
;TIME_ELAPSED:51.966230
;LAYER:2
M106 S170
;TYPE:WALL-INNER
;MESH:Star3D.stl
G1 F1500 X119.071 Y120.057 E26.91327
G1 X119.216 Y119.619 E26.92862
G1 X119.486 Y119.31 E26.94227
G1 X119.849 Y119.064 E26.95685
G1 X123.184 Y117.499 E27.07938
G1 X119.69 Y115.862 E27.20771
G1 X119.379 Y115.578 E27.22172
G1 X119.243 Y115.389 E27.22946
G1 X119.089 Y115.06 E27.24155
G1 X118.505 Y111.237 E27.37018
G1 X115.667 Y114.012 E27.50219
G1 X115.368 Y114.19 E27.51377
G1 X114.913 Y114.31 E27.52942
G1 X114.558 Y114.298 E27.54123
G1 X110.768 Y113.68 E27.66895
G1 X112.607 Y117.015 E27.79562
G1 X112.696 Y117.501 E27.81205
G1 X112.605 Y117.989 E27.82856
G1 X110.769 Y121.318 E27.95501
G1 X114.559 Y120.701 E28.08273
G1 X114.913 Y120.69 E28.09451
G1 X115.367 Y120.811 E28.11013
G1 X115.668 Y120.988 E28.12175
G1 X118.505 Y123.761 E28.25369
G0 F9000 X118.783 Y124.591
G1 F1500 X119.463 Y120.136 E28.40358
G1 X119.542 Y119.899 E28.41189
G1 X119.76 Y119.602 E28.42415
G1 X120.019 Y119.426 E28.43456
G1 X124.127 Y117.499 E28.58548
G1 X119.905 Y115.52 E28.74057
G1 X119.614 Y115.255 E28.75366
G1 X119.463 Y114.864 E28.7676
G1 X118.783 Y110.405 E28.91762
G1 X115.413 Y113.7 E29.07438
G1 X115.201 Y113.826 E29.08258
G1 X114.876 Y113.912 E29.09376
G1 X114.623 Y113.903 E29.10218
G1 X110.02 Y113.153 E29.2573
G1 X112.191 Y117.085 E29.40669
G1 X112.265 Y117.327 E29.4151
G1 X112.265 Y117.673 E29.42661
G1 X112.191 Y117.914 E29.435
G1 X110.021 Y121.844 E29.58431
G1 X114.623 Y121.096 E29.73938
G1 X114.876 Y121.088 E29.7478
G1 X115.201 Y121.174 E29.75898
G1 X115.415 Y121.301 E29.76726
G1 X118.783 Y124.591 E29.92386
G0 F9000 X119.061 Y125.422
G1 F1500 X119.863 Y120.163 E30.1008
G1 X119.987 Y119.942 E30.10922
G1 X120.121 Y119.82 E30.11525
G1 X125.069 Y117.499 E30.29703
G1 X120.121 Y115.18 E30.47878
G1 X119.929 Y114.977 E30.48807
G1 X119.855 Y114.786 E30.49488
G1 X119.061 Y109.574 E30.67024
G1 X115.142 Y113.399 E30.85238
G1 X114.942 Y113.496 E30.85977
G1 X114.687 Y113.509 E30.86826
G1 X109.271 Y112.626 E31.05078
G1 X111.827 Y117.251 E31.22653
G1 X111.879 Y117.547 E31.23653
G1 X111.827 Y117.749 E31.24347
G1 X109.272 Y122.371 E31.41912
G1 X114.794 Y121.474 E31.60519
G1 X115.163 Y121.614 E31.61832
G1 X119.061 Y125.422 E31.79956
G0 F9000 X119.339 Y126.252
;TYPE:WALL-OUTER
G1 F1500 X120.247 Y120.292 E32.00008
G1 X120.328 Y120.168 E32.00501
G1 X126.011 Y117.499 E32.21383
G1 X120.328 Y114.832 E32.42263
G1 X120.252 Y114.742 E32.42655
G1 X119.34 Y108.742 E32.6284
G1 X114.904 Y113.077 E32.83469
G1 X114.751 Y113.114 E32.83993
G1 X108.522 Y112.098 E33.04984
G1 X111.463 Y117.417 E33.252
G1 X111.463 Y117.583 E33.25752
G1 X108.524 Y122.898 E33.45952
G1 X114.813 Y121.876 E33.67144
G1 X114.924 Y121.94 E33.6757
G1 X119.339 Y126.252 E33.88096
G0 F9000 X119.171 Y125.743
G0 X118.07 Y123.195
G0 X118.251 Y123.011
;TYPE:SKIN
G1 F1500 X115.9 Y120.712 E33.99033
G1 X115.514 Y120.483 E34.00526
