;FLAVOR:Marlin
;TIME:287
;Filament used: 0.12459m
;Layer height: 0.2
;MINX:96.573
;MINY:96.679
;MINZ:0.2
;MAXX:138.202
;MAXY:138.321
;MAXZ:5.8
;TARGET_MACHINE.NAME:Creality Ender-3
;Generated with Cura_SteamEngine 5.7.1
M140 S50
M105
M190 S50
M104 S200
M105
M109 S200
M82 ;absolute extrusion mode
; Ender 3 Custom Start G-code
G92 E0 ; Reset Extruder
G28 ; Home all axes
G1 Z2.0 F3000 ; Move Z Axis up little to prevent scratching of Heat Bed
G1 X0.1 Y20 Z0.3 F5000.0 ; Move to start position
G1 X0.1 Y200.0 Z0.3 F1500.0 E15 ; Draw the first line
G1 X0.4 Y200.0 Z0.3 F5000.0 ; Move to side a little
G1 X0.4 Y20 Z0.3 F1500.0 E30 ; Draw the second line
G92 E0 ; Reset Extruder
G1 Z2.0 F3000 ; Move Z Axis up little to prevent scratching of Heat Bed
G1 X5 Y20 Z0.3 F5000.0 ; Move over to prevent blob squish
G92 E0
G92 E0
G1 F2700 E-5
;LAYER_COUNT:29
;LAYER:0
M107
G0 F6000 X100.133 Y103.322 Z0.2
;TYPE:SKIRT
G1 F2700 E0
G1 F1200 X100.936 Y102.654 E0.03474
G1 X101.739 Y102.102 E0.06715
G1 X102.585 Y101.624 E0.09947
G1 X103.406 Y101.248 E0.1295
G1 X104.376 Y100.905 E0.16372
G1 X104.855 Y100.77 E0.18028
G1 X106.35 Y100.39 E0.23158
G1 X108.82 Y99.717 E0.31673
G1 X111.251 Y98.98 E0.40122
G1 X113.64 Y98.181 E0.485
G1 X115.949 Y97.339 E0.56675
G1 X116.897 Y97.043 E0.59978
G1 X117.848 Y96.837 E0.63214
G1 X118.814 Y96.715 E0.66453
G1 X119.786 Y96.679 E0.69688
G1 X120.688 Y96.723 E0.72691
G1 X121.723 Y96.867 E0.76167
G1 X122.639 Y97.079 E0.79294
G1 X123.598 Y97.392 E0.82649
G1 X124.461 Y97.762 E0.85772
G1 X125.349 Y98.24 E0.89127
G1 X126.163 Y98.777 E0.9237
G1 X126.924 Y99.382 E0.95604
G1 X127.58 Y100.002 E0.98606
G1 X128.269 Y100.78 E1.02062
G1 X128.756 Y101.431 E1.04766
G1 X129.89 Y103.069 E1.11393
G1 X131.352 Y105.097 E1.19708
G1 X132.883 Y107.098 E1.28088
G1 X134.461 Y109.045 E1.36423
G1 X135.105 Y109.797 E1.39716
G1 X135.685 Y110.493 E1.4273
G1 X136.271 Y111.269 E1.45964
G1 X136.751 Y112.034 E1.48968
G1 X137.226 Y112.965 E1.52444
G1 X137.589 Y113.87 E1.55687
G1 X137.851 Y114.734 E1.5869
G1 X138.065 Y115.756 E1.62163
G1 X138.177 Y116.723 E1.65401
G1 X138.202 Y117.696 E1.68638
G1 X138.143 Y118.67 E1.71883
G1 X137.996 Y119.631 E1.75117
G1 X137.765 Y120.578 E1.78359
G1 X137.464 Y121.466 E1.81477
G1 X137.058 Y122.391 E1.84837
G1 X136.623 Y123.183 E1.87843
G1 X136.066 Y124.016 E1.91176
G1 X135.692 Y124.496 E1.93199
G1 X135.196 Y125.097 E1.95791
G1 X134.221 Y126.24 E2.00788
G1 X132.673 Y128.162 E2.08996
G1 X131.128 Y130.197 E2.17494
G1 X129.636 Y132.279 E2.26014
G1 X128.766 Y133.552 E2.31142
G1 X128.179 Y134.33 E2.34384
G1 X127.527 Y135.053 E2.37622
G1 X126.839 Y135.692 E2.40745
G1 X126.041 Y136.311 E2.44104
G1 X125.221 Y136.835 E2.4734
G1 X124.357 Y137.286 E2.50582
G1 X123.458 Y137.658 E2.53818
G1 X122.529 Y137.951 E2.57058
G1 X121.577 Y138.16 E2.603
G1 X120.612 Y138.283 E2.63535
G1 X119.638 Y138.321 E2.66777
G1 X118.736 Y138.279 E2.6978
G1 X117.7 Y138.137 E2.73258
G1 X116.788 Y137.927 E2.76371
G1 X115.939 Y137.658 E2.79333
G1 X114.289 Y137.057 E2.85174
G1 X111.878 Y136.228 E2.93654
G1 X109.52 Y135.491 E3.01871
G1 X105.965 Y134.513 E3.14134
G1 X104.819 Y134.22 E3.18068
G1 X103.888 Y133.935 E3.21306
G1 X102.985 Y133.569 E3.24547
G1 X102.118 Y133.125 E3.27787
G1 X101.295 Y132.606 E3.31023
G1 X100.519 Y132.015 E3.34267
G1 X99.8 Y131.361 E3.375
G1 X99.187 Y130.698 E3.40503
G1 X98.549 Y129.87 E3.4398
G1 X98.026 Y129.047 E3.47223
G1 X97.579 Y128.182 E3.50462
G1 X97.21 Y127.282 E3.53697
G1 X96.922 Y126.35 E3.56941
G1 X96.718 Y125.398 E3.6018
G1 X96.598 Y124.417 E3.63467
G1 X96.576 Y123.043 E3.68037
G1 X96.69 Y120.65 E3.76005
G1 X96.745 Y118.099 E3.84492
G1 X96.726 Y115.556 E3.9295
G1 X96.637 Y113.023 E4.0138
G1 X96.58 Y111.985 E4.04838
G1 X96.573 Y111.011 E4.08078
G1 X96.645 Y110.11 E4.11084
G1 X96.82 Y109.081 E4.14556
G1 X97.071 Y108.139 E4.17798
G1 X97.402 Y107.224 E4.21034
G1 X97.798 Y106.373 E4.24156
G1 X98.303 Y105.499 E4.27513
G1 X98.864 Y104.703 E4.30752
G1 X99.493 Y103.959 E4.33993
G1 X100.133 Y103.322 E4.36996
G0 F6000 X100.415 Y103.606
G1 F1200 X101.163 Y102.983 E4.40234
G1 X101.936 Y102.45 E4.43357
G1 X102.752 Y101.988 E4.46476
G1 X103.573 Y101.612 E4.49479
G1 X104.484 Y101.29 E4.52693
G1 X104.954 Y101.158 E4.54316
G1 X106.449 Y100.778 E4.59447
G1 X108.936 Y100.1 E4.68021
G1 X111.367 Y99.363 E4.7647
G1 X113.777 Y98.557 E4.84922
G1 X116.069 Y97.721 E4.93036
G1 X116.982 Y97.434 E4.96219
G1 X117.899 Y97.234 E4.99341
G1 X118.829 Y97.115 E5.02459
G1 X119.767 Y97.079 E5.05581
G1 X120.669 Y97.123 E5.08585
G1 X121.633 Y97.257 E5.11822
G1 X122.549 Y97.469 E5.14949
G1 X123.44 Y97.76 E5.18067
G1 X124.303 Y98.13 E5.2119
G1 X125.129 Y98.574 E5.24309
G1 X125.914 Y99.09 E5.27433
G1 X126.649 Y99.673 E5.30554
G1 X127.305 Y100.293 E5.33556
G1 X127.949 Y101.02 E5.36786
G1 X128.427 Y101.659 E5.3944
G1 X129.561 Y103.297 E5.46066
G1 X131.034 Y105.34 E5.54444
G1 X132.572 Y107.35 E5.62861
G1 X134.15 Y109.297 E5.71197
G1 X134.798 Y110.053 E5.74509
G1 X135.366 Y110.734 E5.77458
G1 X135.932 Y111.482 E5.80578
G1 X136.412 Y112.247 E5.83582
G1 X136.855 Y113.114 E5.8682
G1 X137.206 Y113.986 E5.89946
G1 X137.468 Y114.85 E5.92949
G1 X137.668 Y115.803 E5.96188
G1 X137.777 Y116.734 E5.99306
G1 X137.803 Y117.672 E6.02427
G1 X137.747 Y118.61 E6.05552
G1 X137.607 Y119.537 E6.0867
G1 X137.386 Y120.45 E6.11795
G1 X137.097 Y121.306 E6.148
G1 X136.707 Y122.198 E6.18038
G1 X136.272 Y122.99 E6.21043
G1 X135.734 Y123.793 E6.24258
G1 X135.384 Y124.241 E6.26149
G1 X134.892 Y124.837 E6.28719
G1 X133.909 Y125.989 E6.33756
G1 X132.361 Y127.911 E6.41964
G1 X130.809 Y129.955 E6.505
G1 X129.311 Y132.046 E6.59055
G1 X128.446 Y133.312 E6.64155
G1 X127.882 Y134.062 E6.67276
G1 X127.254 Y134.76 E6.70399
G1 X126.593 Y135.376 E6.73404
G1 X125.825 Y135.974 E6.76642
G1 X125.035 Y136.481 E6.79764
G1 X124.204 Y136.917 E6.82885
G1 X123.337 Y137.277 E6.86008
G1 X122.443 Y137.56 E6.89126
G1 X121.526 Y137.763 E6.9225
G1 X120.596 Y137.883 E6.95369
G1 X119.657 Y137.921 E6.98495
G1 X118.755 Y137.879 E7.01498
G1 X117.79 Y137.747 E7.04738
G1 X116.878 Y137.537 E7.0785
G1 X116.076 Y137.282 E7.10649
G1 X114.426 Y136.681 E7.1649
G1 X111.997 Y135.846 E7.25033
G1 X109.626 Y135.105 E7.33295
G1 X106.064 Y134.125 E7.45582
G1 X104.935 Y133.837 E7.49458
G1 X104.038 Y133.564 E7.52576
G1 X103.167 Y133.213 E7.557
G1 X102.331 Y132.786 E7.58822
G1 X101.537 Y132.287 E7.61941
G1 X100.788 Y131.719 E7.65067
G1 X100.094 Y131.089 E7.68185
G1 X99.481 Y130.426 E7.71188
G1 X98.886 Y129.655 E7.74427
G1 X98.381 Y128.863 E7.77552
G1 X97.949 Y128.03 E7.80672
G1 X97.592 Y127.163 E7.83791
G1 X97.313 Y126.266 E7.86915
G1 X97.115 Y125.349 E7.90036
G1 X96.998 Y124.41 E7.93183
G1 X96.976 Y123.062 E7.97667
G1 X97.09 Y120.669 E8.05635
G1 X97.145 Y118.108 E8.14155
G1 X97.126 Y115.553 E8.22653
G1 X97.036 Y113.009 E8.3112
G1 X96.98 Y111.982 E8.34541
G1 X96.972 Y111.043 E8.37664
G1 X97.044 Y110.142 E8.4067
G1 X97.207 Y109.183 E8.43906
G1 X97.447 Y108.275 E8.4703
G1 X97.765 Y107.393 E8.50148
G1 X98.161 Y106.542 E8.5327
G1 X98.63 Y105.729 E8.56392
G1 X99.17 Y104.961 E8.59514
G1 X99.775 Y104.243 E8.62637
G1 X100.415 Y103.606 E8.6564
G0 F6000 X100.697 Y103.89
G1 F1200 X101.391 Y103.312 E8.68644
G1 X102.134 Y102.798 E8.71649
G1 X102.919 Y102.352 E8.74652
G1 X103.74 Y101.976 E8.77655
G1 X104.592 Y101.675 E8.80661
G1 X105.053 Y101.546 E8.82253
G1 X106.548 Y101.166 E8.87384
G1 X109.052 Y100.483 E8.96016
G1 X111.483 Y99.746 E9.04465
G1 X113.914 Y98.933 E9.12991
G1 X116.206 Y98.097 E9.21105
G1 X117.068 Y97.825 E9.24112
G1 X117.95 Y97.631 E9.27115
G1 X118.845 Y97.515 E9.30117
G1 X119.748 Y97.479 E9.33123
G1 X120.65 Y97.523 E9.36126
G1 X121.544 Y97.647 E9.39128
G1 X122.425 Y97.849 E9.42135
G1 X123.283 Y98.128 E9.45135
G1 X124.114 Y98.483 E9.48141
G1 X124.91 Y98.909 E9.51144
G1 X125.666 Y99.404 E9.54149
G1 X126.374 Y99.964 E9.57152
G1 X127.03 Y100.584 E9.60154
G1 X127.629 Y101.26 E9.63158
G1 X128.098 Y101.887 E9.65762
G1 X129.232 Y103.525 E9.72388
G1 X130.716 Y105.583 E9.80827
G1 X132.261 Y107.602 E9.89283
G1 X133.839 Y109.549 E9.97619
G1 X134.491 Y110.309 E10.00949
G1 X135.047 Y110.976 E10.03837
G1 X135.593 Y111.695 E10.0684
G1 X136.073 Y112.46 E10.09844
G1 X136.484 Y113.264 E10.12847
G1 X136.823 Y114.102 E10.15854
G1 X137.085 Y114.966 E10.18857
G1 X137.271 Y115.85 E10.21861
G1 X137.377 Y116.746 E10.24862
G1 X137.404 Y117.649 E10.27867
G1 X137.351 Y118.551 E10.30872
G1 X137.218 Y119.444 E10.33875
G1 X137.007 Y120.322 E10.36878
G1 X136.718 Y121.178 E10.39883
G1 X136.356 Y122.005 E10.42886
G1 X135.921 Y122.797 E10.45891
G1 X135.419 Y123.547 E10.48893
G1 X135.076 Y123.986 E10.50746
G1 X134.588 Y124.577 E10.53295
G1 X133.597 Y125.738 E10.58372
G1 X132.049 Y127.66 E10.6658
G1 X130.49 Y129.713 E10.75154
G1 X128.986 Y131.813 E10.83745
G1 X128.126 Y133.072 E10.88816
G1 X127.584 Y133.795 E10.91822
G1 X126.981 Y134.467 E10.94825
G1 X126.32 Y135.083 E10.9783
G1 X125.608 Y135.638 E11.00833
G1 X124.849 Y136.127 E11.03836
G1 X124.05 Y136.548 E11.06839
G1 X123.216 Y136.896 E11.09845
G1 X122.356 Y137.17 E11.12847
G1 X121.474 Y137.366 E11.15852
G1 X120.579 Y137.483 E11.18854
G1 X119.676 Y137.521 E11.2186
G1 X118.774 Y137.479 E11.24864
G1 X117.879 Y137.357 E11.27868
G1 X116.999 Y137.156 E11.3087
G1 X116.213 Y136.906 E11.33614
G1 X114.563 Y136.305 E11.39454
G1 X112.116 Y135.464 E11.4806
G1 X109.732 Y134.719 E11.56368
G1 X106.163 Y133.737 E11.68679
G1 X105.051 Y133.454 E11.72496
G1 X104.187 Y133.193 E11.75498
G1 X103.348 Y132.856 E11.78505
G1 X102.543 Y132.447 E11.81508
G1 X101.778 Y131.968 E11.8451
G1 X101.057 Y131.423 E11.87516
G1 X100.388 Y130.817 E11.90518
G1 X99.775 Y130.154 E11.93522
G1 X99.223 Y129.439 E11.96526
G1 X98.736 Y128.678 E11.99531
G1 X98.319 Y127.877 E12.02535
G1 X97.974 Y127.043 E12.05536
G1 X97.704 Y126.181 E12.08541
G1 X97.512 Y125.298 E12.11546
G1 X97.398 Y124.403 E12.14547
G1 X97.376 Y123.081 E12.18945
G1 X97.49 Y120.688 E12.26913
G1 X97.545 Y118.117 E12.35466
G1 X97.526 Y115.55 E12.44004
G1 X97.435 Y112.995 E12.52508
G1 X97.38 Y111.978 E12.55895
G1 X97.371 Y111.075 E12.58899
G1 X97.443 Y110.174 E12.61905
G1 X97.594 Y109.284 E12.64907
G1 X97.823 Y108.41 E12.67912
G1 X98.128 Y107.561 E12.70913
G1 X98.508 Y106.741 E12.73919
G1 X98.958 Y105.958 E12.76923
G1 X99.476 Y105.218 E12.79927
G1 X100.057 Y104.527 E12.8293
G1 X100.697 Y103.89 E12.85933
G1 F2700 E7.85933
;MESH:Star3D.stl
G0 F6000 X108.491 Y110.903
G0 X119.286 Y126.085
;TYPE:WALL-INNER
G1 F2700 E12.85933
G1 F1200 X120.163 Y120.367 E13.05173
G1 X120.287 Y120.146 E13.06016
G1 X120.421 Y120.024 E13.06619
G1 X125.809 Y117.498 E13.26411
G1 X120.421 Y114.972 E13.46203
G1 X120.229 Y114.769 E13.47133
G1 X120.155 Y114.578 E13.47814
G1 X119.286 Y108.913 E13.66876
G1 X115.025 Y113.063 E13.86659
G1 X114.875 Y113.144 E13.87226
G1 X114.627 Y113.182 E13.88061
G1 X108.675 Y112.213 E14.08118
G1 X111.458 Y117.251 E14.27261
G1 X111.511 Y117.547 E14.28261
G1 X111.459 Y117.749 E14.28955
G1 X108.676 Y122.783 E14.48086
G1 X114.627 Y121.814 E14.6814
G1 X114.781 Y121.826 E14.68654
G1 X115.013 Y121.913 E14.69478
G1 X119.286 Y126.085 E14.89341
G0 F6000 X119.563 Y126.915
;TYPE:WALL-OUTER
G1 F1200 X120.547 Y120.496 E15.1094
G1 X120.628 Y120.372 E15.11433
G1 X126.751 Y117.498 E15.3393
G1 X120.628 Y114.624 E15.56427
G1 X120.552 Y114.534 E15.56818
G1 X119.564 Y108.083 E15.78525
G1 X114.782 Y112.75 E16.00749
G1 X114.673 Y112.784 E16.01129
G1 X107.926 Y111.686 E16.23864
G1 X111.104 Y117.442 E16.45733
G1 X111.111 Y117.554 E16.46106
G1 X107.928 Y123.31 E16.67983
G1 X114.674 Y122.212 E16.90716
G1 X114.782 Y122.246 E16.91092
G1 X119.563 Y126.915 E17.13319
G0 F6000 X119.398 Y126.41
G0 X119.292 Y125.378
G0 X119.035 Y125.338
;TYPE:SKIN
G1 F1200 X115.28 Y121.668 E17.30782
G1 X115.055 Y121.535 E17.31652
G1 X114.694 Y121.444 E17.3289
G1 X109.349 Y122.306 E17.50897
G1 X111.79 Y117.891 E17.67676
G1 X111.884 Y117.491 E17.69043
G1 X111.791 Y117.118 E17.70322
G1 X109.347 Y112.686 E17.87155
G1 X114.685 Y113.553 E18.05142
G1 X115.071 Y113.451 E18.0647
G1 X115.273 Y113.33 E18.07253
G1 X119.036 Y109.654 E18.2475
G1 X119.804 Y114.664 E18.41608
G1 X119.93 Y114.971 E18.42712
G1 X120.212 Y115.274 E18.44088
G1 X124.963 Y117.497 E18.61534
G1 X120.209 Y119.726 E18.78998
G1 X119.964 Y119.972 E18.80153
G1 X119.801 Y120.346 E18.8151
G1 X119.035 Y125.338 E18.98308
G0 F6000 X119.292 Y125.378
G0 X119.159 Y125.707
G0 X114.816 Y121.951
G0 X109.994 Y122.467
G0 X109.879 Y121.759
G1 F1200 X110.101 Y121.981 E18.99352
G0 F6000 X110.589 Y121.902
G1 F1200 X110.08 Y121.394 E19.01744
G0 F6000 X110.282 Y121.03
G1 F1200 X111.075 Y121.823 E19.05474
G0 F6000 X111.562 Y121.744
G1 F1200 X110.483 Y120.666 E19.10547
G0 F6000 X110.685 Y120.301
G1 F1200 X112.048 Y121.665 E19.1696
G0 F6000 X112.535 Y121.586
G1 F1200 X110.886 Y119.937 E19.24716
G0 F6000 X111.087 Y119.572
G1 F1200 X113.022 Y121.507 E19.33818
G0 F6000 X113.508 Y121.428
G1 F1200 X111.289 Y119.208 E19.44258
G0 F6000 X111.49 Y118.844
G1 F1200 X113.996 Y121.349 E19.56043
G0 F6000 X114.482 Y121.27
G1 F1200 X111.691 Y118.479 E19.69171
G0 F6000 X111.893 Y118.115
G1 F1200 X115.126 Y121.349 E19.8438
G0 F6000 X114.338 Y121.76
G0 X115.577 Y122.219
G0 X119.159 Y125.707
G0 X119.776 Y122.224
G0 X119.324 Y122.153
G1 F1200 X110.198 Y113.027 E20.27306
G0 F6000 X109.923 Y113.317
G1 F1200 X119.249 Y122.643 E20.71173
G0 F6000 X119.173 Y123.133
G1 F1200 X110.62 Y114.58 E21.11404
G0 F6000 X110.219 Y114.801
G0 X110.916 Y116.062
G0 X111.316 Y115.842
G1 F1200 X119.097 Y123.623 E21.48003
G0 F6000 X119.022 Y124.113
G1 F1200 X111.983 Y117.074 E21.81112
G0 F6000 X112.039 Y117.696
G1 F1200 X118.946 Y124.603 E22.13601
G0 F6000 X119.4 Y124.673
G0 X119.851 Y121.734
G0 X119.401 Y121.663
G1 F1200 X110.874 Y113.136 E22.53709
G0 F6000 X111.549 Y113.246
G1 F1200 X119.476 Y121.173 E22.90995
G0 F6000 X119.552 Y120.683
G1 F1200 X112.224 Y113.356 E23.25462
G0 F6000 X112.899 Y113.465
G1 F1200 X119.641 Y120.207 E23.57174
G0 F6000 X119.824 Y119.824
G1 F1200 X113.574 Y113.574 E23.86572
G0 F6000 X114.249 Y113.684
G1 F1200 X120.111 Y119.546 E24.14145
G0 F6000 X120.497 Y119.365
G1 F1200 X114.847 Y113.715 E24.40721
G0 F6000 X115.264 Y113.567
G1 F1200 X120.882 Y119.185 E24.67146
G0 F6000 X121.267 Y119.005
G1 F1200 X115.576 Y113.313 E24.93917
G0 F6000 X115.862 Y113.034
G1 F1200 X121.653 Y118.824 E25.21154
G0 F6000 X122.038 Y118.644
G1 F1200 X116.149 Y112.755 E25.48854
G0 F6000 X116.434 Y112.475
G1 F1200 X122.424 Y118.464 E25.77027
G0 F6000 X122.809 Y118.283
G1 F1200 X116.721 Y112.195 E26.05663
G0 F6000 X117.007 Y111.916
G1 F1200 X119.577 Y114.486 E26.17752
G0 F6000 X119.474 Y113.817
G1 F1200 X117.293 Y111.636 E26.2801
G0 F6000 X117.579 Y111.357
G1 F1200 X119.371 Y113.148 E26.36437
G0 F6000 X119.268 Y112.48
G1 F1200 X117.866 Y111.077 E26.43034
G0 F6000 X118.151 Y110.797
G1 F1200 X119.165 Y111.811 E26.47803
G0 F6000 X119.062 Y111.142
G1 F1200 X118.438 Y110.518 E26.50739
G0 F6000 X118.724 Y110.239
G1 F1200 X118.959 Y110.474 E26.51844
G0 F6000 X119.414 Y110.404
G0 X120.35 Y114.756
G0 X121.11 Y115.406
G0 X120.914 Y115.823
G1 F1200 X123.194 Y118.103 E26.62568
G0 F6000 X123.58 Y117.923
G1 F1200 X121.977 Y116.32 E26.70108
G0 F6000 X122.172 Y115.904
G0 X123.235 Y116.403
G0 X123.04 Y116.818
G1 F1200 X123.965 Y117.742 E26.74457
G0 F6000 X124.35 Y117.562
G1 F1200 X124.104 Y117.315 E26.75616
G1 F2700 E21.75616
;MESH:NONMESH
G0 F300 X124.104 Y117.315 Z0.4
G0 F6000 X124.438 Y118.03
G0 X125.378 Y117.498
G0 X119.997 Y114.608
G0 X119.16 Y109.291
G0 X114.81 Y113.03
G0 X114.446 Y111.878
G0 X100.697 Y103.89
;TIME_ELAPSED:51.638352
;LAYER:1
M106 S85
;TYPE:SKIRT
G1 F2700 E26.75616
G1 F1200 X101.391 Y103.312 E26.7862
G1 X102.134 Y102.798 E26.81625
G1 X102.919 Y102.352 E26.84628
G1 X103.74 Y101.976 E26.87632
G1 X104.592 Y101.675 E26.90637
G1 X105.053 Y101.546 E26.92229
G1 X106.548 Y101.166 E26.9736
G1 X109.052 Y100.483 E27.05992
G1 X111.483 Y99.746 E27.14441
G1 X113.914 Y98.933 E27.22967
G1 X116.206 Y98.097 E27.31081
G1 X117.068 Y97.825 E27.34088
G1 X117.95 Y97.631 E27.37091
G1 X118.845 Y97.515 E27.40093
G1 X119.748 Y97.479 E27.43099
G1 X120.65 Y97.523 E27.46103
G1 X121.544 Y97.647 E27.49105
G1 X122.425 Y97.849 E27.52111
G1 X123.283 Y98.128 E27.55112
