;FLAVOR:Marlin
;TIME:419
;Filament used: 0.241944m
;Layer height: 0.2
;MINX:105.099
;MINY:104.62
;MINZ:0.2
;MAXX:129.594
;MAXY:130.375
;MAXZ:7
;TARGET_MACHINE.NAME:Creality Ender-3
;Generated with Cura_SteamEngine 5.7.1
M140 S50
M105
M190 S50
M104 S200
M105
M109 S200
M82 ;absolute extrusion mode
; Ender 3 Custom Start G-code
G92 E0 ; Reset Extruder
G28 ; Home all axes
G1 Z2.0 F3000 ; Move Z Axis up little to prevent scratching of Heat Bed
G1 X0.1 Y20 Z0.3 F5000.0 ; Move to start position
G1 X0.1 Y200.0 Z0.3 F1500.0 E15 ; Draw the first line
G1 X0.4 Y200.0 Z0.3 F5000.0 ; Move to side a little
G1 X0.4 Y20 Z0.3 F1500.0 E30 ; Draw the second line
G92 E0 ; Reset Extruder
G1 Z2.0 F3000 ; Move Z Axis up little to prevent scratching of Heat Bed
G1 X5 Y20 Z0.3 F5000.0 ; Move over to prevent blob squish
G92 E0
G92 E0
G1 F2700 E-5
;LAYER_COUNT:35
;LAYER:0
M107
;MESH:Star3D.stl
G0 F6000 X119.401 Y127.796 Z0.2
;TYPE:WALL-INNER
G1 F2700 E0
G1 F1200 X120.346 Y121.296 E0.21846
G1 X120.447 Y121.014 E0.22843
G1 X120.581 Y120.785 E0.23725
G1 X120.849 Y120.508 E0.25007
G1 X121.096 Y120.352 E0.25979
G1 X126.882 Y117.498 E0.47437
G1 X120.995 Y114.594 E0.6927
G1 X120.759 Y114.411 E0.70263
G1 X120.581 Y114.211 E0.71154
G1 X120.36 Y113.794 E0.72723
G1 X119.401 Y107.199 E0.94889
G1 X114.818 Y111.905 E1.16737
G1 X114.483 Y112.131 E1.18081
G1 X114.068 Y112.234 E1.19503
G1 X113.769 Y112.243 E1.20498
G1 X107.292 Y111.133 E1.42355
G1 X110.296 Y116.848 E1.63829
G1 X110.447 Y117.227 E1.65186
G1 X110.447 Y117.77 E1.66992
G1 X110.296 Y118.152 E1.68358
G1 X107.293 Y123.863 E1.89819
G1 X113.772 Y122.753 E2.11682
G1 X114.068 Y122.762 E2.12667
G1 X114.484 Y122.866 E2.14093
G1 X114.817 Y123.091 E2.1543
G1 X119.401 Y127.796 E2.37278
G0 F6000 X119.68 Y128.656
G1 F1200 X120.748 Y121.355 E2.6182
G1 X120.843 Y121.119 E2.62666
G1 X121.032 Y120.877 E2.63687
G1 X121.176 Y120.765 E2.64294
G1 X127.786 Y117.498 E2.88818
G1 X121.176 Y114.231 E3.13341
G1 X120.905 Y113.976 E3.14579
G1 X120.748 Y113.679 E3.15696
G1 X119.68 Y106.339 E3.40366
G1 X114.557 Y111.6 E3.6479
G1 X114.257 Y111.778 E3.6595
G1 X113.876 Y111.856 E3.67244
G1 X106.561 Y110.602 E3.91929
G1 X109.942 Y117.034 E4.16097
G1 X110.05 Y117.382 E4.17309
G1 X110.05 Y117.617 E4.18091
G1 X109.942 Y117.966 E4.19306
G1 X106.562 Y124.394 E4.43461
G1 X113.837 Y123.153 E4.68007
G1 X114.091 Y123.171 E4.68854
G1 X114.315 Y123.243 E4.69636
G1 X114.613 Y123.454 E4.70851
G1 X119.68 Y128.656 E4.95004
G0 F6000 X119.959 Y129.515
G1 F1200 X121.135 Y121.456 E5.22092
G1 X121.229 Y121.255 E5.2283
G1 X121.371 Y121.108 E5.2351
G1 X128.69 Y117.498 E5.50653
G1 X121.392 Y113.894 E5.77725
G1 X121.275 Y113.796 E5.78233
G1 X121.135 Y113.54 E5.79203
G1 X119.96 Y105.479 E6.06297
G1 X114.277 Y111.309 E6.33376
G1 X114.05 Y111.425 E6.34224
G1 X113.86 Y111.444 E6.34859
G1 X105.83 Y110.071 E6.61955
G1 X109.627 Y117.294 E6.89096
G1 X109.656 Y117.467 E6.89679
G1 X109.616 Y117.718 E6.90525
G1 X105.831 Y124.925 E7.176
G1 X113.86 Y123.552 E7.44692
G1 X114.05 Y123.571 E7.45327
G1 X114.277 Y123.687 E7.46175
G1 X119.959 Y129.515 E7.73247
G0 F6000 X120.238 Y130.375
;TYPE:WALL-OUTER
G1 F1200 X121.522 Y121.557 E8.02885
G1 X121.627 Y121.428 E8.03438
G1 X129.594 Y117.498 E8.32985
G1 X121.59 Y113.55 E8.62669
G1 X121.525 Y113.461 E8.63036
G1 X120.239 Y104.62 E8.9275
G1 X114.008 Y111.011 E9.22438
G1 X113.911 Y111.051 E9.22787
G1 X105.099 Y109.54 E9.52523
G1 X109.249 Y117.445 E9.82218
G1 X109.254 Y117.556 E9.82588
G1 X105.1 Y125.456 E10.12274
G1 X113.912 Y123.945 E10.42011
G1 X114.008 Y123.985 E10.42357
G1 X120.238 Y130.375 E10.7204
G0 F6000 X120.07 Y129.854
G0 X118.959 Y127.198
G0 X119.146 Y127.018
;TYPE:SKIN
G1 F1200 X115.16 Y122.928 E10.91035
G1 X114.87 Y122.684 E10.92295
G1 X114.52 Y122.492 E10.93623
G1 X114.116 Y122.405 E10.94998
G1 X113.718 Y122.394 E10.96322
G1 X107.95 Y123.385 E11.15787
G1 X110.678 Y118.191 E11.353
G1 X110.82 Y117.694 E11.3702
G1 X110.784 Y117.156 E11.38813
G1 X110.674 Y116.79 E11.40084
G1 X107.952 Y111.612 E11.59541
G1 X113.59 Y112.578 E11.78566
G1 X113.965 Y112.604 E11.79816
G1 X114.355 Y112.552 E11.81125
G1 X114.747 Y112.385 E11.82542
G1 X115.059 Y112.173 E11.83797
G1 X119.147 Y107.969 E12.033
G1 X119.974 Y113.637 E12.22352
G1 X120.1 Y114.138 E12.2407
G1 X120.418 Y114.578 E12.25876
G1 X120.708 Y114.847 E12.27191
G1 X126.066 Y117.497 E12.47073
G1 X120.919 Y120.034 E12.66158
G1 X120.5 Y120.304 E12.67816
G1 X120.101 Y120.85 E12.70065
G1 X119.978 Y121.335 E12.71729
G1 X119.146 Y127.018 E12.90833
G0 F6000 X118.96 Y127.198
G0 X114.186 Y123.256
G0 X107.627 Y123.621
G0 X108.139 Y122.472
G0 X108.542 Y122.684
G1 F1200 X108.88 Y123.022 E12.92423
G0 F6000 X109.363 Y122.94
G1 F1200 X108.737 Y122.314 E12.95367
G0 F6000 X108.932 Y121.943
G1 F1200 X109.846 Y122.857 E12.99666
G0 F6000 X110.329 Y122.774
G1 F1200 X109.127 Y121.572 E13.0532
G0 F6000 X109.322 Y121.201
G1 F1200 X110.812 Y122.692 E13.12331
G0 F6000 X111.295 Y122.609
G1 F1200 X109.517 Y120.83 E13.20696
G0 F6000 X109.711 Y120.459
G1 F1200 X111.778 Y122.526 E13.30419
G0 F6000 X112.261 Y122.443
G1 F1200 X109.906 Y120.089 E13.41494
G0 F6000 X110.101 Y119.717
G1 F1200 X112.743 Y122.36 E13.53923
G0 F6000 X113.226 Y122.277
G1 F1200 X110.296 Y119.347 E13.67705
G0 F6000 X110.49 Y118.976
G1 F1200 X113.709 Y122.194 E13.82844
G0 F6000 X114.326 Y122.246
G1 F1200 X110.686 Y118.605 E13.99968
G0 F6000 X110.875 Y118.229
G1 F1200 X119.037 Y126.391 E14.38359
G0 F6000 X119.109 Y125.897
G1 F1200 X111.005 Y117.793 E14.76478
G0 F6000 X110.985 Y117.208
G1 F1200 X119.181 Y125.403 E15.15027
G0 F6000 X119.253 Y124.91
G1 F1200 X110.63 Y116.287 E15.55587
G0 F6000 X110.225 Y116.499
G0 X109.6 Y115.309
G0 X110.006 Y115.097
G1 F1200 X119.325 Y124.416 E15.99421
G0 F6000 X119.397 Y123.923
G1 F1200 X109.382 Y113.908 E16.46528
G0 F6000 X108.976 Y114.12
G0 X108.351 Y112.931
G0 X108.759 Y112.718
G1 F1200 X119.469 Y123.429 E16.96907
G0 F6000 X119.541 Y122.935
G1 F1200 X108.518 Y111.912 E17.48756
G0 F6000 X109.2 Y112.028
G1 F1200 X119.613 Y122.442 E17.97738
G0 F6000 X119.686 Y121.948
G1 F1200 X109.883 Y112.146 E18.43846
G0 F6000 X110.565 Y112.262
G1 F1200 X119.758 Y121.455 E18.87087
G0 F6000 X119.86 Y120.992
G1 F1200 X111.248 Y112.38 E19.27595
G0 F6000 X111.931 Y112.497
G1 F1200 X120.038 Y120.603 E19.65726
G0 F6000 X120.274 Y120.274
G1 F1200 X112.614 Y112.614 E20.01756
G0 F6000 X113.297 Y112.731
G1 F1200 X120.579 Y120.013 E20.36008
G0 F6000 X120.934 Y119.803
G1 F1200 X113.933 Y112.801 E20.68941
G0 F6000 X114.433 Y112.735
G1 F1200 X121.313 Y119.616 E21.01305
G0 F6000 X121.692 Y119.43
G1 F1200 X114.831 Y112.568 E21.33579
G0 F6000 X115.168 Y112.339
G1 F1200 X122.071 Y119.243 E21.66051
G0 F6000 X122.45 Y119.056
G1 F1200 X115.45 Y112.056 E21.98977
G0 F6000 X115.729 Y111.77
G1 F1200 X122.829 Y118.869 E22.32371
G0 F6000 X123.208 Y118.682
G1 F1200 X116.008 Y111.482 E22.66238
G0 F6000 X116.287 Y111.196
G1 F1200 X123.587 Y118.496 E23.00575
G0 F6000 X123.966 Y118.309
G1 F1200 X120.756 Y115.099 E23.15673
G0 F6000 X120.959 Y114.689
G0 X120.405 Y114.12
G0 X120.01 Y114.353
G1 F1200 X116.567 Y110.91 E23.31868
G0 F6000 X116.845 Y110.623
G1 F1200 X119.757 Y113.534 E23.45563
G0 F6000 X119.661 Y112.873
G1 F1200 X117.124 Y110.336 E23.57496
G0 F6000 X117.403 Y110.049
G1 F1200 X119.564 Y112.21 E23.67661
G0 F6000 X119.467 Y111.548
G1 F1200 X117.682 Y109.763 E23.76057
G0 F6000 X117.961 Y109.476
G1 F1200 X119.371 Y110.886 E23.82689
G0 F6000 X119.274 Y110.223
G1 F1200 X118.24 Y109.189 E23.87553
G0 F6000 X118.519 Y108.902
G1 F1200 X119.178 Y109.561 E23.90653
G0 F6000 X119.081 Y108.899
G1 F1200 X118.798 Y108.616 E23.91984
G0 F6000 X118.472 Y108.298
G0 X119.273 Y107.591
G0 X120.953 Y113.942
G0 X122.076 Y115.24
G0 X121.873 Y115.65
G1 F1200 X124.345 Y118.122 E24.03611
G0 F6000 X124.723 Y117.935
G1 F1200 X122.99 Y116.202 E24.11763
G0 F6000 X123.193 Y115.791
G0 X124.31 Y116.342
G0 X124.106 Y116.753
G1 F1200 X125.102 Y117.748 E24.16445
G0 F6000 X125.481 Y117.561
G1 F1200 X125.224 Y117.304 E24.17654
G0 F6000 X125.56 Y116.624
;MESH:NONMESH
G0 F300 X125.56 Y116.624 Z0.4
G0 F6000 X126.47 Y117.498
G0 X120.953 Y121.058
G0 X119.291 Y127.461
G0 X119.276 Y127.416
;TIME_ELAPSED:46.764616
;LAYER:1
M106 S85
;TYPE:WALL-INNER
;MESH:Star3D.stl
G1 F1350 X120.166 Y121.292 E24.38237
G1 X120.283 Y120.899 E24.396
G1 X120.418 Y120.669 E24.40487
G1 X120.595 Y120.469 E24.41376
G1 X120.932 Y120.236 E24.42738
G1 X126.482 Y117.498 E24.63322
G1 X120.932 Y114.76 E24.83905
G1 X120.595 Y114.527 E24.85268
G1 X120.418 Y114.328 E24.86154
G1 X120.283 Y114.098 E24.87041
G1 X120.166 Y113.706 E24.88402
G1 X119.277 Y107.58 E25.0899
G1 X114.847 Y112.129 E25.30109
G1 X114.501 Y112.326 E25.31433
G1 X114.273 Y112.4 E25.32231
G1 X113.877 Y112.443 E25.33556
G1 X107.615 Y111.369 E25.54687
G1 X110.572 Y116.993 E25.75821
G1 X110.651 Y117.381 E25.77138
G1 X110.651 Y117.619 E25.77929
G1 X110.572 Y118.006 E25.79243
G1 X107.615 Y123.629 E26.00373
G1 X113.878 Y122.557 E26.21507
G1 X114.274 Y122.6 E26.22832
G1 X114.5 Y122.673 E26.23622
G1 X114.846 Y122.87 E26.24946
G1 X119.276 Y127.416 E26.46058
G0 F7500 X119.556 Y128.276
G1 F1350 X120.579 Y121.232 E26.69732
G1 X120.731 Y120.895 E26.70962
G1 X121.005 Y120.646 E26.72193
G1 X127.386 Y117.498 E26.95859
G1 X121.109 Y114.401 E27.19139
G1 X120.869 Y114.235 E27.2011
G1 X120.646 Y113.928 E27.21372
G1 X120.562 Y113.648 E27.22344
G1 X119.556 Y106.72 E27.45628
G1 X114.591 Y111.818 E27.69297
G1 X114.267 Y112.002 E27.70536
G1 X113.897 Y112.041 E27.71774
G1 X106.884 Y110.837 E27.9544
G1 X110.195 Y117.135 E28.19106
G1 X110.271 Y117.5 E28.20346
G1 X110.195 Y117.864 E28.21583
G1 X106.884 Y124.16 E28.45242
G1 X113.787 Y122.978 E28.68536
G1 X114.079 Y122.971 E28.69508
G1 X114.44 Y123.088 E28.7077
G1 X114.673 Y123.265 E28.71743
G1 X119.556 Y128.276 E28.95014
G0 F7500 X119.835 Y129.135
G1 F1350 X120.976 Y121.281 E29.21411
G1 X121.175 Y121.008 E29.22534
G1 X128.29 Y117.498 E29.48922
G1 X121.175 Y113.988 E29.75309
G1 X120.976 Y113.715 E29.76433
G1 X119.835 Y105.86 E30.02833
G1 X114.337 Y111.505 E30.29042
G1 X114.092 Y111.621 E30.29944
G1 X113.919 Y111.639 E30.30522
G1 X106.153 Y110.306 E30.5673
G1 X109.846 Y117.33 E30.83124
G1 X109.846 Y117.669 E30.84251
G1 X106.153 Y124.691 E31.1064
G1 X113.977 Y123.351 E31.37041
G1 X114.298 Y123.455 E31.38164
G1 X119.835 Y129.135 E31.64546
G0 F7500 X120.114 Y129.995
;TYPE:WALL-OUTER
G1 F1350 X121.361 Y121.431 E31.93331
G1 X121.423 Y121.331 E31.93722
G1 X129.194 Y117.498 E32.22542
G1 X121.423 Y113.665 E32.51361
G1 X121.361 Y113.565 E32.51752
G1 X120.115 Y105 E32.8054
G1 X114.07 Y111.206 E33.09355
G1 X113.962 Y111.241 E33.09732
G1 X105.422 Y109.775 E33.38552
G1 X109.454 Y117.444 E33.67369
G1 X109.446 Y117.564 E33.67769
G1 X105.422 Y125.222 E33.96542
G1 X113.962 Y123.759 E34.2536
G1 X114.07 Y123.794 E34.25738
G1 X120.114 Y129.995 E34.54539
G0 F7500 X119.947 Y129.475
G0 X118.835 Y126.818
G0 X119.022 Y126.638
;TYPE:SKIN
G1 F1350 X115.228 Y122.744 E34.72621
G1 X114.909 Y122.469 E34.74022
G1 X114.507 Y122.288 E34.75488
G1 X114.072 Y122.192 E34.7697
G1 X113.663 Y122.224 E34.78334
G1 X108.27 Y123.149 E34.96534
G1 X110.809 Y118.322 E35.14674
G1 X110.929 Y118.043 E35.15684
G1 X111.005 Y117.672 E35.16944
G1 X111.008 Y117.345 E35.18031
G1 X110.928 Y116.953 E35.19362
G1 X110.81 Y116.674 E35.20369
G1 X108.274 Y111.849 E35.38499
G1 X113.646 Y112.77 E35.56627
G1 X113.925 Y112.796 E35.57559
G1 X114.356 Y112.748 E35.59001
G1 X114.624 Y112.665 E35.59935
G1 X115.002 Y112.45 E35.61381
G1 X115.212 Y112.267 E35.62307
G1 X119.023 Y108.352 E35.80479
G1 X119.812 Y113.768 E35.98683
G1 X119.899 Y114.157 E36.00009
G1 X120.115 Y114.529 E36.0144
G1 X120.426 Y114.873 E36.02982
G1 X120.753 Y115.072 E36.04255
G1 X125.666 Y117.497 E36.22478
G1 X120.767 Y119.912 E36.40645
G1 X120.422 Y120.119 E36.41983
G1 X120.127 Y120.455 E36.4347
G1 X119.903 Y120.835 E36.44937
G1 X119.812 Y121.219 E36.4625
G1 X119.022 Y126.638 E36.64464
G0 F7500 X118.809 Y126.132
G1 F1350 X118.908 Y126.034 E36.64927
G0 F7500 X118.609 Y125.767
G1 F1350 X119.005 Y125.371 E36.6679
G0 F7500 X118.608 Y125.768
G1 F1350 X118.531 Y125.845 E36.67152
G0 F7500 X118.252 Y125.559
G1 F1350 X119.101 Y124.71 E36.71145
G0 F7500 X119.198 Y124.047
G1 F1350 X117.972 Y125.272 E36.7691
G0 F7500 X117.693 Y124.986
G1 F1350 X119.295 Y123.384 E36.84445
G0 F7500 X119.391 Y122.723
G1 F1350 X117.414 Y124.7 E36.93744
G0 F7500 X117.134 Y124.413
G1 F1350 X119.488 Y122.06 E37.04814
G0 F7500 X119.584 Y121.398
G1 F1350 X116.855 Y124.127 E37.17651
G0 F7500 X116.576 Y123.841
G1 F1350 X119.803 Y120.613 E37.32832
G0 F7500 X120.199 Y120.846
G0 X120.889 Y120.145
G0 X120.685 Y119.731
G1 F1350 X123.677 Y116.739 E37.46905
G0 F7500 X124.056 Y116.926
G1 F1350 X121.801 Y119.181 E37.57512
G0 F7500 X122.005 Y119.595
G0 X123.122 Y119.044
G0 X122.918 Y118.63
G1 F1350 X124.435 Y117.113 E37.64648
G0 F7500 X124.71 Y117.403
G1 F1350 X124.814 Y117.299 E37.65137
G1 X124.71 Y117.404
G1 X124.034 Y118.08 E37.68317
G0 F7500 X124.237 Y118.493
G0 X126.07 Y117.498
G0 X123.502 Y116.14
G0 X123.298 Y116.552
G1 F1350 X116.297 Y123.553 E38.01247
G0 F7500 X116.018 Y123.267
G1 F1350 X122.92 Y116.365 E38.33712
G0 F7500 X122.541 Y116.178
G1 F1350 X115.739 Y122.981 E38.65709
G0 F7500 X115.459 Y122.694
G1 F1350 X122.163 Y115.991 E38.9724
G0 F7500 X121.784 Y115.804
G1 F1350 X115.163 Y122.425 E39.28383
G0 F7500 X114.815 Y122.207
G1 F1350 X121.405 Y115.617 E39.59381
G0 F7500 X121.026 Y115.43
G1 F1350 X114.397 Y122.059 E39.90561
G0 F7500 X113.884 Y122.006
G1 F1350 X120.648 Y115.243 E40.22375
G0 F7500 X120.297 Y115.028
G1 F1350 X113.229 Y122.096 E40.55621
G0 F7500 X112.546 Y122.214
G1 F1350 X120.029 Y114.731 E40.90818
G0 F7500 X119.803 Y114.391
G1 F1350 X111.864 Y122.33 E41.28161
G0 F7500 X111.181 Y122.448
G1 F1350 X119.654 Y113.974 E41.68018
G0 F7500 X119.57 Y113.493
G1 F1350 X110.498 Y122.564 E42.10687
G0 F7500 X109.815 Y122.682
G1 F1350 X119.498 Y112.999 E42.56233
G0 F7500 X119.426 Y112.505
G1 F1350 X109.17 Y122.762 E43.04477
G0 F7500 X108.93 Y122.436
G1 F1350 X108.805 Y122.56 E43.05062
G1 X108.931 Y122.435
G1 X119.354 Y112.011 E43.54091
G0 F7500 X119.282 Y111.518
G1 F1350 X109.433 Y121.366 E44.00415
G0 F7500 X109.031 Y121.154
G0 X109.658 Y119.961
G0 X110.061 Y120.173
G1 F1350 X119.21 Y111.024 E44.43449
G0 F7500 X119.138 Y110.531
G1 F1350 X110.69 Y118.978 E44.83184
G0 F7500 X110.286 Y118.765
G0 X110.704 Y117.857
G0 X111.152 Y117.951
G1 F1350 X119.065 Y110.037 E45.20407
G0 F7500 X118.993 Y109.544
G1 F1350 X111.208 Y117.329 E45.57025
G0 F7500 X111.107 Y116.864
G1 F1350 X118.713 Y109.258 E45.92801
G1 X118.714 Y109.257
G1 X118.921 Y109.05 E45.93775
G0 F7500 X119.379 Y108.984
G0 X119.149 Y107.972
G0 X114.35 Y112.48
G0 X114.49 Y112.916
G1 F1350 X110.932 Y116.474 E46.10511
G0 F7500 X110.736 Y116.103
G1 F1350 X113.85 Y112.99 E46.25156
G0 F7500 X113.351 Y112.924
G1 F1350 X110.542 Y115.732 E46.38366
G0 F7500 X110.347 Y115.362
G1 F1350 X112.868 Y112.841 E46.50224
G0 F7500 X112.385 Y112.758
G1 F1350 X110.152 Y114.991 E46.60727
G0 F7500 X109.957 Y114.62
G1 F1350 X111.902 Y112.675 E46.69876
G0 F7500 X111.42 Y112.592
G1 F1350 X109.762 Y114.249 E46.77672
G0 F7500 X109.568 Y113.878
G1 F1350 X110.937 Y112.509 E46.84112
G0 F7500 X110.454 Y112.426
G1 F1350 X109.372 Y113.508 E46.89201
G0 F7500 X109.177 Y113.137
G1 F1350 X109.971 Y112.344 E46.92933
G0 F7500 X109.488 Y112.261
G1 F1350 X108.983 Y112.766 E46.95309
G0 F7500 X108.788 Y112.395
G1 F1350 X109.006 Y112.177 E46.96334
G0 F7500 X109.135 Y111.427
;MESH:NONMESH
G0 F300 X109.135 Y111.427 Z0.6
G0 F7500 X107.948 Y111.611
G0 X110.637 Y118.226
G0 X107.949 Y123.386
G0 X114.363 Y122.927
G0 X119.167 Y127.081
G0 X119.153 Y127.036
;TIME_ELAPSED:83.590467
;LAYER:2
M106 S170
;TYPE:WALL-INNER
;MESH:Star3D.stl
G1 F1500 X120.006 Y121.174 E47.16037
G1 X120.123 Y120.782 E47.17397
G1 X120.258 Y120.552 E47.18284
G1 X120.435 Y120.353 E47.1917
G1 X120.772 Y120.12 E47.20533
G1 X126.085 Y117.499 E47.40237
G1 X120.627 Y114.808 E47.60477
G1 X120.333 Y114.541 E47.61798
G1 X120.193 Y114.348 E47.62591
G1 X120.03 Y113.989 E47.63902
G1 X119.153 Y107.959 E47.84169
G1 X114.906 Y112.318 E48.04411
G1 X114.56 Y112.515 E48.05735
G1 X114.334 Y112.588 E48.06525
