;FLAVOR:Marlin
;TIME:12293
;Filament used: 9.97244m
;Layer height: 0.2
;MINX:83.08
;MINY:81.56
;MINZ:0.2
;MAXX:152.78
;MAXY:153.652
;MAXZ:200.301
;TARGET_MACHINE.NAME:Creality Ender-3
;Generated with Cura_SteamEngine 5.7.1
M140 S50
M105
M190 S50
M104 S200
M105
M109 S200
M82 ;absolute extrusion mode
; Ender 3 Custom Start G-code
G92 E0 ; Reset Extruder
G28 ; Home all axes
G1 Z2.0 F3000 ; Move Z Axis up little to prevent scratching of Heat Bed
G1 X0.1 Y20 Z0.3 F5000.0 ; Move to start position
G1 X0.1 Y200.0 Z0.3 F1500.0 E15 ; Draw the first line
G1 X0.4 Y200.0 Z0.3 F5000.0 ; Move to side a little
G1 X0.4 Y20 Z0.3 F1500.0 E30 ; Draw the second line
G92 E0 ; Reset Extruder
G1 Z2.0 F3000 ; Move Z Axis up little to prevent scratching of Heat Bed
G1 X5 Y20 Z0.3 F5000.0 ; Move over to prevent blob squish
G92 E0
G92 E0
;LAYER_COUNT:1001
;LAYER:0
M107
;MESH:tall_vase.obj
G0 F6000 X150.135 Y152.784 Z0.2
;TYPE:WALL-OUTER
G1 F1200 X84.862 Y152.784 E2.17099
G1 X83.723 Y152.244 E2.21291
G1 X83.08 Y150.999 E2.25952
G1 X83.08 Y83.997 E4.48802
G1 X83.723 Y82.756 E4.5345
G1 X84.862 Y82.212 E4.57648
G1 X150.134 Y82.212 E6.74744
G1 X151.277 Y82.756 E6.78954
G1 X151.916 Y83.997 E6.83597
G1 X151.916 Y150.999 E9.06446
G1 X151.277 Y152.244 E9.11101
G1 X150.135 Y152.784 E9.15302
G0 F6000 X150.05 Y152.424
;TYPE:SKIN
G1 F1200 X84.942 Y152.424 E11.31853
G1 X83.987 Y151.968 E11.35372
G1 X83.44 Y150.907 E11.39343
G1 X83.44 Y84.081 E13.61607
G1 X83.983 Y83.028 E13.65547
G1 X84.942 Y82.572 E13.69079
G1 X150.05 Y82.572 E15.85629
G1 X151.009 Y83.028 E15.89161
G1 X151.556 Y84.085 E15.9312
G1 X151.556 Y150.911 E18.15384
G1 X151.009 Y151.968 E18.19342
G1 X150.05 Y152.424 E18.22874
G0 F6000 X150.05 Y153.652
G0 X84.701 Y153.652
G0 X84.835 Y152.152
G1 F1200 X83.745 Y151.061 E18.28004
G0 F6000 X83.64 Y150.391
G1 F1200 X85.473 Y152.224 E18.36625
G0 F6000 X86.039 Y152.224
G1 F1200 X83.64 Y149.825 E18.4791
G0 F6000 X83.64 Y149.26
G1 F1200 X86.604 Y152.224 E18.61851
G0 F6000 X87.17 Y152.224
G1 F1200 X83.64 Y148.694 E18.78455
G0 F6000 X83.64 Y148.128
G1 F1200 X87.736 Y152.224 E18.97722
G0 F6000 X88.301 Y152.224
G1 F1200 X83.64 Y147.563 E19.19646
G0 F6000 X83.64 Y146.997
G1 F1200 X88.867 Y152.224 E19.44232
G0 F6000 X89.433 Y152.224
G1 F1200 X83.64 Y146.431 E19.7148
G0 F6000 X83.64 Y145.866
G1 F1200 X89.998 Y152.224 E20.01386
G0 F6000 X90.564 Y152.224
G1 F1200 X83.64 Y145.3 E20.33955
G0 F6000 X83.64 Y144.734
G1 F1200 X91.13 Y152.224 E20.69185
G0 F6000 X91.695 Y152.224
G1 F1200 X83.64 Y144.168 E21.07076
G0 F6000 X83.64 Y143.603
G1 F1200 X92.261 Y152.224 E21.47627
G0 F6000 X92.827 Y152.224
G1 F1200 X83.64 Y143.037 E21.90839
G0 F6000 X83.64 Y142.471
G1 F1200 X93.393 Y152.224 E22.36715
G0 F6000 X93.958 Y152.224
G1 F1200 X83.64 Y141.906 E22.85247
G0 F6000 X83.64 Y141.34
G1 F1200 X94.524 Y152.224 E23.36442
G0 F6000 X95.09 Y152.224
G1 F1200 X83.64 Y140.774 E23.903
G0 F6000 X83.64 Y140.209
G1 F1200 X95.655 Y152.224 E24.46814
G0 F6000 X96.221 Y152.224
G1 F1200 X83.64 Y139.643 E25.05992
G0 F6000 X83.64 Y139.077
G1 F1200 X96.787 Y152.224 E25.67831
G0 F6000 X97.352 Y152.224
G1 F1200 X83.64 Y138.512 E26.32328
G0 F6000 X83.64 Y137.946
G1 F1200 X97.918 Y152.224 E26.99487
G0 F6000 X98.484 Y152.224
G1 F1200 X83.64 Y137.38 E27.69309
G0 F6000 X83.64 Y136.815
G1 F1200 X99.049 Y152.224 E28.41788
G0 F6000 X99.615 Y152.224
G1 F1200 X83.64 Y136.249 E29.1693
G0 F6000 X83.64 Y135.683
G1 F1200 X100.181 Y152.224 E29.94734
G0 F6000 X100.746 Y152.224
G1 F1200 X83.64 Y135.117 E30.75197
G0 F6000 X83.64 Y134.552
G1 F1200 X101.312 Y152.224 E31.58321
G0 F6000 X101.878 Y152.224
G1 F1200 X83.64 Y133.986 E32.44107
G0 F6000 X83.64 Y133.42
G1 F1200 X102.444 Y152.224 E33.32555
G0 F6000 X103.009 Y152.224
G1 F1200 X83.64 Y132.855 E34.23661
G0 F6000 X83.64 Y132.289
G1 F1200 X103.575 Y152.224 E35.17429
G0 F6000 X104.141 Y152.224
G1 F1200 X83.64 Y131.723 E36.1386
G0 F6000 X83.64 Y131.158
G1 F1200 X104.706 Y152.224 E37.12948
G0 F6000 X105.272 Y152.224
G1 F1200 X83.64 Y130.592 E38.14698
G0 F6000 X83.64 Y130.026
G1 F1200 X105.838 Y152.224 E39.1911
G0 F6000 X106.403 Y152.224
G1 F1200 X83.64 Y129.461 E40.26181
G0 F6000 X83.64 Y128.895
G1 F1200 X106.969 Y152.224 E41.35913
G0 F6000 X107.535 Y152.224
G1 F1200 X83.64 Y128.329 E42.48308
G0 F6000 X83.64 Y127.764
G1 F1200 X108.1 Y152.224 E43.6336
G0 F6000 X108.666 Y152.224
G1 F1200 X83.64 Y127.198 E44.81075
G0 F6000 X83.64 Y126.632
G1 F1200 X109.232 Y152.224 E46.01452
G0 F6000 X109.797 Y152.224
G1 F1200 X83.64 Y126.067 E47.24486
G0 F6000 X83.64 Y125.501
G1 F1200 X110.363 Y152.224 E48.50183
G0 F6000 X110.929 Y152.224
G1 F1200 X83.64 Y124.935 E49.78542
G0 F6000 X83.64 Y124.369
G1 F1200 X111.494 Y152.224 E51.09561
G0 F6000 X112.06 Y152.224
G1 F1200 X83.64 Y123.804 E52.4324
G0 F6000 X83.64 Y123.238
G1 F1200 X112.626 Y152.224 E53.79581
G0 F6000 X113.192 Y152.224
G1 F1200 X83.64 Y122.672 E55.18585
G0 F6000 X83.64 Y122.107
G1 F1200 X113.757 Y152.224 E56.60246
G0 F6000 X114.323 Y152.224
G1 F1200 X83.64 Y121.541 E58.04569
G0 F6000 X83.64 Y120.975
G1 F1200 X114.889 Y152.224 E59.51555
G0 F6000 X115.454 Y152.224
G1 F1200 X83.64 Y120.41 E61.01198
G0 F6000 X83.64 Y119.844
G1 F1200 X116.02 Y152.224 E62.53504
G0 F6000 X116.586 Y152.224
G1 F1200 X83.64 Y119.278 E64.08472
G0 F6000 X83.64 Y118.713
G1 F1200 X117.151 Y152.224 E65.66097
G0 F6000 X117.717 Y152.224
G1 F1200 X83.64 Y118.147 E67.26385
G0 F6000 X83.64 Y117.581
G1 F1200 X118.283 Y152.224 E68.89335
G0 F6000 X118.848 Y152.224
G1 F1200 X83.64 Y117.016 E70.54943
G0 F6000 X83.64 Y116.45
G1 F1200 X119.414 Y152.224 E72.23213
G0 F6000 X119.98 Y152.224
G1 F1200 X83.64 Y115.884 E73.94145
G0 F6000 X83.64 Y115.319
G1 F1200 X120.545 Y152.224 E75.67735
G0 F6000 X121.111 Y152.224
G1 F1200 X83.64 Y114.753 E77.43987
G0 F6000 X83.64 Y114.187
G1 F1200 X121.677 Y152.224 E79.22901
G0 F6000 X122.242 Y152.224
G1 F1200 X83.64 Y113.621 E81.04476
G0 F6000 X83.64 Y113.056
G1 F1200 X122.808 Y152.224 E82.8871
G0 F6000 X123.374 Y152.224
G1 F1200 X83.64 Y112.49 E84.75606
G0 F6000 X83.64 Y111.924
G1 F1200 X123.94 Y152.224 E86.65165
G0 F6000 X124.505 Y152.224
G1 F1200 X83.64 Y111.359 E88.57382
G0 F6000 X83.64 Y110.793
G1 F1200 X125.071 Y152.224 E90.5226
G0 F6000 X125.637 Y152.224
G1 F1200 X83.64 Y110.227 E92.49801
G0 F6000 X83.64 Y109.662
G1 F1200 X126.202 Y152.224 E94.5
G0 F6000 X126.768 Y152.224
G1 F1200 X83.64 Y109.096 E96.52861
G0 F6000 X83.64 Y108.53
G1 F1200 X127.334 Y152.224 E98.58384
G0 F6000 X127.899 Y152.224
G1 F1200 X83.64 Y107.965 E100.66565
G0 F6000 X83.64 Y107.399
G1 F1200 X128.465 Y152.224 E102.77408
G0 F6000 X129.031 Y152.224
G1 F1200 X83.64 Y106.833 E104.90913
G0 F6000 X83.64 Y106.268
G1 F1200 X129.596 Y152.224 E107.07076
G0 F6000 X130.162 Y152.224
G1 F1200 X83.64 Y105.702 E109.25901
G0 F6000 X83.64 Y105.136
G1 F1200 X130.728 Y152.224 E111.47389
G0 F6000 X131.293 Y152.224
G1 F1200 X83.64 Y104.57 E113.71536
G0 F6000 X83.64 Y104.005
G1 F1200 X131.859 Y152.224 E115.98344
G0 F6000 X132.425 Y152.224
G1 F1200 X83.64 Y103.439 E118.27813
G0 F6000 X83.64 Y102.873
G1 F1200 X132.991 Y152.224 E120.59945
G0 F6000 X133.556 Y152.224
G1 F1200 X83.64 Y102.308 E122.94735
G0 F6000 X83.64 Y101.742
G1 F1200 X134.122 Y152.224 E125.32187
G0 F6000 X134.688 Y152.224
G1 F1200 X83.64 Y101.176 E127.72301
G0 F6000 X83.64 Y100.611
G1 F1200 X135.253 Y152.224 E130.15073
G0 F6000 X135.819 Y152.224
G1 F1200 X83.64 Y100.045 E132.60507
G0 F6000 X83.64 Y99.479
G1 F1200 X136.385 Y152.224 E135.08603
G0 F6000 X136.95 Y152.224
G1 F1200 X83.64 Y98.914 E137.59357
G0 F6000 X83.64 Y98.348
G1 F1200 X137.516 Y152.224 E140.12773
G0 F6000 X138.082 Y152.224
G1 F1200 X83.64 Y97.782 E142.68852
G0 F6000 X83.64 Y97.217
G1 F1200 X138.647 Y152.224 E145.27588
G0 F6000 X139.213 Y152.224
G1 F1200 X83.64 Y96.651 E147.88986
G0 F6000 X83.64 Y96.085
G1 F1200 X139.779 Y152.224 E150.53047
G0 F6000 X140.344 Y152.224
G1 F1200 X83.64 Y95.52 E153.19765
G0 F6000 X83.64 Y94.954
G1 F1200 X140.91 Y152.224 E155.89145
G0 F6000 X141.476 Y152.224
G1 F1200 X83.64 Y94.388 E158.61188
G0 F6000 X83.64 Y93.822
G1 F1200 X142.041 Y152.224 E161.35891
G0 F6000 X142.607 Y152.224
G1 F1200 X83.64 Y93.257 E164.13254
G0 F6000 X83.64 Y92.691
G1 F1200 X143.173 Y152.224 E166.93279
G0 F6000 X143.739 Y152.224
G1 F1200 X83.64 Y92.125 E169.75966
G0 F6000 X83.64 Y91.56
G1 F1200 X144.304 Y152.224 E172.61311
G0 F6000 X144.87 Y152.224
G1 F1200 X83.64 Y90.994 E175.49318
G0 F6000 X83.64 Y90.428
G1 F1200 X145.436 Y152.224 E178.39987
G0 F6000 X146.001 Y152.224
G1 F1200 X83.64 Y89.863 E181.33314
G0 F6000 X83.64 Y89.297
G1 F1200 X146.567 Y152.224 E184.29304
G0 F6000 X147.133 Y152.224
G1 F1200 X83.64 Y88.731 E187.27955
G0 F6000 X83.64 Y88.166
G1 F1200 X147.698 Y152.224 E190.29265
G0 F6000 X148.264 Y152.224
G1 F1200 X83.64 Y87.6 E193.33236
G0 F6000 X83.64 Y87.034
G1 F1200 X148.83 Y152.224 E196.3987
G0 F6000 X149.395 Y152.224
G1 F1200 X83.64 Y86.469 E199.49161
G0 F6000 X83.64 Y85.903
G1 F1200 X149.961 Y152.224 E202.61115
G0 F6000 X150.358 Y152.056
G1 F1200 X83.64 Y85.337 E205.74938
G0 F6000 X83.64 Y84.771
G1 F1200 X150.742 Y151.873 E208.90565
G0 F6000 X150.995 Y151.561
G1 F1200 X83.64 Y84.206 E212.07383
G0 F6000 X83.806 Y83.806
G1 F1200 X151.188 Y151.188 E215.24327
G0 F6000 X151.356 Y150.791
G1 F1200 X83.999 Y83.433 E218.41156
G0 F6000 X84.253 Y83.122
G1 F1200 X151.356 Y150.225 E221.56788
G0 F6000 X151.356 Y149.659
G1 F1200 X84.636 Y82.939 E224.70618
G0 F6000 X85.035 Y82.773
G1 F1200 X151.356 Y149.093 E227.8257
G0 F6000 X151.356 Y148.528
G1 F1200 X85.601 Y82.773 E230.91861
G0 F6000 X86.167 Y82.773
G1 F1200 X151.356 Y147.962 E233.9849
G0 F6000 X151.356 Y147.396
G1 F1200 X86.732 Y82.773 E237.02459
G0 F6000 X87.298 Y82.773
G1 F1200 X151.356 Y146.831 E240.03768
G0 F6000 X151.356 Y146.265
G1 F1200 X87.864 Y82.773 E243.02415
G0 F6000 X88.429 Y82.773
G1 F1200 X151.356 Y145.699 E245.98402
G0 F6000 X151.356 Y145.134
G1 F1200 X88.995 Y82.773 E248.91729
G0 F6000 X89.561 Y82.773
G1 F1200 X151.356 Y144.568 E251.82394
G0 F6000 X151.356 Y144.002
G1 F1200 X90.126 Y82.773 E254.70399
G0 F6000 X90.692 Y82.773
G1 F1200 X151.356 Y143.437 E257.55744
G0 F6000 X151.356 Y142.871
G1 F1200 X91.258 Y82.773 E260.38426
G0 F6000 X91.823 Y82.773
G1 F1200 X151.356 Y142.305 E263.18449
G0 F6000 X151.356 Y141.74
G1 F1200 X92.389 Y82.773 E265.95812
G0 F6000 X92.955 Y82.773
G1 F1200 X151.356 Y141.174 E268.70512
G0 F6000 X151.356 Y140.608
G1 F1200 X93.521 Y82.773 E271.4255
G0 F6000 X94.086 Y82.773
G1 F1200 X151.356 Y140.042 E274.11928
G0 F6000 X151.356 Y139.477
G1 F1200 X94.652 Y82.773 E276.78646
G0 F6000 X95.218 Y82.773
G1 F1200 X151.356 Y138.911 E279.42702
G0 F6000 X151.356 Y138.345
G1 F1200 X95.783 Y82.773 E282.04098
G0 F6000 X96.349 Y82.773
G1 F1200 X151.356 Y137.78 E284.62834
G0 F6000 X151.356 Y137.214
G1 F1200 X96.915 Y82.773 E287.18908
G0 F6000 X97.48 Y82.773
G1 F1200 X151.356 Y136.648 E289.72322
G0 F6000 X151.356 Y136.083
G1 F1200 X98.046 Y82.773 E292.23076
G0 F6000 X98.612 Y82.773
G1 F1200 X151.356 Y135.517 E294.71168
G0 F6000 X151.356 Y134.951
G1 F1200 X99.177 Y82.773 E297.16599
G0 F6000 X99.743 Y82.773
G1 F1200 X151.356 Y134.386 E299.59371
G0 F6000 X151.356 Y133.82
G1 F1200 X100.309 Y82.773 E301.9948
G0 F6000 X100.874 Y82.773
G1 F1200 X151.356 Y133.254 E304.3693
G0 F6000 X151.356 Y132.689
G1 F1200 X101.44 Y82.773 E306.71719
G0 F6000 X102.006 Y82.773
G1 F1200 X151.356 Y132.123 E309.03847
G0 F6000 X151.356 Y131.557
G1 F1200 X102.571 Y82.773 E311.33314
G0 F6000 X103.137 Y82.773
G1 F1200 X151.356 Y130.992 E313.60121
G0 F6000 X151.356 Y130.426
G1 F1200 X103.703 Y82.773 E315.84267
G0 F6000 X104.269 Y82.773
G1 F1200 X151.356 Y129.86 E318.05749
G0 F6000 X151.356 Y129.294
G1 F1200 X104.834 Y82.773 E320.24572
G0 F6000 X105.4 Y82.773
G1 F1200 X151.356 Y128.729 E322.40735
G0 F6000 X151.356 Y128.163
G1 F1200 X105.966 Y82.773 E324.54236
G0 F6000 X106.531 Y82.773
G1 F1200 X151.356 Y127.597 E326.65076
G0 F6000 X151.356 Y127.032
G1 F1200 X107.097 Y82.773 E328.73257
G0 F6000 X107.663 Y82.773
G1 F1200 X151.356 Y126.466 E330.78776
G0 F6000 X151.356 Y125.9
G1 F1200 X108.228 Y82.773 E332.81634
G0 F6000 X108.794 Y82.773
G1 F1200 X151.356 Y125.335 E334.81833
G0 F6000 X151.356 Y124.769
G1 F1200 X109.36 Y82.773 E336.79369
G0 F6000 X109.925 Y82.773
G1 F1200 X151.356 Y124.203 E338.74246
G0 F6000 X151.356 Y123.638
G1 F1200 X110.491 Y82.773 E340.66462
G0 F6000 X111.057 Y82.773
G1 F1200 X151.356 Y123.072 E342.56016
G0 F6000 X151.356 Y122.506
G1 F1200 X111.622 Y82.773 E344.4291
G0 F6000 X112.188 Y82.773
G1 F1200 X151.356 Y121.941 E346.27145
G0 F6000 X151.356 Y121.375
G1 F1200 X112.754 Y82.773 E348.08717
G0 F6000 X113.32 Y82.773
G1 F1200 X151.356 Y120.809 E349.87626
G0 F6000 X151.356 Y120.244
G1 F1200 X113.885 Y82.773 E351.63878
G0 F6000 X114.451 Y82.773
G1 F1200 X151.356 Y119.678 E353.37468
G0 F6000 X151.356 Y119.112
G1 F1200 X115.017 Y82.773 E355.08396
G0 F6000 X115.582 Y82.773
G1 F1200 X151.356 Y118.546 E356.76663
G0 F6000 X151.356 Y117.981
G1 F1200 X116.148 Y82.773 E358.42271
G0 F6000 X116.714 Y82.773
G1 F1200 X151.356 Y117.415 E360.05216
G0 F6000 X151.356 Y116.849
G1 F1200 X117.279 Y82.773 E361.65502
G0 F6000 X117.845 Y82.773
G1 F1200 X151.356 Y116.284 E363.23127
G0 F6000 X151.356 Y115.718
G1 F1200 X118.411 Y82.773 E364.7809
G0 F6000 X118.976 Y82.773
G1 F1200 X151.356 Y115.152 E366.30394
G0 F6000 X151.356 Y114.587
G1 F1200 X119.542 Y82.773 E367.80037
G0 F6000 X120.108 Y82.773
G1 F1200 X151.356 Y114.021 E369.27018
G0 F6000 X151.356 Y113.455
G1 F1200 X120.673 Y82.773 E370.71339
G0 F6000 X121.239 Y82.773
G1 F1200 X151.356 Y112.89 E372.13
G0 F6000 X151.356 Y112.324
G1 F1200 X121.805 Y82.773 E373.51999
G0 F6000 X122.37 Y82.773
G1 F1200 X151.356 Y111.758 E374.88338
G0 F6000 X151.356 Y111.193
G1 F1200 X122.936 Y82.773 E376.22017
G0 F6000 X123.502 Y82.773
G1 F1200 X151.356 Y110.627 E377.53033
G0 F6000 X151.356 Y110.061
G1 F1200 X124.068 Y82.773 E378.81388
G0 F6000 X124.633 Y82.773
G1 F1200 X151.356 Y109.495 E380.07082
G0 F6000 X151.356 Y108.93
G1 F1200 X125.199 Y82.773 E381.30117
G0 F6000 X125.765 Y82.773
G1 F1200 X151.356 Y108.364 E382.50489
G0 F6000 X151.356 Y107.798
G1 F1200 X126.33 Y82.773 E383.68201
G0 F6000 X126.896 Y82.773
G1 F1200 X151.356 Y107.233 E384.83254
G0 F6000 X151.356 Y106.667
G1 F1200 X127.462 Y82.773 E385.95644
G0 F6000 X128.027 Y82.773
G1 F1200 X151.356 Y106.101 E387.05374
G0 F6000 X151.356 Y105.536
G1 F1200 X128.593 Y82.773 E388.12444
G0 F6000 X129.159 Y82.773
G1 F1200 X151.356 Y104.97 E389.16852
G0 F6000 X151.356 Y104.404
G1 F1200 X129.724 Y82.773 E390.186
G0 F6000 X130.29 Y82.773
G1 F1200 X151.356 Y103.839 E391.17688
G0 F6000 X151.356 Y103.273
G1 F1200 X130.856 Y82.773 E392.14113
G0 F6000 X131.421 Y82.773
G1 F1200 X151.356 Y102.707 E393.07879
G0 F6000 X151.356 Y102.142
G1 F1200 X131.987 Y82.773 E393.98985
G0 F6000 X132.553 Y82.773
G1 F1200 X151.356 Y101.576 E394.87429
G0 F6000 X151.356 Y101.01
G1 F1200 X133.119 Y82.773 E395.7321
G0 F6000 X133.684 Y82.773
G1 F1200 X151.356 Y100.445 E396.56334
G0 F6000 X151.356 Y99.879
G1 F1200 X134.25 Y82.773 E397.36795
G0 F6000 X134.816 Y82.773
G1 F1200 X151.356 Y99.313 E398.14594
G0 F6000 X151.356 Y98.747
G1 F1200 X135.381 Y82.773 E398.89733
G0 F6000 X135.947 Y82.773
G1 F1200 X151.356 Y98.182 E399.62212
G0 F6000 X151.356 Y97.616
G1 F1200 X136.513 Y82.773 E400.32029
G0 F6000 X137.078 Y82.773
G1 F1200 X151.356 Y97.05 E400.99186
G0 F6000 X151.356 Y96.485
G1 F1200 X137.644 Y82.773 E401.63683
G0 F6000 X138.21 Y82.773
G1 F1200 X151.356 Y95.919 E402.25518
G0 F6000 X151.356 Y95.353
G1 F1200 X138.775 Y82.773 E402.84693
G0 F6000 X139.341 Y82.773
G1 F1200 X151.356 Y94.788 E403.41208
G0 F6000 X151.356 Y94.222
G1 F1200 X139.907 Y82.773 E403.9506
G0 F6000 X140.472 Y82.773
G1 F1200 X151.356 Y93.656 E404.46253
G0 F6000 X151.356 Y93.091
G1 F1200 X141.038 Y82.773 E404.94786
G0 F6000 X141.604 Y82.773
G1 F1200 X151.356 Y92.525 E405.40656
G0 F6000 X151.356 Y91.959
G1 F1200 X142.169 Y82.773 E405.83867
G0 F6000 X142.735 Y82.773
G1 F1200 X151.356 Y91.394 E406.24417
G0 F6000 X151.356 Y90.828
G1 F1200 X143.301 Y82.773 E406.62305
G0 F6000 X143.867 Y82.773
G1 F1200 X151.356 Y90.262 E406.97531
G0 F6000 X151.356 Y89.696
G1 F1200 X144.432 Y82.773 E407.30097
