;FLAVOR:Marlin
;TIME:273
;Filament used: 0.107223m
;Layer height: 0.2
;MINX:121.815
;MINY:93.052
;MINZ:0.2
;MAXX:149.09
;MAXY:123.558
;MAXZ:3.4
;TARGET_MACHINE.NAME:Creality Ender-3
;Generated with Cura_SteamEngine 5.7.1
M140 S50
M105
M190 S50
M104 S200
M105
M109 S200
M82 ;absolute extrusion mode
; Ender 3 Custom Start G-code
G92 E0 ; Reset Extruder
G28 ; Home all axes
G1 Z2.0 F3000 ; Move Z Axis up little to prevent scratching of Heat Bed
G1 X0.1 Y20 Z0.3 F5000.0 ; Move to start position
G1 X0.1 Y200.0 Z0.3 F1500.0 E15 ; Draw the first line
G1 X0.4 Y200.0 Z0.3 F5000.0 ; Move to side a little
G1 X0.4 Y20 Z0.3 F1500.0 E30 ; Draw the second line
G92 E0 ; Reset Extruder
G1 Z2.0 F3000 ; Move Z Axis up little to prevent scratching of Heat Bed
G1 X5 Y20 Z0.3 F5000.0 ; Move over to prevent blob squish
G92 E0
G92 E0
G1 F2700 E-5
;LAYER_COUNT:17
;LAYER:0
M107
;MESH:Star3D.stl
G0 F6000 X130.469 Y114.937 Z0.2
;TYPE:WALL-INNER
G1 F2700 E0
G1 F1200 X130.241 Y111.454 E0.11609
G1 X130.377 Y111.147 E0.12726
G1 X133.121 Y108.987 E0.24341
G1 X129.736 Y108.128 E0.35956
G1 X129.484 Y107.902 E0.37082
G1 X128.277 Y104.628 E0.48688
G1 X126.417 Y107.574 E0.60276
G1 X126.126 Y107.743 E0.61395
G1 X122.64 Y107.884 E0.72999
G1 X124.866 Y110.564 E0.84587
G1 X124.936 Y110.895 E0.85712
G1 X123.993 Y114.254 E0.97316
G1 X127.232 Y112.964 E1.08912
G1 X127.567 Y112.998 E1.10032
G1 X130.469 Y114.937 E1.2164
G0 F6000 X130.921 Y115.719
;TYPE:WALL-OUTER
G1 F1200 X130.645 Y111.512 E1.35663
G1 X130.689 Y111.41 E1.36032
G1 X134.005 Y108.799 E1.5007
G1 X129.913 Y107.759 E1.64113
G1 X129.831 Y107.685 E1.6448
G1 X128.372 Y103.729 E1.78504
G1 X126.123 Y107.291 E1.92515
G1 X126.028 Y107.346 E1.9288
G1 X121.815 Y107.516 E2.06904
G1 X124.506 Y110.757 E2.20915
G1 X124.528 Y110.868 E2.21292
G1 X123.389 Y114.925 E2.35307
G1 X127.305 Y113.366 E2.49326
G1 X127.416 Y113.378 E2.49697
G1 X130.921 Y115.719 E2.63716
G0 F6000 X130.647 Y115.242
G0 X130.321 Y114.212
G0 X130.061 Y114.228
;TYPE:SKIN
G1 F1200 X127.879 Y112.773 E2.72439
G1 X127.61 Y112.646 E2.73428
G1 X127.26 Y112.605 E2.746
G1 X126.977 Y112.674 E2.75569
G1 X124.534 Y113.651 E2.8432
G1 X125.245 Y111.116 E2.93077
G1 X125.28 Y110.819 E2.94072
G1 X125.221 Y110.512 E2.95111
G1 X125.082 Y110.266 E2.96051
G1 X123.381 Y108.213 E3.04919
G1 X126.009 Y108.104 E3.13667
G1 X126.293 Y108.051 E3.14628
G1 X126.601 Y107.877 E3.15805
G1 X126.785 Y107.66 E3.16751
G1 X128.188 Y105.435 E3.255
G1 X129.114 Y107.933 E3.3436
G1 X129.237 Y108.156 E3.35207
G1 X129.499 Y108.394 E3.36385
G1 X129.739 Y108.498 E3.37255
G1 X132.325 Y109.155 E3.46129
G1 X130.256 Y110.782 E3.54883
G1 X130.054 Y110.994 E3.55857
G1 X129.915 Y111.313 E3.57015
G1 X129.888 Y111.578 E3.57901
G1 X130.061 Y114.228 E3.66733
G0 F6000 X130.321 Y114.212
G0 X130.263 Y114.579
G0 X127.391 Y113.079
G0 X125.262 Y113.641
G0 X125.091 Y113.212
G1 F1200 X124.914 Y113.035 E3.67566
G0 F6000 X125.038 Y112.593
G1 F1200 X125.495 Y113.05 E3.69716
G0 F6000 X125.9 Y112.889
G1 F1200 X125.162 Y112.151 E3.73187
G0 F6000 X125.286 Y111.709
G1 F1200 X126.303 Y112.727 E3.77973
G0 F6000 X126.708 Y112.566
G1 F1200 X125.41 Y111.267 E3.84081
G0 F6000 X125.471 Y110.763
G1 F1200 X127.136 Y112.429 E3.91915
G0 F6000 X127.771 Y112.497
G1 F1200 X124.383 Y109.109 E4.07851
G0 F6000 X124.218 Y108.379
G1 F1200 X129.36 Y113.52 E4.32035
G0 F6000 X129.807 Y113.402
G1 F1200 X124.761 Y108.356 E4.5577
G0 F6000 X125.304 Y108.334
G1 F1200 X129.768 Y112.797 E4.76765
G0 F6000 X129.729 Y112.192
G1 F1200 X125.847 Y108.311 E4.95022
G0 F6000 X126.349 Y108.247
G1 F1200 X129.689 Y111.587 E5.10732
G0 F6000 X129.784 Y111.117
G1 F1200 X126.711 Y108.043 E5.25189
G0 F6000 X126.97 Y107.736
G1 F1200 X129.995 Y110.762 E5.3942
G0 F6000 X130.295 Y110.496
G1 F1200 X127.189 Y107.39 E5.5403
G0 F6000 X127.408 Y107.043
G1 F1200 X130.612 Y110.247 E5.691
G0 F6000 X130.929 Y109.998
G1 F1200 X129.574 Y108.643 E5.75474
G0 F6000 X130.356 Y108.86
G1 F1200 X131.245 Y109.749 E5.79655
G0 F6000 X131.561 Y109.5
G1 F1200 X131.115 Y109.054 E5.81753
G0 F6000 X131.227 Y108.611
G0 X129.343 Y107.81
G0 X128.926 Y107.996
G1 F1200 X127.627 Y106.697 E5.87863
G0 F6000 X127.846 Y106.35
G1 F1200 X128.589 Y107.093 E5.91358
G0 F6000 X128.256 Y106.195
G1 F1200 X128.066 Y106.004 E5.92254
G1 F2700 E0.92254
;MESH:Star3D.stl(1)
G0 F6000 X128.604 Y105.806
G0 X129.679 Y107.941
G0 X133.518 Y108.902
G0 X134.19 Y109.753
G0 X137.995 Y112.861
G0 X144.359 Y122.697
;TYPE:WALL-INNER
G1 F2700 E5.92254
G1 F1200 X144.859 Y119.246 E6.03852
G1 X145.059 Y118.972 E6.0498
G1 X148.186 Y117.43 E6.16577
G1 X145.059 Y115.888 E6.28173
G1 X144.86 Y115.615 E6.29297
G1 X144.359 Y112.16 E6.40908
G1 X141.926 Y114.662 E6.52516
G1 X141.603 Y114.765 E6.53643
G1 X138.167 Y114.175 E6.65239
G1 X139.786 Y117.261 E6.7683
G1 X139.785 Y117.599 E6.77954
G1 X138.164 Y120.686 E6.89551
G1 X141.604 Y120.095 E7.0116
G1 X141.928 Y120.199 E7.02292
G1 X144.359 Y122.697 E7.13885
G0 F6000 X144.638 Y123.558
;TYPE:WALL-OUTER
G1 F1200 X145.243 Y119.386 E7.27906
G1 X145.31 Y119.294 E7.28285
G1 X149.09 Y117.43 E7.42302
G1 X145.309 Y115.566 E7.56323
G1 X145.244 Y115.475 E7.56695
G1 X144.639 Y111.3 E7.70726
G1 X141.698 Y114.322 E7.84752
G1 X141.589 Y114.357 E7.85133
G1 X137.436 Y113.644 E7.99148
G1 X139.393 Y117.371 E8.13149
G1 X139.393 Y117.485 E8.13528
G1 X137.434 Y121.217 E8.27547
G1 X141.59 Y120.503 E8.41572
G1 X141.698 Y120.538 E8.4195
G1 X144.638 Y123.558 E8.55968
G0 F6000 X144.469 Y123.035
G0 X143.919 Y122.1
G0 X144.106 Y121.919
;TYPE:SKIN
G1 F1200 X142.276 Y120.036 E8.64701
G1 X142.04 Y119.864 E8.65673
G1 X141.708 Y119.751 E8.66839
G1 X141.41 Y119.758 E8.6783
G1 X138.82 Y120.204 E8.76572
G1 X140.042 Y117.877 E8.85313
G1 X140.139 Y117.6 E8.8629
G1 X140.139 Y117.257 E8.8743
G1 X140.058 Y117.004 E8.88314
G1 X138.821 Y114.651 E8.97156
G1 X141.406 Y115.098 E9.05881
G1 X141.711 Y115.105 E9.06896
G1 X142.041 Y114.996 E9.08052
G1 X142.268 Y114.824 E9.08999
G1 X144.107 Y112.932 E9.17775
G1 X144.491 Y115.572 E9.26648
G1 X144.566 Y115.817 E9.275
G1 X144.772 Y116.1 E9.28664
G1 X145.011 Y116.264 E9.29628
G1 X147.37 Y117.429 E9.38379
G1 X145.011 Y118.592 E9.47127
G1 X144.768 Y118.76 E9.48109
G1 X144.567 Y119.038 E9.4925
G1 X144.49 Y119.274 E9.50076
G1 X144.106 Y121.919 E9.58965
G0 F6000 X143.919 Y122.1
G0 X141.735 Y120.242
G0 X139.508 Y120.354
G0 X139.375 Y119.576
G1 F1200 X139.656 Y119.857 E9.60287
G0 F6000 X140.139 Y119.774
G1 F1200 X139.569 Y119.205 E9.62966
G0 F6000 X139.765 Y118.834
G1 F1200 X140.621 Y119.691 E9.66995
G0 F6000 X141.103 Y119.607
G1 F1200 X139.959 Y118.463 E9.72376
G0 F6000 X140.154 Y118.092
G1 F1200 X141.614 Y119.553 E9.79245
G0 F6000 X141.379 Y120.032
G0 X138.497 Y120.444
G0 X139.884 Y117.564
G0 X140.322 Y117.694
G1 F1200 X143.985 Y121.358 E9.96477
G0 F6000 X144.057 Y120.864
G1 F1200 X140.298 Y117.105 E10.14158
G0 F6000 X139.868 Y117.252
G0 X139.345 Y116.203
G0 X139.75 Y115.991
G1 F1200 X144.13 Y120.371 E10.34761
G0 F6000 X144.202 Y119.878
G1 F1200 X139.254 Y114.93 E10.58035
G0 F6000 X139.938 Y115.048
G1 F1200 X144.275 Y119.384 E10.78432
G0 F6000 X144.394 Y118.938
G1 F1200 X140.622 Y115.166 E10.96174
G0 F6000 X141.305 Y115.284
G1 F1200 X144.632 Y118.611 E11.11824
G0 F6000 X144.975 Y118.387
G1 F1200 X141.854 Y115.267 E11.26501
G0 F6000 X142.247 Y115.094
G1 F1200 X145.354 Y118.201 E11.41116
G0 F6000 X145.733 Y118.014
G1 F1200 X142.545 Y114.826 E11.56111
G0 F6000 X142.824 Y114.539
G1 F1200 X146.111 Y117.827 E11.71575
G0 F6000 X146.49 Y117.64
G1 F1200 X145.65 Y116.8 E11.75526
G0 F6000 X145.852 Y116.391
G0 X146.977 Y116.946
G0 X146.773 Y117.357
G1 F1200 X146.869 Y117.453 E11.75977
G0 F6000 X147.073 Y117.867
G0 X147.774 Y117.43
G0 X145.926 Y116.522
G0 X144.72 Y115.35
G0 X144.265 Y115.415
G1 F1200 X143.102 Y114.252 E11.81448
G0 F6000 X143.381 Y113.965
G1 F1200 X144.169 Y114.754 E11.85157
G0 F6000 X144.073 Y114.092
G1 F1200 X143.659 Y113.678 E11.87104
G1 F2700 E6.87104
;MESH:Star3D.stl(2)
G0 F6000 X143.333 Y113.36
G0 X144.493 Y111.751
G0 X143.724 Y111.003
G0 X140.623 Y105.598
G0 X140.178 Y104.347
;TYPE:WALL-INNER
G1 F2700 E11.87104
G1 F1200 X142.971 Y102.263 E11.98694
G1 X143.304 Y102.211 E11.99815
G1 X146.607 Y103.331 E12.11416
G1 X145.487 Y100.028 E12.23016
G1 X145.539 Y99.693 E12.24143
G1 X147.625 Y96.901 E12.35735
G1 X144.137 Y96.946 E12.47337
G1 X143.837 Y96.792 E12.48459
G1 X141.825 Y93.944 E12.60057
G1 X140.788 Y97.274 E12.71657
G1 X140.552 Y97.511 E12.72769
G1 X137.219 Y98.548 E12.84379
G1 X140.068 Y100.561 E12.95982
G1 X140.222 Y100.861 E12.97103
G1 X140.178 Y104.347 E13.08699
G0 F6000 X139.767 Y105.152
;TYPE:WALL-OUTER
G1 F1200 X143.142 Y102.633 E13.22706
G1 X143.255 Y102.617 E13.23085
G1 X147.246 Y103.97 E13.37102
G1 X145.893 Y99.979 E13.51118
G1 X145.909 Y99.866 E13.51497
G1 X148.43 Y96.49 E13.65511
G1 X144.215 Y96.545 E13.79532
G1 X144.115 Y96.493 E13.79906
G1 X141.684 Y93.052 E13.93919
G1 X140.43 Y97.077 E14.07941
G1 X140.353 Y97.154 E14.08303
G1 X136.326 Y98.407 E14.22331
G1 X139.77 Y100.84 E14.36355
G1 X139.821 Y100.939 E14.36726
G1 X139.767 Y105.152 E14.50739
G0 F6000 X140.017 Y104.666
G0 X140.288 Y103.615
G0 X140.546 Y103.618
;TYPE:SKIN
G1 F1200 X140.579 Y100.967 E14.59557
G1 X140.538 Y100.707 E14.60433
G1 X140.381 Y100.393 E14.61601
G1 X140.172 Y100.192 E14.62565
G1 X138.024 Y98.676 E14.71309
G1 X140.536 Y97.896 E14.80058
G1 X140.798 Y97.764 E14.81034
G1 X141.04 Y97.521 E14.82174
G1 X141.161 Y97.279 E14.83074
G1 X141.952 Y94.748 E14.91894
G1 X143.466 Y96.889 E15.00615
G1 X143.669 Y97.104 E15.01599
G1 X143.983 Y97.262 E15.02768
G1 X144.239 Y97.302 E15.0363
G1 X146.894 Y97.27 E15.12461
G1 X145.327 Y99.372 E15.21181
G1 X145.188 Y99.628 E15.2215
G1 X145.138 Y99.946 E15.23221
G1 X145.179 Y100.23 E15.24175
G1 X146.03 Y102.754 E15.33034
G1 X143.533 Y101.91 E15.41801
G1 X143.254 Y101.86 E15.42744
G1 X142.937 Y101.906 E15.43809
G1 X142.675 Y102.036 E15.44782
G1 X140.546 Y103.618 E15.53604
G0 F6000 X140.961 Y103.06
G1 F1200 X140.755 Y102.854 E15.54573
G0 F6000 X141.286 Y102.819
G1 F1200 X140.762 Y102.295 E15.57038
G0 F6000 X140.768 Y101.736
G1 F1200 X141.61 Y102.578 E15.60998
G0 F6000 X141.935 Y102.337
G1 F1200 X140.774 Y101.176 E15.66459
G0 F6000 X140.648 Y100.484
G1 F1200 X142.26 Y102.096 E15.74041
G0 F6000 X142.586 Y101.857
G1 F1200 X139.238 Y98.508 E15.89792
G0 F6000 X139.67 Y98.375
G1 F1200 X142.991 Y101.696 E16.05413
G0 F6000 X143.577 Y101.717
G1 F1200 X140.101 Y98.24 E16.21765
G0 F6000 X140.533 Y98.107
G1 F1200 X144.428 Y102.002 E16.40086
G0 F6000 X145.282 Y102.29
G1 F1200 X140.917 Y97.925 E16.60618
G0 F6000 X141.199 Y97.642
G1 F1200 X145.569 Y102.011 E16.8117
G0 F6000 X145.282 Y101.159
G1 F1200 X141.38 Y97.256 E16.99526
G0 F6000 X141.514 Y96.825
G1 F1200 X144.995 Y100.306 E17.159
G0 F6000 X144.975 Y99.72
G1 F1200 X141.648 Y96.394 E17.31547
G0 F6000 X141.782 Y95.961
G1 F1200 X145.132 Y99.312 E17.47307
G0 F6000 X145.368 Y98.982
G1 F1200 X143.756 Y97.37 E17.54889
G0 F6000 X144.452 Y97.5
G1 F1200 X145.61 Y98.658 E17.60336
G0 F6000 X145.852 Y98.335
G1 F1200 X145.011 Y97.493 E17.64294
G0 F6000 X145.57 Y97.487
G1 F1200 X146.093 Y98.01 E17.66754
G0 F6000 X146.335 Y97.686
G1 F1200 X146.129 Y97.48 E17.67723
G0 F6000 X146.124 Y97.02
G0 X144.034 Y96.782
G0 X143.466 Y96.441
G0 X143.091 Y96.705
G1 F1200 X141.916 Y95.53 E17.7325
G0 F6000 X142.521 Y95.104
G0 X141.889 Y94.351
G0 X140.601 Y97.325
G0 X137.626 Y98.613
G0 X138.38 Y99.245
G0 X138.806 Y98.643
G1 F1200 X139.964 Y99.8 E17.78694
G1 F2700 E12.78694
;MESH:NONMESH
G0 F300 X139.964 Y99.8 Z0.4
G0 F6000 X139.698 Y100.176
G0 X140.022 Y100.751
G0 X138.956 Y101.319
G0 X135.176 Y108.968
G0 X131.532 Y111.843
G0 X130.27 Y114.593
;TIME_ELAPSED:41.666552
;LAYER:1
M106 S85
;TYPE:WALL-INNER
;MESH:Star3D.stl
G1 F2700 E17.78694
G1 F1350 X130.061 Y111.37 E17.89437
G1 X130.198 Y111.062 E17.90558
G1 X132.724 Y109.07 E18.01257
G1 X129.604 Y108.276 E18.11965
G1 X129.351 Y108.048 E18.13098
G1 X128.236 Y105.022 E18.23824
G1 X126.518 Y107.75 E18.34547
G1 X126.225 Y107.919 E18.35672
G1 X123.002 Y108.045 E18.464
G1 X125.062 Y110.524 E18.5712
G1 X125.132 Y110.855 E18.58245
G1 X124.26 Y113.958 E18.68966
G1 X127.251 Y112.764 E18.79677
G1 X127.589 Y112.798 E18.80807
G1 X130.27 Y114.593 E18.91538
G0 F7500 X130.721 Y115.376
;TYPE:WALL-OUTER
G1 F1350 X130.465 Y111.428 E19.04697
G1 X130.51 Y111.325 E19.05071
G1 X133.608 Y108.882 E19.18193
G1 X129.781 Y107.907 E19.31328
G1 X129.698 Y107.833 E19.31698
G1 X128.331 Y104.122 E19.44852
G1 X126.224 Y107.466 E19.57998
G1 X126.128 Y107.522 E19.58367
G1 X122.176 Y107.677 E19.71522
G1 X124.702 Y110.717 E19.84668
G1 X124.724 Y110.828 E19.85044
G1 X123.656 Y114.629 E19.98176
G1 X127.325 Y113.166 E20.11314
G1 X127.438 Y113.178 E20.11692
G1 X130.721 Y115.376 E20.24832
G0 F7500 X130.447 Y114.896
G0 X130.122 Y113.868
G0 X129.861 Y113.884
;TYPE:SKIN
G1 F1350 X127.899 Y112.571 E20.32684
G1 X127.629 Y112.446 E20.33674
G1 X127.312 Y112.412 E20.34734
G1 X127.029 Y112.464 E20.35691
G1 X124.801 Y113.355 E20.43672
G1 X125.441 Y111.076 E20.51545
G1 X125.476 Y110.778 E20.52543
G1 X125.408 Y110.441 E20.53687
G1 X125.275 Y110.219 E20.54548
G1 X123.744 Y108.373 E20.62524
G1 X126.109 Y108.28 E20.70396
G1 X126.393 Y108.227 E20.71357
G1 X126.699 Y108.055 E20.72525
G1 X126.886 Y107.835 E20.73485
G1 X128.147 Y105.831 E20.8136
G1 X128.968 Y108.054 E20.89242
G1 X129.111 Y108.31 E20.90217
G1 X129.368 Y108.539 E20.91362
G1 X129.603 Y108.642 E20.92216
G1 X131.927 Y109.239 E21.00196
G1 X130.049 Y110.719 E21.08149
G1 X129.874 Y110.913 E21.09018
G1 X129.744 Y111.203 E21.10075
G1 X129.708 Y111.497 E21.1106
G1 X129.861 Y113.884 E21.19016
G0 F7500 X129.366 Y113.313
G1 F1350 X129.607 Y113.072 E21.20149
G0 F7500 X129.572 Y112.541
G1 F1350 X129.027 Y113.086 E21.22713
G0 F7500 X128.688 Y112.86
G1 F1350 X129.538 Y112.01 E21.26711
G0 F7500 X129.513 Y111.469
G1 F1350 X128.349 Y112.633 E21.32186
G0 F7500 X128.01 Y112.406
G1 F1350 X130.991 Y109.425 E21.46208
G1 X130.992 Y109.425
G1 X131.167 Y109.249 E21.47033
G0 F7500 X130.714 Y109.136
G1 F1350 X127.605 Y112.245 E21.61657
G0 F7500 X127.02 Y112.265
G1 F1350 X130.264 Y109.021 E21.76916
G0 F7500 X129.813 Y108.906
G1 F1350 X126.1 Y112.619 E21.94381
G0 F7500 X125.478 Y112.675
G1 F1350 X129.387 Y108.766 E22.12767
G0 F7500 X129.06 Y108.528
G1 F1350 X125.313 Y112.275 E22.30392
G0 F7500 X125.478 Y112.676
G1 F1350 X125.156 Y112.998 E22.31907
G0 F7500 X125.325 Y113.424
G0 X124.536 Y113.651
G0 X125.094 Y111.364
G0 X125.534 Y111.488
G1 F1350 X128.821 Y108.201 E22.47368
G0 F7500 X128.659 Y107.797
G1 F1350 X125.676 Y110.781 E22.61401
G0 F7500 X125.568 Y110.323
G1 F1350 X128.507 Y107.384 E22.75225
G0 F7500 X128.354 Y106.971
G1 F1350 X125.34 Y109.986 E22.89405
G0 F7500 X125.084 Y109.676
G1 F1350 X126.311 Y108.448 E22.95178
G0 F7500 X125.697 Y108.497
G1 F1350 X124.827 Y109.367 E22.99271
G0 F7500 X124.571 Y109.057
G1 F1350 X125.108 Y108.52 E23.01796
G0 F7500 X124.52 Y108.542
G1 F1350 X124.314 Y108.748 E23.02765
G0 F7500 X123.505 Y108.492
G0 X123.379 Y108.213
G0 X126.323 Y107.75
G0 X127.074 Y107.056
G0 X127.46 Y107.3
G1 F1350 X127.982 Y106.777 E23.05223
G1 X127.983 Y106.777
G1 X128.201 Y106.558 E23.06251
G1 F2700 E18.06251
;MESH:Star3D.stl(1)
G0 F7500 X128.636 Y106.399
G0 X129.546 Y108.09
G0 X133.152 Y108.98
G0 X133.816 Y109.822
G0 X138.319 Y113.096
G0 X144.235 Y122.318
;TYPE:WALL-INNER
G1 F2700 E23.06251
G1 F1350 X144.7 Y119.126 E23.1698
G1 X144.899 Y118.852 E23.18106
G1 X147.786 Y117.429 E23.28811
G1 X144.899 Y116.004 E23.39519
G1 X144.7 Y115.731 E23.40643
G1 X144.236 Y112.54 E23.51368
G1 X141.987 Y114.849 E23.62089
G1 X141.664 Y114.953 E23.63217
G1 X138.492 Y114.411 E23.7392
G1 X139.986 Y117.259 E23.84617
G1 X139.986 Y117.596 E23.85738
G1 X138.489 Y120.451 E23.9646
G1 X141.665 Y119.907 E24.07177
G1 X141.988 Y120.011 E24.08306
G1 X144.235 Y122.318 E24.19017
G0 F7500 X144.514 Y123.178
;TYPE:WALL-OUTER
G1 F1350 X145.084 Y119.265 E24.32169
G1 X145.15 Y119.174 E24.32543
G1 X148.69 Y117.429 E24.4567
G1 X145.149 Y115.681 E24.58804
G1 X145.084 Y115.591 E24.59173
G1 X144.515 Y111.68 E24.72318
G1 X141.758 Y114.51 E24.85459
G1 X141.65 Y114.545 E24.85837
G1 X137.762 Y113.881 E24.98955
G1 X139.593 Y117.37 E25.12061
G1 X139.593 Y117.485 E25.12443
